OCIO/luts/ACES2_Output_v2.0.0/ACES2 Output v2.0.0 Rec2100 (Rec709 sim)_inverse.cube
TITLE "Generated by Foundry::LUT"
LUT_3D_SIZE 65
0.072906 0.072906 0.072906
0.136582 0.072698 0.073171
0.185047 0.072320 0.073350
0.217739 0.071759 0.073500
0.242741 0.071003 0.073629
0.263457 0.070044 0.073740
0.281435 0.068885 0.073840
0.297515 0.067538 0.073934
0.312210 0.066024 0.074034
0.325856 0.064369 0.074147
0.338694 0.062601 0.074287
0.350897 0.060750 0.074465
0.362605 0.058842 0.074694
0.373923 0.056897 0.074987
0.384943 0.054932 0.075357
0.395740 0.052963 0.075821
0.406376 0.051000 0.076397
0.416908 0.049053 0.077105
0.427385 0.047132 0.077968
0.437852 0.045243 0.079017
0.448348 0.043396 0.080285
0.458914 0.041601 0.081814
0.469587 0.039865 0.083654
0.480402 0.038196 0.085866
0.491398 0.036591 0.088524
0.502612 0.035047 0.091720
0.514092 0.033542 0.095568
0.525880 0.032026 0.100209
0.538041 0.030414 0.105827
0.550633 0.028556 0.112653
0.563751 0.026185 0.121005
0.577501 0.022868 0.131308
0.592020 0.017869 0.144160
0.607513 0.009927 0.160307
0.624244 -0.003193 0.178109
0.642620 -0.025712 0.197131
0.663268 -0.066294 0.217963
0.687229 -0.144945 0.241572
0.716496 -0.317082 0.269764
0.755499 -0.786992 0.306453
0.818443 -2.925555 0.363721
1.127735 1.127735 1.127735
1.229190 1.229190 1.229190
1.229190 1.229190 1.229190
1.229190 1.229190 1.229190
1.229190 1.229190 1.229190
1.229190 1.229190 1.229190
1.229190 1.229190 1.229190
1.229190 1.229190 1.229190
1.229190 1.229190 1.229190
1.229190 1.229190 1.229190
1.229190 1.229190 1.229190
1.229190 1.229190 1.229190
1.229190 1.229190 1.229190
1.229190 1.229190 1.229190
1.229190 1.229190 1.229190
1.229190 1.229190 1.229190
1.229190 1.229190 1.229190
1.229190 1.229190 1.229190
1.229190 1.229190 1.229190
1.229190 1.229190 1.229190
1.229190 1.229190 1.229190
1.229190 1.229190 1.229190
1.229190 1.229190 1.229190
1.229190 1.229190 1.229190
0.074057 0.119156 0.073853
0.108572 0.108600 0.073948
0.165456 0.097156 0.074119
0.206635 0.090639 0.074526
0.234581 0.087469 0.075135
0.256310 0.086297 0.075918
0.276181 0.083267 0.075821
0.293646 0.080189 0.075673
0.309312 0.077220 0.075563
0.323659 0.074316 0.075498
0.337013 0.071462 0.075483
0.349604 0.068655 0.075526
0.361605 0.065901 0.075637
0.373148 0.063208 0.075826
0.384341 0.060582 0.076106
0.395271 0.058029 0.076490
0.406011 0.055550 0.076995
0.416623 0.053151 0.077641
0.427163 0.050828 0.078449
0.437678 0.048587 0.079449
0.448213 0.046431 0.080673
0.458809 0.044360 0.082163
0.469506 0.042384 0.083968
0.480340 0.040499 0.086147
0.491350 0.038706 0.088776
0.502576 0.036996 0.091945
0.514065 0.035343 0.095769
0.525860 0.033700 0.100388
0.538027 0.031977 0.105985
0.550623 0.030022 0.112793
0.563745 0.027572 0.121127
0.577497 0.024189 0.131414
0.592018 0.019142 0.144252
0.607514 0.011174 0.160383
0.624246 -0.001945 0.178163
0.642623 -0.024437 0.197169
0.663272 -0.064940 0.217992
0.687235 -0.143450 0.241593
0.716502 -0.315322 0.269783
0.755509 -0.784721 0.306470
0.818463 -2.922236 0.363744
1.130264 1.130264 1.130264
1.229190 1.229190 1.229190
1.229190 1.229190 1.229190
1.229190 1.229190 1.229190
1.229190 1.229190 1.229190
1.229190 1.229190 1.229190
1.229190 1.229190 1.229190
1.229190 1.229190 1.229190
1.229190 1.229190 1.229190
1.229190 1.229190 1.229190
1.229190 1.229190 1.229190
1.229190 1.229190 1.229190
1.229190 1.229190 1.229190
1.229190 1.229190 1.229190
1.229190 1.229190 1.229190
1.229190 1.229190 1.229190
1.229190 1.229190 1.229190
1.229190 1.229190 1.229190
1.229190 1.229190 1.229190
1.229190 1.229190 1.229190
1.229190 1.229190 1.229190
1.229190 1.229190 1.229190
1.229190 1.229190 1.229190
1.229190 1.229190 1.229190
0.075107 0.158637 0.074698
0.094867 0.151771 0.075131
0.139247 0.139361 0.075089
0.189457 0.126799 0.075352
0.224162 0.116862 0.075713
0.249777 0.110037 0.076363
0.270297 0.105757 0.077222
0.287711 0.103422 0.078269
0.303115 0.102542 0.079484
0.317865 0.100497 0.080013
0.332455 0.095453 0.079433
0.346020 0.090541 0.078984
0.358791 0.085781 0.078666
0.370936 0.081240 0.078492
0.382604 0.076905 0.078458
0.393908 0.072792 0.078572
0.404941 0.068907 0.078845
0.415784 0.065240 0.079288
0.426505 0.061788 0.079920
0.437164 0.058538 0.080765
0.447811 0.055482 0.081852
0.458496 0.052614 0.083220
0.469263 0.049927 0.084915
0.480152 0.047413 0.086997
0.491206 0.045063 0.089537
0.502467 0.042857 0.092625
0.513984 0.040766 0.096375
0.525800 0.038743 0.100926
0.537984 0.036682 0.106461
0.550593 0.034441 0.113212
0.563726 0.031754 0.121495
0.577486 0.028181 0.131735
0.592013 0.023001 0.144532
0.607514 0.014956 0.160612
0.624251 0.001833 0.178325
0.642631 -0.020575 0.197284
0.663283 -0.060857 0.218074
0.687250 -0.138946 0.241657
0.716523 -0.310002 0.269834
0.755539 -0.777867 0.306521
0.818520 -2.912279 0.363813
1.138545 1.138545 1.138545
1.229190 1.229190 1.229190
1.229190 1.229190 1.229190
1.229190 1.229190 1.229190
1.229190 1.229190 1.229190
1.229190 1.229190 1.229190
1.229190 1.229190 1.229190
1.229190 1.229190 1.229190
1.229190 1.229190 1.229190
1.229190 1.229190 1.229190
1.229190 1.229190 1.229190
1.229190 1.229190 1.229190
1.229190 1.229190 1.229190
1.229190 1.229190 1.229190
1.229190 1.229190 1.229190
1.229190 1.229190 1.229190
1.229190 1.229190 1.229190
1.229190 1.229190 1.229190
1.229190 1.229190 1.229190
1.229190 1.229190 1.229190
1.229190 1.229190 1.229190
1.229190 1.229190 1.229190
1.229190 1.229190 1.229190
1.229190 1.229190 1.229190
0.076287 0.191295 0.075623
0.090624 0.187449 0.076687
0.122450 0.180786 0.076450
0.170379 0.170585 0.076493
0.210117 0.158751 0.076925
0.240006 0.147041 0.077241
0.263533 0.137676 0.077889
0.282989 0.130789 0.078797
0.299772 0.126068 0.079919
0.314765 0.123075 0.081205
0.328518 0.121444 0.082630
0.341382 0.120914 0.084190
0.354234 0.118141 0.084698
0.367267 0.111323 0.083764
0.379658 0.104745 0.083083
0.391559 0.098391 0.082625
0.403071 0.092404 0.082417
0.414295 0.086817 0.082460
0.425325 0.081556 0.082741
0.436234 0.076617 0.083273
0.447081 0.072028 0.084087
0.457925 0.067773 0.085216
0.468818 0.063838 0.086700
0.479808 0.060203 0.088593
0.490942 0.056851 0.090963
0.502266 0.053752 0.093899
0.513833 0.050871 0.097510
0.525689 0.048144 0.101933
0.537904 0.045479 0.107353
0.550538 0.042709 0.113997
0.563690 0.039585 0.122184
0.577465 0.035655 0.132336
0.592005 0.030222 0.145055
0.607515 0.022026 0.161036
0.624259 0.008899 0.178626
0.642647 -0.013341 0.197498
0.663305 -0.053209 0.218230
0.687279 -0.130496 0.241775
0.716562 -0.300068 0.269935
0.755596 -0.765004 0.306619
0.818630 -2.893536 0.363943
1.156610 1.156610 1.156610
1.229190 1.229190 1.229190
1.229190 1.229190 1.229190
1.229190 1.229190 1.229190
1.229190 1.229190 1.229190
1.229190 1.229190 1.229190
1.229190 1.229190 1.229190
1.229190 1.229190 1.229190
1.229190 1.229190 1.229190
1.229190 1.229190 1.229190
1.229190 1.229190 1.229190
1.229190 1.229190 1.229190
1.229190 1.229190 1.229190
1.229190 1.229190 1.229190
1.229190 1.229190 1.229190
1.229190 1.229190 1.229190
1.229190 1.229190 1.229190
1.229190 1.229190 1.229190
1.229190 1.229190 1.229190
1.229190 1.229190 1.229190
1.229190 1.229190 1.229190
1.229190 1.229190 1.229190
1.229190 1.229190 1.229190
1.229190 1.229190 1.229190
0.077640 0.216313 0.076660
0.090277 0.213349 0.078580
0.113627 0.209853 0.078310
0.153161 0.203951 0.078041
0.195710 0.195972 0.078180
0.228407 0.186966 0.078790
0.254747 0.177560 0.079118
0.276519 0.168449 0.079712
0.295021 0.160335 0.080635
0.311255 0.153577 0.081799
0.325911 0.148498 0.083130
0.339443 0.144952 0.084599
0.352145 0.142772 0.086233
0.364276 0.141545 0.087948
0.375985 0.141129 0.089762
0.388267 0.134812 0.089270
0.400404 0.126445 0.088239
0.412149 0.118461 0.087570
0.423611 0.110844 0.087229
0.434865 0.103747 0.087251
0.445988 0.097215 0.087648
0.457049 0.091273 0.088444
0.468131 0.085571 0.089582
0.479273 0.080292 0.091162
0.490529 0.075446 0.093255
0.501951 0.070998 0.095940
0.513596 0.066907 0.099326
0.525514 0.063108 0.103545
0.537778 0.059497 0.108778
0.550451 0.055914 0.115253
0.563633 0.052102 0.123284
0.577433 0.047629 0.133296
0.591991 0.041800 0.145892
0.607516 0.033389 0.161713
0.624273 0.020240 0.179105
0.642671 -0.001727 0.197839
0.663340 -0.040923 0.218479
0.687325 -0.116913 0.241965
0.716624 -0.284069 0.270093
0.755687 -0.744264 0.306774
0.818806 -2.863407 0.364153
1.198077 1.198077 1.198077
1.229190 1.229190 1.229190
1.229190 1.229190 1.229190
1.229190 1.229190 1.229190
1.229190 1.229190 1.229190
1.229190 1.229190 1.229190
1.229190 1.229190 1.229190
1.229190 1.229190 1.229190
1.229190 1.229190 1.229190
1.229190 1.229190 1.229190
1.229190 1.229190 1.229190
1.229190 1.229190 1.229190
1.229190 1.229190 1.229190
1.229190 1.229190 1.229190
1.229190 1.229190 1.229190
1.229190 1.229190 1.229190
1.229190 1.229190 1.229190
1.229190 1.229190 1.229190
1.229190 1.229190 1.229190
1.229190 1.229190 1.229190
1.229190 1.229190 1.229190
1.229190 1.229190 1.229190
1.229190 1.229190 1.229190
1.229190 1.229190 1.229190
0.079194 0.237103 0.077828
0.090226 0.234936 0.079925
0.109777 0.232387 0.080548
0.141224 0.228857 0.080186
0.182276 0.223715 0.079915
0.216866 0.217173 0.080148
0.245000 0.209910 0.080919
0.268675 0.202297 0.081320
0.288986 0.194661 0.081838
0.306658 0.187556 0.082733
0.322406 0.181278 0.083901
0.336767 0.175940 0.085253
0.350097 0.171670 0.086804
0.362708 0.168293 0.088439
0.374772 0.165863 0.090217
0.386459 0.164173 0.092077
0.397848 0.163331 0.094116
0.409379 0.160178 0.095112
0.421358 0.150254 0.093845
0.433052 0.140626 0.093053
0.444543 0.131541 0.092730
0.455916 0.123006 0.092866
0.467234 0.115177 0.093514
0.478562 0.108093 0.094713
0.489962 0.101776 0.096522
0.501502 0.095982 0.098953
0.513256 0.090241 0.102002
0.525262 0.084954 0.105918
0.537596 0.080029 0.110876
0.550325 0.075300 0.117099
0.563551 0.070515 0.124903
0.577386 0.065271 0.134710
0.591972 0.058882 0.147123
0.607519 0.050158 0.162699
0.624294 0.037017 0.179807
0.642708 0.015478 0.198341
0.663392 -0.022724 0.218843
0.687394 -0.096784 0.242245
0.716717 -0.260375 0.270328
0.755823 -0.713495 0.307006
0.819066 -2.818575 0.364463
1.229190 1.229190 1.229190
1.229190 1.229190 1.229190
1.229190 1.229190 1.229190
1.229190 1.229190 1.229190
1.229190 1.229190 1.229190
1.229190 1.229190 1.229190
1.229190 1.229190 1.229190
1.229190 1.229190 1.229190
1.229190 1.229190 1.229190
1.229190 1.229190 1.229190
1.229190 1.229190 1.229190
1.229190 1.229190 1.229190
1.229190 1.229190 1.229190
1.229190 1.229190 1.229190
1.229190 1.229190 1.229190
1.229190 1.229190 1.229190
1.229190 1.229190 1.229190
1.229190 1.229190 1.229190
1.229190 1.229190 1.229190
1.229190 1.229190 1.229190
1.229190 1.229190 1.229190
1.229190 1.229190 1.229190
1.229190 1.229190 1.229190
1.229190 1.229190 1.229190
0.080971 0.255222 0.079145
0.090466 0.253675 0.081125
0.109033 0.251326 0.083119
0.134412 0.249122 0.082744
0.171213 0.245788 0.082318
0.205892 0.241276 0.082061
0.235406 0.235746 0.082384
0.260356 0.229673 0.083292
0.281994 0.223311 0.083802
0.301085 0.216796 0.084252
0.318044 0.210533 0.085077
0.333364 0.204790 0.086216
0.347454 0.199725 0.087603
0.360632 0.195407 0.089182
0.373149 0.191804 0.090891
0.385197 0.188818 0.092672
0.396879 0.186535 0.094613
0.408320 0.184804 0.096661
0.419598 0.183600 0.098853
0.430827 0.182467 0.101008
0.442737 0.173682 0.099726
0.454473 0.164186 0.098981
0.466097 0.154136 0.098843
0.477683 0.144287 0.099319
0.489297 0.135243 0.100464
0.501002 0.127098 0.102361
0.512870 0.119867 0.105105
0.524961 0.113546 0.108824
0.537358 0.108063 0.113695
0.550153 0.102233 0.119671
0.563440 0.096181 0.127158
0.577322 0.089915 0.136680
0.591946 0.082785 0.148839
0.607524 0.073678 0.164056
0.624324 0.060575 0.180777
0.642760 0.039643 0.199039
0.663465 0.002885 0.219354
0.687492 -0.068446 0.242637
0.716847 -0.226947 0.270658
0.756014 -0.670063 0.307330
0.819434 -2.755051 0.364899
1.229190 1.229190 1.229190
1.229190 1.229190 1.229190
1.229190 1.229190 1.229190
1.229190 1.229190 1.229190
1.229190 1.229190 1.229190
1.229190 1.229190 1.229190
1.229190 1.229190 1.229190
1.229190 1.229190 1.229190
1.229190 1.229190 1.229190
1.229190 1.229190 1.229190
1.229190 1.229190 1.229190
1.229190 1.229190 1.229190
1.229190 1.229190 1.229190
1.229190 1.229190 1.229190
1.229190 1.229190 1.229190
1.229190 1.229190 1.229190
1.229190 1.229190 1.229190
1.229190 1.229190 1.229190
1.229190 1.229190 1.229190
1.229190 1.229190 1.229190
1.229190 1.229190 1.229190
1.229190 1.229190 1.229190
1.229190 1.229190 1.229190
1.229190 1.229190 1.229190
0.082988 0.271523 0.080625
0.091244 0.270396 0.082453
0.110374 0.268040 0.086006
0.131241 0.266611 0.085645
0.163134 0.264399 0.085175
0.196472 0.261311 0.084701
0.226166 0.257316 0.084473
0.252179 0.252543 0.084873
0.274797 0.247340 0.085890
0.294845 0.241902 0.086541
0.312922 0.236260 0.086934
0.329261 0.230713 0.087678
0.344194 0.225510 0.088801
0.358064 0.220759 0.090169
0.371127 0.216539 0.091739
0.383581 0.212907 0.093505
0.395611 0.209763 0.095356
0.407321 0.207159 0.097362
0.418829 0.204956 0.099448
0.430210 0.203124 0.101651
0.441522 0.201638 0.104013
0.452861 0.200101 0.106354
0.464722 0.193124 0.105823
0.476606 0.184628 0.105354
0.488470 0.175779 0.105655
0.500384 0.166653 0.106775
0.512426 0.157279 0.108784
0.524658 0.148171 0.111827
0.537167 0.140063 0.116069
0.550031 0.132891 0.121729
0.563361 0.126462 0.129117
0.577275 0.120433 0.138652
0.591923 0.114211 0.150936
0.607532 0.105456 0.165842
0.624366 0.092471 0.182066
0.642831 0.072410 0.199967
0.663565 0.037646 0.220038
0.687624 -0.029918 0.243165
0.717025 -0.181484 0.271104
0.756274 -0.610903 0.307769
0.819951 -2.689561 0.365113
1.229190 1.229190 1.229190
1.229190 1.229190 1.229190
1.229190 1.229190 1.229190
1.229190 1.229190 1.229190
1.229190 1.229190 1.229190
1.229190 1.229190 1.229190
1.229190 1.229190 1.229190
1.229190 1.229190 1.229190
1.229190 1.229190 1.229190
1.229190 1.229190 1.229190
1.229190 1.229190 1.229190
1.229190 1.229190 1.229190
1.229190 1.229190 1.229190
1.229190 1.229190 1.229190
1.229190 1.229190 1.229190
1.229190 1.229190 1.229190
1.229190 1.229190 1.229190
1.229190 1.229190 1.229190
1.229190 1.229190 1.229190
1.229190 1.229190 1.229190
1.229190 1.229190 1.229190
1.229190 1.229190 1.229190
1.229190 1.229190 1.229190
1.229190 1.229190 1.229190
0.085266 0.286524 0.082288
0.092383 0.285710 0.083902
0.110858 0.283681 0.087959
0.130680 0.282315 0.088855
0.158027 0.280814 0.088387
0.189118 0.278677 0.087830
0.218010 0.275831 0.087331
0.244238 0.272266 0.087130
0.267706 0.268084 0.087606
0.288551 0.263552 0.088719
0.307347 0.258824 0.089498
0.324572 0.253890 0.089879
0.340376 0.248955 0.090546
0.354985 0.244230 0.091604
0.368661 0.239831 0.092959
0.381611 0.235857 0.094585
0.394045 0.232264 0.096327
0.406079 0.229123 0.098258
0.417842 0.226377 0.100315
0.429430 0.223976 0.102485
0.440926 0.221819 0.104734
0.452396 0.219820 0.107066
0.463878 0.218046 0.109616
0.475462 0.216042 0.112137
0.487496 0.209779 0.112192
0.499652 0.202035 0.112308
0.511893 0.194096 0.113416
0.524291 0.186057 0.115620
0.536937 0.177956 0.119059
0.549911 0.169907 0.123963
0.563327 0.161901 0.130636
0.577308 0.153754 0.139489
0.592009 0.145472 0.151114
0.607647 0.136314 0.165711
0.624499 0.124425 0.181906
0.642984 0.106186 0.199799
0.663744 0.073915 0.219836
0.687840 0.009422 0.242869
0.717304 -0.139121 0.270620
0.756675 -0.568754 0.306985
0.820681 -2.661188 0.364345
1.229190 1.229190 1.229190
1.229190 1.229190 1.229190
1.229190 1.229190 1.229190
1.229190 1.229190 1.229190
1.229190 1.229190 1.229190
1.229190 1.229190 1.229190
1.229190 1.229190 1.229190
1.229190 1.229190 1.229190
1.229190 1.229190 1.229190
1.229190 1.229190 1.229190
1.229190 1.229190 1.229190
1.229190 1.229190 1.229190
1.229190 1.229190 1.229190
1.229190 1.229190 1.229190
1.229190 1.229190 1.229190
1.229190 1.229190 1.229190
1.229190 1.229190 1.229190
1.229190 1.229190 1.229190
1.229190 1.229190 1.229190
1.229190 1.229190 1.229190
1.229190 1.229190 1.229190
1.229190 1.229190 1.229190
1.229190 1.229190 1.229190
1.229190 1.229190 1.229190
0.087826 0.300569 0.084150
0.094004 0.299974 0.085571
0.110642 0.298415 0.089328
0.132014 0.296815 0.092333
0.155572 0.295771 0.091898
0.183916 0.294272 0.091323
0.211365 0.292235 0.090723
0.237089 0.289620 0.090199
0.260785 0.286416 0.090044
0.282331 0.282714 0.090585
0.301794 0.278721 0.091772
0.319585 0.274562 0.092685
0.336098 0.270215 0.093095
0.351448 0.265806 0.093669
0.365776 0.261525 0.094668
0.379284 0.257490 0.096026
0.392168 0.253748 0.097621
0.404575 0.250349 0.099441
0.416649 0.247262 0.101390
0.428487 0.244500 0.103495
0.440182 0.241998 0.105711
0.451811 0.239703 0.108034
0.463440 0.237539 0.110470
0.475135 0.235318 0.112936
0.486920 0.233182 0.115686
0.498886 0.230604 0.118406
0.511283 0.224468 0.119040
0.523872 0.217356 0.120189
0.536675 0.210167 0.122658
0.549776 0.202984 0.126646
0.563296 0.195818 0.132433
0.577360 0.188615 0.140432
0.592125 0.181099 0.151230
0.607815 0.172487 0.165091
0.624709 0.160855 0.180792
0.643231 0.142003 0.198388
0.664028 0.109819 0.218279
0.688171 0.046623 0.241278
0.717704 -0.098843 0.269083
0.757211 -0.523024 0.305592
0.821634 -2.624381 0.363319
1.229190 1.229190 1.229190
1.229190 1.229190 1.229190
1.229190 1.229190 1.229190
1.229190 1.229190 1.229190
1.229190 1.229190 1.229190
1.229190 1.229190 1.229190
1.229190 1.229190 1.229190
1.229190 1.229190 1.229190
1.229190 1.229190 1.229190
1.229190 1.229190 1.229190
1.229190 1.229190 1.229190
1.229190 1.229190 1.229190
1.229190 1.229190 1.229190
1.229190 1.229190 1.229190
1.229190 1.229190 1.229190
1.229190 1.229190 1.229190
1.229190 1.229190 1.229190
1.229190 1.229190 1.229190
1.229190 1.229190 1.229190
1.229190 1.229190 1.229190
1.229190 1.229190 1.229190
1.229190 1.229190 1.229190
1.229190 1.229190 1.229190
1.229190 1.229190 1.229190
0.090695 0.313901 0.086237
0.096086 0.313461 0.087483
0.111186 0.312248 0.090978
0.134760 0.310474 0.096056
0.155331 0.309728 0.095685
0.180757 0.308657 0.095141
0.206354 0.307187 0.094514
0.231093 0.305269 0.093858
0.254470 0.302866 0.093337
0.276241 0.299977 0.093212
0.296294 0.296677 0.093817
0.314659 0.293131 0.095065
0.331638 0.289444 0.096101
0.347559 0.285590 0.096552
0.362515 0.281653 0.097091
0.376608 0.277780 0.098017
0.389984 0.274092 0.099358
0.402814 0.270629 0.100962
0.415233 0.267424 0.102790
0.427362 0.264471 0.104771
0.439293 0.261774 0.106918
0.451124 0.259249 0.109138
0.462916 0.256885 0.111492
0.474729 0.254638 0.114009
0.486629 0.252398 0.116663
0.498681 0.249944 0.119358
0.510925 0.247280 0.122292
0.523433 0.243992 0.125293
0.536391 0.237805 0.126842
0.549639 0.231283 0.129712
0.563278 0.224772 0.134440
0.577439 0.218271 0.141413
0.592282 0.211652 0.151197
0.608034 0.204501 0.164161
0.624980 0.195746 0.179259
0.643548 0.182541 0.196492
0.664392 0.155617 0.216207
0.688593 0.094147 0.239171
0.718215 -0.047238 0.267055
0.757897 -0.464240 0.303755
0.822861 -2.577075 0.361956
1.229190 1.229190 1.229190
1.229190 1.229190 1.229190
1.229190 1.229190 1.229190
1.229190 1.229190 1.229190
1.229190 1.229190 1.229190
1.229190 1.229190 1.229190
1.229190 1.229190 1.229190
1.229190 1.229190 1.229190
1.229190 1.229190 1.229190
1.229190 1.229190 1.229190
1.229190 1.229190 1.229190
1.229190 1.229190 1.229190
1.229190 1.229190 1.229190
1.229190 1.229190 1.229190
1.229190 1.229190 1.229190
1.229190 1.229190 1.229190
1.229190 1.229190 1.229190
1.229190 1.229190 1.229190
1.229190 1.229190 1.229190
1.229190 1.229190 1.229190
1.229190 1.229190 1.229190
1.229190 1.229190 1.229190
1.229190 1.229190 1.229190
1.229190 1.229190 1.229190
0.093904 0.326694 0.088575
0.098632 0.326367 0.089666
0.112397 0.325416 0.092914
0.134241 0.323996 0.097719
0.156817 0.322983 0.099724
0.179403 0.322202 0.099253
0.202921 0.321134 0.098616
0.226373 0.319718 0.097942
0.249058 0.317922 0.097256
0.270632 0.315715 0.096741
0.290905 0.313103 0.096663
0.309774 0.310149 0.097319
0.327254 0.306986 0.098620
0.343572 0.303702 0.099761
0.359001 0.300275 0.100283
0.373628 0.296757 0.100794
0.387522 0.293267 0.101671
0.400802 0.289904 0.102952
0.413605 0.286719 0.104547
0.426052 0.283746 0.106401
0.438254 0.280974 0.108418
0.450302 0.278396 0.110595
0.462281 0.275964 0.112875
0.474249 0.273672 0.115330
0.486282 0.271407 0.117877
0.498440 0.269067 0.120514
0.510773 0.266622 0.123381
0.523349 0.263839 0.126394
0.536237 0.260539 0.129646
0.549512 0.256307 0.133082
0.563286 0.250355 0.136555
0.577557 0.244432 0.142312
0.592489 0.238507 0.150897
0.608316 0.232350 0.162786
0.625324 0.225343 0.177146
0.643949 0.215892 0.193945
0.664852 0.199174 0.213454
0.689126 0.154178 0.236389
0.718860 0.018124 0.264382
0.758764 -0.389494 0.301338
0.824426 -2.517241 0.360152
1.229190 1.229190 1.229190
1.229190 1.229190 1.229190
1.229190 1.229190 1.229190
1.229190 1.229190 1.229190
1.229190 1.229190 1.229190
1.229190 1.229190 1.229190
1.229190 1.229190 1.229190
1.229190 1.229190 1.229190
1.229190 1.229190 1.229190
1.229190 1.229190 1.229190
1.229190 1.229190 1.229190
1.229190 1.229190 1.229190
1.229190 1.229190 1.229190
1.229190 1.229190 1.229190
1.229190 1.229190 1.229190
1.229190 1.229190 1.229190
1.229190 1.229190 1.229190
1.229190 1.229190 1.229190
1.229190 1.229190 1.229190
1.229190 1.229190 1.229190
1.229190 1.229190 1.229190
1.229190 1.229190 1.229190
1.229190 1.229190 1.229190
1.229190 1.229190 1.229190
0.097492 0.339087 0.091197
0.101658 0.338842 0.092151
0.113887 0.338124 0.094995
0.134011 0.336999 0.099437
0.159660 0.335735 0.104045
0.179544 0.335162 0.103622
0.200981 0.334372 0.103057
0.222915 0.333328 0.102352
0.244672 0.331980 0.101637
0.265751 0.330306 0.100932
0.285909 0.328284 0.100434
0.304990 0.325920 0.100406
0.322907 0.323271 0.101115
0.339666 0.320444 0.102463
0.355443 0.317514 0.103704
0.370469 0.314464 0.104305
0.384825 0.311321 0.104780
0.398556 0.308191 0.105630
0.411764 0.305151 0.106883
0.424563 0.302254 0.108472
0.437065 0.299516 0.110302
0.449364 0.296952 0.112349
0.461552 0.294536 0.114539
0.473697 0.292262 0.116906
0.485880 0.290049 0.119363
0.498157 0.287863 0.121969
0.510596 0.285627 0.124751
0.523259 0.283213 0.127701
0.536223 0.280464 0.130856
0.549551 0.277248 0.134380
0.563353 0.273202 0.138288
0.577729 0.268052 0.142939
0.592764 0.262710 0.150125
0.608675 0.257339 0.160762
0.625757 0.251593 0.174277
0.644451 0.244483 0.190535
0.665427 0.233232 0.209781
0.689791 0.208037 0.232704
0.719666 0.100162 0.260857
0.759852 -0.295200 0.298152
0.826406 -2.441950 0.357751
1.229190 1.229190 1.229190
1.229190 1.229190 1.229190
1.229190 1.229190 1.229190
1.229190 1.229190 1.229190
1.229190 1.229190 1.229190
1.229190 1.229190 1.229190
1.229190 1.229190 1.229190
1.229190 1.229190 1.229190
1.229190 1.229190 1.229190
1.229190 1.229190 1.229190
1.229190 1.229190 1.229190
1.229190 1.229190 1.229190
1.229190 1.229190 1.229190
1.229190 1.229190 1.229190
1.229190 1.229190 1.229190
1.229190 1.229190 1.229190
1.229190 1.229190 1.229190
1.229190 1.229190 1.229190
1.229190 1.229190 1.229190
1.229190 1.229190 1.229190
1.229190 1.229190 1.229190
1.229190 1.229190 1.229190
1.229190 1.229190 1.229190
1.229190 1.229190 1.229190
0.101505 0.351184 0.094143
0.105190 0.351000 0.094974
0.116078 0.350458 0.097460
0.134683 0.349563 0.101581
0.161156 0.348334 0.107301
0.180900 0.347710 0.108257
0.200306 0.347121 0.107761
0.220689 0.346339 0.107125
0.241325 0.345331 0.106386
0.261718 0.344060 0.105638
0.281520 0.342509 0.104924
0.300541 0.340661 0.104451
0.318661 0.338525 0.104477
0.335802 0.336150 0.105229
0.351972 0.333625 0.106618
0.367310 0.331011 0.107924
0.382003 0.328300 0.108626
0.396136 0.325507 0.109113
0.409748 0.322706 0.109888
0.422913 0.319980 0.111113
0.435729 0.317373 0.112706
0.448308 0.314891 0.114520
0.460728 0.312556 0.116582
0.473076 0.310341 0.118784
0.485422 0.308245 0.121185
0.497841 0.306202 0.123702
0.510400 0.304180 0.126407
0.523164 0.302084 0.129274
0.536214 0.299818 0.132363
0.549616 0.297299 0.135833
0.563482 0.294278 0.139686
0.577924 0.290516 0.144146
0.593088 0.285585 0.149476
0.609132 0.280178 0.157728
0.626299 0.275389 0.170269
0.645073 0.269965 0.185944
0.666137 0.262236 0.204936
0.690614 0.246696 0.227834
0.720666 0.192521 0.256172
