OCIO/luts/ACES2_Output_v2.0.0/ACES2 Output v2.0.0 Rec2100 (Rec709 sim)_inverse.cube
TITLE "Generated by Foundry::LUT"
LUT_3D_SIZE 9
0.072906 0.072906 0.072906
0.312210 0.066024 0.074034
0.406376 0.051000 0.076397
0.491398 0.036591 0.088524
0.592020 0.017869 0.144160
0.818443 -2.925555 0.363721
1.229190 1.229190 1.229190
1.229190 1.229190 1.229190
1.229190 1.229190 1.229190
0.085266 0.286524 0.082288
0.267706 0.268084 0.087606
0.394045 0.232264 0.096327
0.487496 0.209779 0.112192
0.592009 0.145472 0.151114
0.820681 -2.661188 0.364345
1.229190 1.229190 1.229190
1.229190 1.229190 1.229190
1.229190 1.229190 1.229190
0.116628 0.386526 0.105411
0.237084 0.383016 0.122792
0.373903 0.374181 0.119758
0.483797 0.359891 0.129284
0.594214 0.350300 0.155409
0.840950 -1.895399 0.335323
1.229190 1.229190 1.229190
1.229190 1.229190 1.229190
1.229190 1.229190 1.229190
0.185756 0.483681 0.167649
0.245222 0.483233 0.176043
0.363370 0.482625 0.178083
0.482567 0.482513 0.177283
0.604444 0.493290 0.191131
1.229190 1.229190 1.229190
1.229190 1.229190 1.229190
1.229190 1.229190 1.229190
1.229190 1.229190 1.229190
0.250242 0.614808 0.275281
0.274147 0.615201 0.270775
0.378629 0.617685 0.249764
0.515851 0.626523 0.252002
0.672227 0.671536 0.272084
1.229190 1.229190 1.229190
1.229190 1.229190 1.229190
1.229190 1.229190 1.229190
1.229190 1.229190 1.229190
1.229190 1.229190 1.229190
1.229190 1.229190 1.229190
1.229190 1.229190 1.229190
1.229190 1.229190 1.229190
1.229190 1.229190 1.229190
1.229190 1.229190 1.229190
1.229190 1.229190 1.229190
1.229190 1.229190 1.229190
1.229190 1.229190 1.229190
1.229190 1.229190 1.229190
1.229190 1.229190 1.229190
1.229190 1.229190 1.229190
1.229190 1.229190 1.229190
1.229190 1.229190 1.229190
1.229190 1.229190 1.229190
1.229190 1.229190 1.229190
1.229190 1.229190 1.229190
1.229190 1.229190 1.229190
1.229190 1.229190 1.229190
1.229190 1.229190 1.229190
1.229190 1.229190 1.229190
1.229190 1.229190 1.229190
1.229190 1.229190 1.229190
1.229190 1.229190 1.229190
1.229190 1.229190 1.229190
1.229190 1.229190 1.229190
1.229190 1.229190 1.229190
1.229190 1.229190 1.229190
1.229190 1.229190 1.229190
1.229190 1.229190 1.229190
1.229190 1.229190 1.229190
1.229190 1.229190 1.229190
1.229190 1.229190 1.229190
1.229190 1.229190 1.229190
1.229190 1.229190 1.229190
1.229190 1.229190 1.229190
0.081435 0.079827 0.337822
0.290909 0.078639 0.291416
0.403038 0.061605 0.225267
0.490944 0.042184 0.192276
0.592100 0.020597 0.218407
0.819404 -2.970224 0.394920
1.229190 1.229190 1.229190
1.229190 1.229190 1.229190
1.229190 1.229190 1.229190
0.092308 0.276077 0.275624
0.262076 0.262076 0.262076
0.401965 0.163423 0.190822
0.487153 0.210150 0.211335
0.592104 0.146972 0.222023
0.821671 -2.710504 0.395805
1.229190 1.229190 1.229190
1.229190 1.229190 1.229190
1.229190 1.229190 1.229190
0.118855 0.385441 0.222932
0.252713 0.379416 0.242212
0.373065 0.372433 0.175302
0.526187 -0.369899 -0.179771
0.594911 0.345370 0.215035
0.842200 -1.983197 0.380610
1.229190 1.229190 1.229190
1.229190 1.229190 1.229190
1.229190 1.229190 1.229190
0.186529 0.483640 0.229236
0.246106 0.483168 0.233930
0.364923 0.482296 0.239272
0.482642 0.482579 0.232041
0.605198 0.492464 0.230805
1.229190 1.229190 1.229190
1.229190 1.229190 1.229190
1.229190 1.229190 1.229190
1.229190 1.229190 1.229190
0.250356 0.614986 0.301813
0.274042 0.615384 0.298442
0.370410 0.618225 0.272528
0.514753 0.627041 0.274137
0.672783 0.672005 0.293614
1.229190 1.229190 1.229190
1.229190 1.229190 1.229190
1.229190 1.229190 1.229190
1.229190 1.229190 1.229190
1.229190 1.229190 1.229190
1.229190 1.229190 1.229190
1.229190 1.229190 1.229190
1.229190 1.229190 1.229190
1.229190 1.229190 1.229190
1.229190 1.229190 1.229190
1.229190 1.229190 1.229190
1.229190 1.229190 1.229190
1.229190 1.229190 1.229190
1.229190 1.229190 1.229190
1.229190 1.229190 1.229190
1.229190 1.229190 1.229190
1.229190 1.229190 1.229190
1.229190 1.229190 1.229190
1.229190 1.229190 1.229190
1.229190 1.229190 1.229190
1.229190 1.229190 1.229190
1.229190 1.229190 1.229190
1.229190 1.229190 1.229190
1.229190 1.229190 1.229190
1.229190 1.229190 1.229190
1.229190 1.229190 1.229190
1.229190 1.229190 1.229190
1.229190 1.229190 1.229190
1.229190 1.229190 1.229190
1.229190 1.229190 1.229190
1.229190 1.229190 1.229190
1.229190 1.229190 1.229190
1.229190 1.229190 1.229190
1.229190 1.229190 1.229190
1.229190 1.229190 1.229190
1.229190 1.229190 1.229190
1.229190 1.229190 1.229190
1.229190 1.229190 1.229190
1.229190 1.229190 1.229190
1.229190 1.229190 1.229190
0.100230 0.096123 0.427336
0.248814 0.099837 0.418706
0.389544 0.094673 0.390001
0.488480 0.071101 0.361775
0.592650 0.039502 0.361392
0.826446 -3.320791 0.501894
1.229190 1.229190 1.229190
1.229190 1.229190 1.229190
1.229190 1.229190 1.229190
0.128030 0.251317 0.409722
0.263250 0.267742 0.384269
0.392965 0.087528 0.396224
0.485630 0.214910 0.363081
0.592763 0.158116 0.362134
0.828938 -3.103011 0.503334
1.229190 1.229190 1.229190
1.229190 1.229190 1.229190
1.229190 1.229190 1.229190
0.139908 0.379714 0.379262
0.251900 0.376320 0.375839
0.371024 0.371024 0.371024
0.480101 0.365122 0.365434
0.596164 0.342925 0.358639
0.851455 -2.567145 0.509715
1.229190 1.229190 1.229190
1.229190 1.229190 1.229190
1.229190 1.229190 1.229190
0.193342 0.483439 0.361830
0.247482 0.483085 0.362505
0.366001 0.482204 0.363926
0.483464 0.483272 0.354784
0.610310 0.486729 0.339989
1.229190 1.229190 1.229190
1.229190 1.229190 1.229190
1.229190 1.229190 1.229190
1.229190 1.229190 1.229190
0.251611 0.616299 0.396719
0.274936 0.616710 0.395602
0.363584 0.619920 0.385246
0.505811 0.630867 0.358292
0.722698 0.707332 -19.212038
1.229190 1.229190 1.229190
1.229190 1.229190 1.229190
1.229190 1.229190 1.229190
1.229190 1.229190 1.229190
1.229190 1.229190 1.229190
1.229190 1.229190 1.229190
1.229190 1.229190 1.229190
1.229190 1.229190 1.229190
1.229190 1.229190 1.229190
1.229190 1.229190 1.229190
1.229190 1.229190 1.229190
1.229190 1.229190 1.229190
1.229190 1.229190 1.229190
1.229190 1.229190 1.229190
1.229190 1.229190 1.229190
1.229190 1.229190 1.229190
1.229190 1.229190 1.229190
1.229190 1.229190 1.229190
1.229190 1.229190 1.229190
1.229190 1.229190 1.229190
1.229190 1.229190 1.229190
1.229190 1.229190 1.229190
1.229190 1.229190 1.229190
1.229190 1.229190 1.229190
1.229190 1.229190 1.229190
1.229190 1.229190 1.229190
1.229190 1.229190 1.229190
1.229190 1.229190 1.229190
1.229190 1.229190 1.229190
1.229190 1.229190 1.229190
1.229190 1.229190 1.229190
1.229190 1.229190 1.229190
1.229190 1.229190 1.229190
1.229190 1.229190 1.229190
1.229190 1.229190 1.229190
1.229190 1.229190 1.229190
1.229190 1.229190 1.229190
1.229190 1.229190 1.229190
1.229190 1.229190 1.229190
1.229190 1.229190 1.229190
0.158424 0.154542 0.504414
0.235867 0.155713 0.503065
0.371919 0.156945 0.495721
0.484024 0.139982 0.484490
0.595155 0.106203 0.488187
0.859178 -5.858572 0.648386
1.229190 1.229190 1.229190
1.229190 1.229190 1.229190
1.229190 1.229190 1.229190
0.193084 0.253036 0.498145
0.257563 0.264123 0.493790
0.363968 -0.185874 0.518466
0.483150 0.230949 0.483428
0.595609 0.191235 0.488393
0.862946 -5.959926 0.651132
1.229190 1.229190 1.229190
1.229190 1.229190 1.229190
1.229190 1.229190 1.229190
0.196084 0.370955 0.490531
0.261399 0.372095 0.486780
0.372345 0.373713 0.478967
0.481514 0.364326 0.481650
0.599682 0.344687 0.489544
0.898403 -8.068013 0.677709
1.229190 1.229190 1.229190
1.229190 1.229190 1.229190
1.229190 1.229190 1.229190
0.218373 0.483626 0.483204
0.258320 0.483541 0.483126
0.365680 0.483697 0.483366
0.485193 0.485193 0.485193
0.622185 0.474155 0.482291
1.229190 1.229190 1.229190
1.229190 1.229190 1.229190
1.229190 1.229190 1.229190
1.229190 1.229190 1.229190
0.257099 0.621664 0.514699
0.279103 0.622109 0.514636
0.365044 0.625593 0.513817
0.484322 0.641603 0.500650
0.693825 0.691250 0.483515
1.229190 1.229190 1.229190
1.229190 1.229190 1.229190
1.229190 1.229190 1.229190
1.229190 1.229190 1.229190
1.229190 1.229190 1.229190
1.229190 1.229190 1.229190
1.229190 1.229190 1.229190
1.229190 1.229190 1.229190
1.229190 1.229190 1.229190
1.229190 1.229190 1.229190
1.229190 1.229190 1.229190
1.229190 1.229190 1.229190
1.229190 1.229190 1.229190
1.229190 1.229190 1.229190
1.229190 1.229190 1.229190
1.229190 1.229190 1.229190
1.229190 1.229190 1.229190
1.229190 1.229190 1.229190
1.229190 1.229190 1.229190
1.229190 1.229190 1.229190
1.229190 1.229190 1.229190
1.229190 1.229190 1.229190
1.229190 1.229190 1.229190
1.229190 1.229190 1.229190
1.229190 1.229190 1.229190
1.229190 1.229190 1.229190
1.229190 1.229190 1.229190
1.229190 1.229190 1.229190
1.229190 1.229190 1.229190
1.229190 1.229190 1.229190
1.229190 1.229190 1.229190
1.229190 1.229190 1.229190
1.229190 1.229190 1.229190
1.229190 1.229190 1.229190
1.229190 1.229190 1.229190
1.229190 1.229190 1.229190
1.229190 1.229190 1.229190
1.229190 1.229190 1.229190
1.229190 1.229190 1.229190
1.229190 1.229190 1.229190
0.246875 0.243431 0.591182
0.275239 0.243295 0.591130
-2.474807 -8.677716 0.694905
1.359123 -37340.777344 0.773048
0.607295 0.206103 0.608054
1.229190 1.229190 1.229190
1.229190 1.229190 1.229190
1.229190 1.229190 1.229190
1.229190 1.229190 1.229190
0.252728 0.278698 0.590514
0.279424 0.278779 0.590455
0.337613 -0.378745 0.609107
0.508862 -5.593573 0.674543
0.607873 0.243531 0.608683
1.229190 1.229190 1.229190
1.229190 1.229190 1.229190
1.229190 1.229190 1.229190
1.229190 1.229190 1.229190
0.257271 0.373770 0.590439
0.284576 0.374476 0.590159
-0.564737 -1.756767 0.648447
0.489818 0.269275 0.611130
0.612500 0.354074 0.613699
1.229190 1.229190 1.229190
1.229190 1.229190 1.229190
1.229190 1.229190 1.229190
1.229190 1.229190 1.229190
0.264472 0.489944 0.595490
0.286162 0.489980 0.595833
0.368916 0.489902 0.599130
0.479222 0.463439 0.650409
0.635080 0.480444 0.637676
1.229190 1.229190 1.229190
1.229190 1.229190 1.229190
1.229190 1.229190 1.229190
1.229190 1.229190 1.229190
0.267085 0.642517 0.642205
0.288515 0.643028 0.642726
0.373958 0.647019 0.646790
0.494942 0.665550 0.665591
0.758376 0.758376 0.758376
1.229190 1.229190 1.229190
1.229190 1.229190 1.229190
1.229190 1.229190 1.229190
1.229190 1.229190 1.229190
1.229190 1.229190 1.229190
1.229190 1.229190 1.229190
1.229190 1.229190 1.229190
1.229190 1.229190 1.229190
1.229190 1.229190 1.229190
1.229190 1.229190 1.229190
1.229190 1.229190 1.229190
1.229190 1.229190 1.229190
1.229190 1.229190 1.229190
1.229190 1.229190 1.229190
1.229190 1.229190 1.229190
1.229190 1.229190 1.229190
1.229190 1.229190 1.229190
1.229190 1.229190 1.229190
1.229190 1.229190 1.229190
1.229190 1.229190 1.229190
1.229190 1.229190 1.229190
1.229190 1.229190 1.229190
1.229190 1.229190 1.229190
1.229190 1.229190 1.229190
1.229190 1.229190 1.229190
1.229190 1.229190 1.229190
1.229190 1.229190 1.229190
1.229190 1.229190 1.229190
1.229190 1.229190 1.229190
1.229190 1.229190 1.229190
1.229190 1.229190 1.229190
1.229190 1.229190 1.229190
1.229190 1.229190 1.229190
1.229190 1.229190 1.229190
1.229190 1.229190 1.229190
1.229190 1.229190 1.229190
1.229190 1.229190 1.229190
1.229190 1.229190 1.229190
1.229190 1.229190 1.229190
1.229190 1.229190 1.229190
0.339048 0.294356 0.718791
0.353108 0.293816 0.719070
0.419561 0.289393 0.721253
0.528010 0.261886 0.731401
0.681259 -0.920693 0.784191
1.229190 1.229190 1.229190
1.229190 1.229190 1.229190
1.229190 1.229190 1.229190
1.229190 1.229190 1.229190
0.335796 0.310271 0.719518
0.350434 0.309793 0.719801
0.418660 0.306233 0.722005
0.528224 0.284798 0.732257
0.682427 -0.821875 0.785672
1.229190 1.229190 1.229190
1.229190 1.229190 1.229190
1.229190 1.229190 1.229190
1.229190 1.229190 1.229190
0.322186 0.395210 0.724182
0.334154 0.391077 0.724858
0.409521 0.380544 0.728010
0.529656 0.373978 0.739049
0.691951 -0.009373 0.797728
1.229190 1.229190 1.229190
1.229190 1.229190 1.229190
1.229190 1.229190 1.229190
1.229190 1.229190 1.229190
0.317637 0.531144 0.743185
0.331258 0.530584 0.743956
0.397088 0.525324 0.750028
0.528942 0.501939 0.772939
0.751800 0.486163 0.872229
1.229190 1.229190 1.229190
1.229190 1.229190 1.229190
1.229190 1.229190 1.229190
1.229190 1.229190 1.229190
-81.779709 0.870948 0.997514
-95.128494 0.878286 1.007065
1.029953 1.029953 1.029953
1.229190 1.229190 1.229190
1.229190 1.229190 1.229190
1.229190 1.229190 1.229190
1.229190 1.229190 1.229190
1.229190 1.229190 1.229190
1.229190 1.229190 1.229190
1.229190 1.229190 1.229190
1.229190 1.229190 1.229190
1.229190 1.229190 1.229190
1.229190 1.229190 1.229190
1.229190 1.229190 1.229190
1.229190 1.229190 1.229190
1.229190 1.229190 1.229190
1.229190 1.229190 1.229190
1.229190 1.229190 1.229190
1.229190 1.229190 1.229190
1.229190 1.229190 1.229190
1.229190 1.229190 1.229190
1.229190 1.229190 1.229190
1.229190 1.229190 1.229190
1.229190 1.229190 1.229190
1.229190 1.229190 1.229190
1.229190 1.229190 1.229190
1.229190 1.229190 1.229190
1.229190 1.229190 1.229190
1.229190 1.229190 1.229190
1.229190 1.229190 1.229190
1.229190 1.229190 1.229190
1.229190 1.229190 1.229190
1.229190 1.229190 1.229190
1.229190 1.229190 1.229190
1.229190 1.229190 1.229190
1.229190 1.229190 1.229190
1.229190 1.229190 1.229190
1.229190 1.229190 1.229190
1.229190 1.229190 1.229190
1.229190 1.229190 1.229190
1.229190 1.229190 1.229190
1.229190 1.229190 1.229190
1.229190 1.229190 1.229190
1.229190 1.229190 1.229190
1.229190 1.229190 1.229190
1.229190 1.229190 1.229190
1.229190 1.229190 1.229190
1.229190 1.229190 1.229190
1.229190 1.229190 1.229190
1.229190 1.229190 1.229190
1.229190 1.229190 1.229190
1.229190 1.229190 1.229190
1.229190 1.229190 1.229190
1.229190 1.229190 1.229190
1.229190 1.229190 1.229190
1.229190 1.229190 1.229190
1.229190 1.229190 1.229190
1.229190 1.229190 1.229190
1.229190 1.229190 1.229190
1.229190 1.229190 1.229190
1.229190 1.229190 1.229190
1.229190 1.229190 1.229190
1.229190 1.229190 1.229190
1.229190 1.229190 1.229190
1.229190 1.229190 1.229190
1.229190 1.229190 1.229190
1.229190 1.229190 1.229190
1.229190 1.229190 1.229190
1.229190 1.229190 1.229190
1.229190 1.229190 1.229190
1.229190 1.229190 1.229190
1.229190 1.229190 1.229190
1.229190 1.229190 1.229190
1.229190 1.229190 1.229190
1.229190 1.229190 1.229190
1.229190 1.229190 1.229190
1.229190 1.229190 1.229190
1.229190 1.229190 1.229190
1.229190 1.229190 1.229190
1.229190 1.229190 1.229190
1.229190 1.229190 1.229190
1.229190 1.229190 1.229190
1.229190 1.229190 1.229190
1.229190 1.229190 1.229190
1.229190 1.229190 1.229190
1.229190 1.229190 1.229190
1.229190 1.229190 1.229190
1.229190 1.229190 1.229190
1.229190 1.229190 1.229190
1.229190 1.229190 1.229190
1.229190 1.229190 1.229190
1.229190 1.229190 1.229190
1.229190 1.229190 1.229190
1.229190 1.229190 1.229190
1.229190 1.229190 1.229190
1.229190 1.229190 1.229190
1.229190 1.229190 1.229190
1.229190 1.229190 1.229190
1.229190 1.229190 1.229190
1.229190 1.229190 1.229190
1.229190 1.229190 1.229190
1.229190 1.229190 1.229190
1.229190 1.229190 1.229190
1.229190 1.229190 1.229190
1.229190 1.229190 1.229190
1.229190 1.229190 1.229190
1.229190 1.229190 1.229190
1.229190 1.229190 1.229190
1.229190 1.229190 1.229190
1.229190 1.229190 1.229190
1.229190 1.229190 1.229190
1.229190 1.229190 1.229190
1.229190 1.229190 1.229190
1.229190 1.229190 1.229190
1.229190 1.229190 1.229190
1.229190 1.229190 1.229190
1.229190 1.229190 1.229190
1.229190 1.229190 1.229190
1.229190 1.229190 1.229190
1.229190 1.229190 1.229190
1.229190 1.229190 1.229190
1.229190 1.229190 1.229190
1.229190 1.229190 1.229190
1.229190 1.229190 1.229190
1.229190 1.229190 1.229190
1.229190 1.229190 1.229190
1.229190 1.229190 1.229190
1.229190 1.229190 1.229190
1.229190 1.229190 1.229190
1.229190 1.229190 1.229190
1.229190 1.229190 1.229190
1.229190 1.229190 1.229190
1.229190 1.229190 1.229190
1.229190 1.229190 1.229190
1.229190 1.229190 1.229190
1.229190 1.229190 1.229190
1.229190 1.229190 1.229190
1.229190 1.229190 1.229190
1.229190 1.229190 1.229190
1.229190 1.229190 1.229190
1.229190 1.229190 1.229190
1.229190 1.229190 1.229190
1.229190 1.229190 1.229190
1.229190 1.229190 1.229190
1.229190 1.229190 1.229190
1.229190 1.229190 1.229190
1.229190 1.229190 1.229190
1.229190 1.229190 1.229190
1.229190 1.229190 1.229190
1.229190 1.229190 1.229190
1.229190 1.229190 1.229190
1.229190 1.229190 1.229190
1.229190 1.229190 1.229190
1.229190 1.229190 1.229190
1.229190 1.229190 1.229190
1.229190 1.229190 1.229190
1.229190 1.229190 1.229190
1.229190 1.229190 1.229190
1.229190 1.229190 1.229190
1.229190 1.229190 1.229190
1.229190 1.229190 1.229190
1.229190 1.229190 1.229190
1.229190 1.229190 1.229190
1.229190 1.229190 1.229190
1.229190 1.229190 1.229190
1.229190 1.229190 1.229190
1.229190 1.229190 1.229190
1.229190 1.229190 1.229190
1.229190 1.229190 1.229190
1.229190 1.229190 1.229190
1.229190 1.229190 1.229190
1.229190 1.229190 1.229190
1.229190 1.229190 1.229190
1.229190 1.229190 1.229190
1.229190 1.229190 1.229190
1.229190 1.229190 1.229190
1.229190 1.229190 1.229190
1.229190 1.229190 1.229190
1.229190 1.229190 1.229190
1.229190 1.229190 1.229190
1.229190 1.229190 1.229190
1.229190 1.229190 1.229190
1.229190 1.229190 1.229190
1.229190 1.229190 1.229190
1.229190 1.229190 1.229190
1.229190 1.229190 1.229190
1.229190 1.229190 1.229190
1.229190 1.229190 1.229190
1.229190 1.229190 1.229190
1.229190 1.229190 1.229190
1.229190 1.229190 1.229190
1.229190 1.229190 1.229190
1.229190 1.229190 1.229190
1.229190 1.229190 1.229190
1.229190 1.229190 1.229190
1.229190 1.229190 1.229190
1.229190 1.229190 1.229190
1.229190 1.229190 1.229190
1.229190 1.229190 1.229190
1.229190 1.229190 1.229190
1.229190 1.229190 1.229190
1.229190 1.229190 1.229190
1.229190 1.229190 1.229190
1.229190 1.229190 1.229190
1.229190 1.229190 1.229190
1.229190 1.229190 1.229190
1.229190 1.229190 1.229190
1.229190 1.229190 1.229190
1.229190 1.229190 1.229190
1.229190 1.229190 1.229190
1.229190 1.229190 1.229190
1.229190 1.229190 1.229190
1.229190 1.229190 1.229190
1.229190 1.229190 1.229190
1.229190 1.229190 1.229190
1.229190 1.229190 1.229190
1.229190 1.229190 1.229190
1.229190 1.229190 1.229190
1.229190 1.229190 1.229190
1.229190 1.229190 1.229190
1.229190 1.229190 1.229190
1.229190 1.229190 1.229190
1.229190 1.229190 1.229190
1.229190 1.229190 1.229190
1.229190 1.229190 1.229190
1.229190 1.229190 1.229190
1.229190 1.229190 1.229190
1.229190 1.229190 1.229190
1.229190 1.229190 1.229190
1.229190 1.229190 1.229190
1.229190 1.229190 1.229190
1.229190 1.229190 1.229190
1.229190 1.229190 1.229190
1.229190 1.229190 1.229190
1.229190 1.229190 1.229190
1.229190 1.229190 1.229190
1.229190 1.229190 1.229190
1.229190 1.229190 1.229190
1.229190 1.229190 1.229190
1.229190 1.229190 1.229190
1.229190 1.229190 1.229190
1.229190 1.229190 1.229190
1.229190 1.229190 1.229190
1.229190 1.229190 1.229190
1.229190 1.229190 1.229190
1.229190 1.229190 1.229190
1.229190 1.229190 1.229190
1.229190 1.229190 1.229190
1.229190 1.229190 1.229190
1.229190 1.229190 1.229190
1.229190 1.229190 1.229190
1.229190 1.229190 1.229190
1.229190 1.229190 1.229190
1.229190 1.229190 1.229190
1.229190 1.229190 1.229190
1.229190 1.229190 1.229190
1.229190 1.229190 1.229190
1.229190 1.229190 1.229190
1.229190 1.229190 1.229190
1.229190 1.229190 1.229190
1.229190 1.229190 1.229190
1.229190 1.229190 1.229190
1.229190 1.229190 1.229190
1.229190 1.229190 1.229190
1.229190 1.229190 1.229190
1.229190 1.229190 1.229190
1.229190 1.229190 1.229190
1.229190 1.229190 1.229190
1.229190 1.229190 1.229190
1.229190 1.229190 1.229190
1.229190 1.229190 1.229190
1.229190 1.229190 1.229190
1.229190 1.229190 1.229190
1.229190 1.229190 1.229190
1.229190 1.229190 1.229190
1.229190 1.229190 1.229190
1.229190 1.229190 1.229190
1.229190 1.229190 1.229190
1.229190 1.229190 1.229190
1.229190 1.229190 1.229190
1.229190 1.229190 1.229190
1.229190 1.229190 1.229190
1.229190 1.229190 1.229190
1.229190 1.229190 1.229190
1.229190 1.229190 1.229190
1.229190 1.229190 1.229190
1.229190 1.229190 1.229190
1.229190 1.229190 1.229190
