OCIO/luts/ACES2_Output_v2.0.0/ACES2 Output v2.0.0 Rec2100 (P3D65 500nit Limited).cube
TITLE "Generated by Foundry::LUT"
LUT_3D_SIZE 5
0.000001 0.000001 0.000001
0.072261 0.019983 0.002256
0.402647 0.189113 0.099937
0.648814 0.460365 0.374233
0.672752 0.661655 0.656552
0.046912 0.089564 0.027563
0.113613 0.113616 0.018623
0.413650 0.196220 0.000001
0.648876 0.462006 0.374441
0.672752 0.661668 0.656561
0.282308 0.412759 0.223833
0.284672 0.416166 0.204197
0.431451 0.432101 0.136256
0.650152 0.491144 0.379766
0.672809 0.661909 0.656822
0.506364 0.667337 0.424238
0.506481 0.667491 0.423099
0.508444 0.670098 0.400052
0.656878 0.658232 0.272007
0.673843 0.666250 0.661693
0.671251 0.676196 0.668498
0.671251 0.676189 0.668501
0.671270 0.676196 0.668504
0.671631 0.676218 0.668640
0.676132 0.676486 0.669022
0.011060 0.009972 0.046265
0.089556 0.027991 0.088669
0.403191 0.190110 0.204084
0.648842 0.460114 0.384317
0.672796 0.661837 0.656819
0.058248 0.101066 0.100849
0.120543 0.120544 0.120543
0.413228 0.197840 0.185373
0.648906 0.461805 0.384535
0.672796 0.661849 0.656834
0.283231 0.412486 0.262792
0.285521 0.415775 0.252691
0.431834 0.431861 0.153198
0.650441 0.495487 0.396830
0.672850 0.662087 0.657086
0.506383 0.667249 0.428999
0.506508 0.667406 0.428073
0.508430 0.669924 0.409025
0.656878 0.658241 0.272014
0.673859 0.666319 0.661809
0.671254 0.676196 0.668504
0.671254 0.676196 0.668511
0.671273 0.676196 0.668517
0.671641 0.676215 0.668649
0.676132 0.676486 0.669029
0.157036 0.168882 0.350445
0.163966 0.101159 0.380658
0.417474 0.207840 0.414905
0.649231 0.458503 0.462144
0.673461 0.664474 0.660762
0.172002 0.208650 0.358032
0.175707 0.178306 0.385170
0.421977 0.211032 0.420628
0.649296 0.460210 0.462243
0.673458 0.664487 0.660765
0.301445 0.419301 0.418940
0.303043 0.421153 0.420935
0.431941 0.431939 0.431941
0.652014 0.512664 0.489335
0.673496 0.664644 0.660918
0.507152 0.666515 0.479868
0.507293 0.666682 0.479679
0.519857 0.668267 0.481094
0.651884 0.654359 0.491265
0.674167 0.667476 0.663747
0.671330 0.676196 0.668691
0.671330 0.676196 0.668691
0.671349 0.676196 0.668697
0.671707 0.676221 0.668820
0.676135 0.676486 0.669098
0.400734 0.437098 0.674970
0.403389 0.436318 0.674970
0.455546 0.431590 0.674948
0.655173 0.497852 0.654897
0.674148 0.666855 0.666159
0.401896 0.440229 0.674977
0.404683 0.439577 0.674980
0.455905 0.434622 0.674954
0.655275 0.499857 0.654938
0.674152 0.666871 0.666175
0.417940 0.485288 0.675104
0.420526 0.485037 0.675101
0.478169 0.494267 0.674193
0.657163 0.531553 0.655752
0.674231 0.667214 0.666508
0.514648 0.657247 0.656784
0.514673 0.657269 0.656822
0.521604 0.657390 0.657107
0.643362 0.643362 0.643362
0.674958 0.670269 0.669310
0.671669 0.676227 0.670167
0.671669 0.676227 0.670167
0.671695 0.676234 0.670186
0.672110 0.676259 0.670398
0.676141 0.676499 0.670110
0.656400 0.659714 0.676336
0.656431 0.659739 0.676336
0.657033 0.660147 0.676342
0.661171 0.662087 0.676365
0.675471 0.671536 0.675028
0.656415 0.659726 0.676330
0.656443 0.659748 0.676336
0.657045 0.660157 0.676342
0.661190 0.662102 0.676362
0.675471 0.671536 0.675028
0.656639 0.659976 0.676336
0.656670 0.659998 0.676336
0.657259 0.660400 0.676346
0.661502 0.662456 0.676368
0.675481 0.671580 0.675040
0.660309 0.663966 0.676397
0.660331 0.663985 0.676397
0.660703 0.664205 0.676400
0.664952 0.666489 0.676429
0.675605 0.672149 0.675213
0.671542 0.676282 0.676183
0.671542 0.676279 0.676183
0.671555 0.676279 0.676183
0.671885 0.676253 0.676157
0.675765 0.675758 0.675765
