OCIO/luts/ACES2_Output_v2.0.0/ACES2 Output v2.0.0 Rec2100 (P3D65 1000nit Limited).cube
TITLE "Generated by Foundry::LUT"
LUT_3D_SIZE 9
0.000001 0.000001 0.000001
0.014292 0.003007 0.000001
0.076396 0.021400 0.000001
0.222110 0.084201 0.020891
0.412110 0.195293 0.094977
0.589733 0.323586 0.193232
0.721385 0.446708 0.316450
0.728937 0.614280 0.558397
0.744612 0.722298 0.711431
0.008629 0.019619 0.002527
0.027372 0.027369 0.002979
0.089004 0.045358 0.002937
0.230414 0.088398 0.000001
0.414410 0.196782 0.080199
0.590244 0.323983 0.189520
0.721395 0.447362 0.316458
0.728940 0.614338 0.558439
0.744612 0.722298 0.711435
0.049434 0.093892 0.025528
0.054539 0.102576 0.017251
0.117851 0.117870 0.019598
0.244074 0.152006 0.017825
0.423469 0.202735 0.000001
0.592295 0.325556 0.172733
0.721443 0.449960 0.316523
0.728961 0.614582 0.558598
0.744612 0.722322 0.711455
0.150671 0.244296 0.102569
0.152954 0.247769 0.090438
0.161681 0.258341 0.064421
0.273251 0.273252 0.066575
0.429913 0.299507 0.052796
0.603017 0.333897 0.000001
0.721630 0.460439 0.316197
0.729047 0.615641 0.559299
0.744630 0.722410 0.711545
0.289874 0.422047 0.225394
0.290401 0.422773 0.222123
0.292469 0.425696 0.205089
0.309263 0.434914 0.143493
0.442951 0.443365 0.141979
0.602615 0.455719 0.111908
0.722417 0.495574 0.306550
0.729408 0.620061 0.562043
0.744714 0.722792 0.711952
0.433583 0.587831 0.359723
0.433688 0.587970 0.358880
0.434125 0.588554 0.355184
0.436184 0.591315 0.334452
0.460848 0.599894 0.240876
0.599970 0.600780 0.233409
0.726554 0.593279 0.311595
0.731390 0.641073 0.579581
0.745087 0.724554 0.713853
0.549087 0.712813 0.464784
0.549115 0.712846 0.464546
0.549225 0.712981 0.463581
0.549703 0.713594 0.459186
0.552014 0.716526 0.434501
0.580888 0.723461 0.328561
0.709262 0.710441 0.309419
0.738944 0.697966 0.639899
0.746649 0.731666 0.722114
0.681833 0.747960 0.648250
0.681852 0.747963 0.648260
0.681926 0.747967 0.648312
0.682177 0.747974 0.648401
0.682958 0.748002 0.648263
0.686307 0.748112 0.647403
0.701239 0.748655 0.645170
0.747621 0.750738 0.588243
0.749235 0.742799 0.734287
0.741409 0.751078 0.735948
0.741409 0.751078 0.735945
0.741412 0.751078 0.735948
0.741416 0.751078 0.735952
0.741444 0.751078 0.735955
0.741566 0.751089 0.735986
0.742109 0.751117 0.736108
0.744356 0.751248 0.736685
0.751000 0.751617 0.734523
0.001555 0.000707 0.008828
0.019210 0.004551 0.018986
0.081033 0.023389 0.040689
0.223455 0.085178 0.083361
0.412159 0.195477 0.142372
0.589664 0.323587 0.214070
0.721388 0.446687 0.321461
0.728995 0.614966 0.559688
0.744630 0.722383 0.711562
0.011557 0.023371 0.023267
0.030300 0.030300 0.030300
0.097930 0.039012 0.040435
0.233393 0.090134 0.072247
0.414463 0.196963 0.134720
0.590177 0.323980 0.211042
0.721402 0.447343 0.321464
0.729005 0.615027 0.559728
0.744630 0.722390 0.711569
0.051997 0.096284 0.058039
0.057274 0.105747 0.051513
0.120843 0.120325 0.044122
0.251086 0.143522 0.048940
0.422536 0.202196 0.093963
0.592183 0.325515 0.197948
0.721443 0.449941 0.321507
0.729023 0.615271 0.559892
0.744637 0.722410 0.711593
0.151667 0.244714 0.129292
0.153903 0.248122 0.122675
0.162206 0.260843 0.065380
0.274114 0.273807 0.066762
0.431824 0.296428 0.049252
0.602410 0.333428 0.000001
0.721674 0.462234 0.324003
0.729112 0.616323 0.560593
0.744654 0.722495 0.711683
0.290074 0.421979 0.236492
0.290597 0.422709 0.233646
0.292626 0.425552 0.220326
0.304457 0.435850 0.144102
0.443182 0.443342 0.141946
0.603608 0.454363 0.109756
0.722441 0.496042 0.312900
0.729473 0.620697 0.563274
0.744735 0.722877 0.712086
0.433625 0.587795 0.362931
0.433730 0.587937 0.362111
0.434148 0.588493 0.358764
0.436161 0.591200 0.339327
0.459701 0.600124 0.241063
0.600024 0.600768 0.233395
0.726557 0.593242 0.315739
0.731434 0.641470 0.580471
0.745104 0.724626 0.713971
0.549092 0.712793 0.465687
0.549115 0.712823 0.465457
0.549225 0.712964 0.464502
0.549706 0.713573 0.460144
0.551996 0.716489 0.435796
0.580646 0.723522 0.328618
0.709279 0.710441 0.309421
0.738964 0.698062 0.640216
0.746656 0.731700 0.722172
0.681868 0.747963 0.648352
0.681888 0.747963 0.648364
0.681965 0.747967 0.648419
0.682242 0.747978 0.648542
0.683028 0.748002 0.648416
0.686368 0.748112 0.647559
0.701276 0.748659 0.645295
0.747628 0.750738 0.588407
0.749235 0.742802 0.734301
0.741412 0.751078 0.735952
0.741412 0.751078 0.735952
0.741412 0.751078 0.735952
0.741416 0.751078 0.735955
0.741447 0.751078 0.735962
0.741570 0.751085 0.735990
0.742109 0.751117 0.736115
0.744356 0.751248 0.736685
0.750997 0.751624 0.734523
0.011903 0.005706 0.052155
0.031676 0.010148 0.063772
0.093759 0.029631 0.092875
0.228882 0.088928 0.145070
0.412702 0.196323 0.207116
0.589477 0.323620 0.261895
0.721402 0.446437 0.338284
0.729157 0.616617 0.563173
0.744711 0.722734 0.712096
0.022898 0.036191 0.065736
0.034778 0.033478 0.086614
0.105371 0.042178 0.105803
0.237807 0.093404 0.144849
0.414985 0.197776 0.203527
0.589993 0.324014 0.259889
0.721419 0.447103 0.338286
0.729171 0.616792 0.563378
0.744711 0.722741 0.712096
0.061139 0.105500 0.105228
0.065734 0.112426 0.112405
0.124923 0.124923 0.124923
0.259410 0.135712 0.138789
0.422992 0.202905 0.187489
0.592014 0.325552 0.251522
0.721460 0.449749 0.338331
0.729232 0.617481 0.564208
0.744714 0.722755 0.712120
0.155410 0.246939 0.176700
0.157505 0.250110 0.174974
0.165012 0.261726 0.161530
0.276326 0.275730 0.145304
0.434494 0.292974 0.163222
0.599570 0.343396 0.216198
0.721712 0.463111 0.341857
0.729360 0.618945 0.565532
0.744728 0.722843 0.712211
0.290886 0.421872 0.266794
0.291405 0.422599 0.264862
0.293378 0.425386 0.256378
0.301570 0.436536 0.179228
0.443372 0.443365 0.157713
0.604685 0.453279 0.161297
0.722669 0.503095 0.345646
0.729728 0.623300 0.568253
0.744812 0.723219 0.712608
0.433802 0.587684 0.374323
0.433907 0.587828 0.373589
0.434315 0.588376 0.370642
0.436093 0.590767 0.355722
0.456091 0.600766 0.241598
0.600070 0.600646 0.233298
0.726677 0.594704 0.341492
0.731624 0.643030 0.583884
0.745167 0.724923 0.714433
0.549100 0.712722 0.469149
0.549123 0.712756 0.468926
0.549232 0.712890 0.468026
0.549701 0.713489 0.463850
0.551986 0.716374 0.441697
0.580196 0.723768 0.328827
0.709302 0.710455 0.309427
0.739041 0.698438 0.641449
0.746691 0.731831 0.722400
0.682020 0.747967 0.648768
0.682039 0.747967 0.648784
0.682116 0.747974 0.648830
0.682461 0.747985 0.649060
0.683287 0.748013 0.649004
0.686611 0.748122 0.648152
0.701411 0.748662 0.645808
0.747632 0.750738 0.589075
0.749242 0.742813 0.734349
0.741423 0.751078 0.735969
0.741416 0.751078 0.735969
0.741419 0.751078 0.735969
0.741426 0.751078 0.735973
0.741458 0.751078 0.735979
0.741580 0.751089 0.736004
0.742116 0.751117 0.736125
0.744363 0.751248 0.736702
0.750997 0.751624 0.734529
0.057187 0.055184 0.169413
0.061667 0.035763 0.183525
0.125353 0.050471 0.203251
0.246803 0.102434 0.244969
0.415992 0.200235 0.297640
0.589284 0.324122 0.343455
0.721460 0.445334 0.384981
0.729284 0.617536 0.568616
0.745030 0.724164 0.714264
0.065631 0.078897 0.177330
0.068458 0.059567 0.197274
0.128128 0.058855 0.214967
0.252024 0.105381 0.251056
0.417998 0.201508 0.297281
0.589786 0.324504 0.342506
0.721473 0.446002 0.384968
0.729301 0.617711 0.568818
0.745030 0.724168 0.714267
0.094078 0.137008 0.202252
0.096956 0.137101 0.213453
0.128292 0.124040 0.249718
0.264300 0.139937 0.265049
0.425087 0.206030 0.295083
0.591779 0.326003 0.338623
0.721514 0.448668 0.384937
0.729360 0.618395 0.569618
0.745034 0.724185 0.714288
0.170182 0.257497 0.257112
0.171840 0.259632 0.259348
0.177770 0.267239 0.267359
0.278569 0.278570 0.278569
0.436424 0.292605 0.291988
0.599207 0.344095 0.324539
0.721783 0.462680 0.387802
0.729632 0.621408 0.573117
0.745048 0.724267 0.714372
0.294559 0.422603 0.329574
0.295041 0.423270 0.328961
0.296888 0.425868 0.326206
0.310825 0.435490 0.308634
0.443418 0.443496 0.304154
0.599653 0.460520 0.334849
0.723464 0.523580 0.422595
0.730762 0.633121 0.586667
0.745129 0.724619 0.714743
0.434575 0.587350 0.409515
0.434680 0.587486 0.409007
0.435085 0.588040 0.406967
0.436702 0.590236 0.397684
0.459158 0.599638 0.330599
0.599270 0.599993 0.326054
0.727171 0.600351 0.412104
0.732415 0.649434 0.597543
0.745452 0.726146 0.716334
0.549269 0.712581 0.482006
0.549290 0.712611 0.481825
0.549386 0.712732 0.481078
0.549797 0.713267 0.477715
0.552035 0.715958 0.465678
0.580646 0.724322 0.340313
0.709182 0.710388 0.324098
0.739355 0.699930 0.646385
0.746835 0.732415 0.723393
0.682661 0.747995 0.650555
0.682677 0.747999 0.650567
0.682758 0.748002 0.650620
0.683090 0.748013 0.650835
0.684384 0.748059 0.651496
0.687647 0.748168 0.650678
0.701971 0.748694 0.647969
0.747667 0.750749 0.591986
0.749263 0.742890 0.734543
0.741451 0.751078 0.736042
0.741451 0.751078 0.736038
0.741451 0.751082 0.736038
0.741458 0.751082 0.736045
0.741486 0.751082 0.736056
0.741608 0.751089 0.736084
0.742147 0.751124 0.736202
0.744380 0.751252 0.736754
0.751000 0.751624 0.734571
0.161684 0.169464 0.360208
0.162593 0.158811 0.366877
0.171262 0.104295 0.386407
0.278935 0.138216 0.402513
0.427668 0.214833 0.425128
0.590579 0.327473 0.453899
0.721695 0.443208 0.470553
0.729484 0.618079 0.582818
0.746131 0.728947 0.721460
0.164967 0.179973 0.361703
0.165885 0.171408 0.368130
0.168383 0.108386 0.390193
0.279172 0.138875 0.405134
0.428714 0.215581 0.426433
0.591013 0.327803 0.453798
0.721705 0.443873 0.470540
0.729501 0.618264 0.583020
0.746135 0.728950 0.721467
0.176985 0.211928 0.367680
0.177936 0.208201 0.372855
0.180822 0.178018 0.395468
0.279641 0.154990 0.414199
0.432487 0.218283 0.431189
0.592732 0.329086 0.453359
0.721749 0.446517 0.470493
0.729566 0.618998 0.583787
0.746131 0.728964 0.721473
0.217636 0.292475 0.387456
0.218425 0.292388 0.390276
0.221250 0.290996 0.401577
0.280571 0.278622 0.432479
0.438631 0.293783 0.438495
0.599063 0.345373 0.452190
0.722018 0.461045 0.472244
0.729862 0.622205 0.587189
0.746145 0.729012 0.721521
0.310160 0.429541 0.429137
0.310524 0.429960 0.429584
0.311933 0.431594 0.431328
0.321251 0.437462 0.437671
0.444278 0.444278 0.444278
0.593040 0.468944 0.464936
0.723731 0.522898 0.493167
0.731169 0.635549 0.601570
0.746194 0.729246 0.721735
0.438060 0.587075 0.482381
0.438156 0.587203 0.482202
0.438535 0.587709 0.481492
0.440037 0.589745 0.478232
0.471727 0.595734 0.465956
0.596332 0.597230 0.484127
0.720629 0.612398 0.522373
0.735278 0.669990 0.638292
0.746423 0.730296 0.722731
0.549987 0.712083 0.521812
0.550008 0.712113 0.521686
0.550091 0.712228 0.521194
0.550490 0.712739 0.518924
0.554319 0.715067 0.514307
0.605444 0.716648 0.509368
0.705662 0.707784 0.511773
0.740371 0.704557 0.661805
0.747360 0.734547 0.726996
0.684934 0.748105 0.657269
0.684963 0.748105 0.657294
0.685070 0.748112 0.657384
0.685536 0.748126 0.657788
0.686913 0.748179 0.658587
0.691417 0.748341 0.660010
0.704062 0.748811 0.656136
0.747822 0.750791 0.604222
0.749355 0.743184 0.735351
0.741591 0.751092 0.736361
0.741591 0.751092 0.736361
0.741591 0.751089 0.736361
0.741598 0.751089 0.736361
0.741626 0.751092 0.736368
0.741745 0.751099 0.736403
0.742273 0.751128 0.736507
0.744444 0.751255 0.736994
0.751004 0.751624 0.734717
0.296684 0.315689 0.552325
0.296874 0.312940 0.553905
0.297542 0.299991 0.560248
0.305232 0.209203 0.589932
0.443256 0.251189 0.587358
0.596865 0.341206 0.593942
0.722645 0.443525 0.585793
0.730152 0.620718 0.615597
0.746846 0.731773 0.726814
0.297515 0.318711 0.552401
0.297707 0.316072 0.553978
0.298380 0.303761 0.560266
0.305638 0.209529 0.590465
0.443258 0.251422 0.588212
0.597071 0.341380 0.594217
0.722656 0.444141 0.585796
0.730165 0.620909 0.615749
0.746846 0.731783 0.726828
0.300758 0.329882 0.552718
0.300952 0.327704 0.554219
0.301649 0.317560 0.560298
0.307161 0.210747 0.592468
0.443182 0.252335 0.591614
0.597885 0.342062 0.595289
0.722693 0.446611 0.585801
0.730234 0.621646 0.616358
0.746853 0.731821 0.726869
0.314097 0.366650 0.555546
0.314278 0.365664 0.556668
0.314967 0.361307 0.561190
0.317193 0.324890 0.583956
0.442390 0.286121 0.600714
0.600737 0.344472 0.599202
0.722966 0.461342 0.586570
0.730538 0.624867 0.619027
0.746892 0.731980 0.727051
0.358825 0.455864 0.566126
0.358982 0.455788 0.566735
0.359596 0.455434 0.569138
0.361877 0.453191 0.579036
0.452894 0.455019 0.588390
0.596343 0.470111 0.594628
0.724506 0.522653 0.594445
0.731866 0.638186 0.630314
0.747043 0.732667 0.727847
0.452389 0.590099 0.589686
0.452456 0.590172 0.589770
0.452726 0.590462 0.590093
0.453794 0.591603 0.591365
0.477967 0.594872 0.594991
0.596428 0.596422 0.596428
0.704105 0.624362 0.620087
0.736525 0.675921 0.663784
0.747614 0.735133 0.730676
0.552629 0.710542 0.600643
0.552650 0.710569 0.600601
0.552723 0.710666 0.600419
0.553058 0.711109 0.599653
0.555904 0.712843 0.598256
0.625233 0.706019 0.616174
0.699170 0.700501 0.638639
0.741969 0.710831 0.686806
0.748436 0.738721 0.734159
0.685335 0.748175 0.669446
0.685364 0.748175 0.669465
0.685462 0.748175 0.669534
0.685899 0.748193 0.669841
0.687835 0.748267 0.671203
0.695105 0.748556 0.676106
0.709024 0.749114 0.677369
0.745048 0.747939 0.662137
0.749595 0.743931 0.737596
0.742053 0.751128 0.737509
0.742053 0.751128 0.737509
0.742056 0.751128 0.737509
0.742056 0.751128 0.737509
0.742084 0.751128 0.737516
0.742196 0.751135 0.737533
0.742679 0.751159 0.737610
0.744658 0.751276 0.737850
0.751014 0.751627 0.735285
0.428274 0.451402 0.713856
0.428347 0.450685 0.714271
0.428648 0.447672 0.715945
0.430004 0.431847 0.723550
0.443294 0.319021 0.750023
0.592606 0.370129 0.748316
0.726351 0.450420 0.724154
0.732557 0.635754 0.671406
0.747205 0.732757 0.731372
0.428451 0.452185 0.713816
0.428528 0.451488 0.714214
0.428821 0.448510 0.715887
0.430172 0.432898 0.723475
0.442650 0.318884 0.750023
0.592592 0.370173 0.748468
0.726351 0.450422 0.724185
0.732571 0.635910 0.671485
0.747202 0.732764 0.731383
0.429158 0.455259 0.713624
0.429225 0.454589 0.714028
0.429521 0.451801 0.715651
0.430865 0.436999 0.723161
0.440152 0.318368 0.750027
0.592547 0.370344 0.749051
0.726355 0.450439 0.724284
0.732633 0.636541 0.671812
0.747212 0.732799 0.731414
0.432230 0.467962 0.712799
0.432286 0.467467 0.713132
0.432538 0.465289 0.714588
0.433868 0.453262 0.721855
0.435850 0.321930 0.750030
0.591883 0.370321 0.749995
0.726406 0.452265 0.724636
0.732916 0.639273 0.673226
0.747244 0.732941 0.731555
0.445909 0.508292 0.713035
0.445958 0.508044 0.713301
0.446155 0.507043 0.714362
0.447007 0.502254 0.719118
0.462790 0.476631 0.742280
0.592718 0.474954 0.743717
0.725399 0.514565 0.722073
0.734124 0.650435 0.679172
0.747378 0.733553 0.732156
0.489059 0.598052 0.714166
0.489101 0.598027 0.714298
0.489240 0.597936 0.714831
0.489855 0.597501 0.717237
0.504122 0.598143 0.725978
0.610005 0.613769 0.700187
0.705999 0.626224 0.702767
0.738066 0.681212 0.696442
0.747875 0.735754 0.734287
0.561283 0.706506 0.706042
0.561294 0.706519 0.706055
0.561342 0.706562 0.706109
0.561517 0.706742 0.706322
0.563359 0.707216 0.706976
0.625822 0.702472 0.702276
0.698121 0.698121 0.698121
0.743289 0.714173 0.712265
0.748811 0.739868 0.737972
0.685591 0.748338 0.698055
0.685614 0.748338 0.698062
0.685698 0.748341 0.698098
0.686057 0.748355 0.698227
0.687660 0.748412 0.698791
0.693866 0.748652 0.700809
0.716181 0.743952 0.711374
0.739359 0.740063 0.721548
0.749779 0.744300 0.740294
0.742189 0.751145 0.739243
0.742189 0.751145 0.739240
0.742189 0.751152 0.739240
0.742196 0.751149 0.739247
0.742242 0.751152 0.739271
0.742410 0.751163 0.739369
0.743068 0.751202 0.739697
0.744904 0.751308 0.739819
0.750912 0.751645 0.738041
0.596292 0.619718 0.750565
0.596340 0.619706 0.750565
0.596527 0.619677 0.750565
0.597348 0.619528 0.750565
0.600945 0.618802 0.750554
0.615612 0.615498 0.750526
0.679137 0.636475 0.750589
0.739540 0.680135 0.738905
0.748066 0.735691 0.739247
0.596340 0.619788 0.750572
0.596388 0.619780 0.750572
0.596574 0.619747 0.750565
0.597393 0.619601 0.750565
0.600990 0.618878 0.750561
0.615632 0.615557 0.750529
0.679175 0.636580 0.750589
0.739550 0.680183 0.738912
0.748069 0.735698 0.739247
0.596527 0.620073 0.750568
0.596574 0.620061 0.750572
0.596758 0.620032 0.750572
0.597580 0.619882 0.750572
0.601166 0.619168 0.750561
0.615705 0.615778 0.750529
0.679320 0.636999 0.750593
0.739575 0.680379 0.738937
0.748076 0.735716 0.739257
0.597343 0.621326 0.750579
0.597391 0.621317 0.750575
0.597580 0.621288 0.750575
0.598395 0.621147 0.750575
0.601952 0.620448 0.750572
0.616028 0.616769 0.750536
0.679952 0.638811 0.750607
0.739686 0.681244 0.739055
0.748091 0.735809 0.739324
0.600905 0.626757 0.750607
0.600953 0.626751 0.750607
0.601138 0.626725 0.750607
0.601963 0.626618 0.750607
0.608843 0.628912 0.750618
0.623002 0.626825 0.750593
0.682712 0.646449 0.750657
0.740161 0.684856 0.739543
0.748182 0.736202 0.739596
0.615205 0.647271 0.750738
0.615245 0.647265 0.750738
0.615408 0.647259 0.750734
0.616891 0.647758 0.750738
0.625881 0.651894 0.750763
0.650063 0.661649 0.750823
0.692250 0.671095 0.750848
0.741759 0.696324 0.741153
0.748493 0.737644 0.740580
0.653883 0.696196 0.751163
0.653942 0.696219 0.751163
0.654174 0.696281 0.751163
0.655207 0.696567 0.751167
0.659652 0.697821 0.751174
0.675245 0.702130 0.751209
0.707343 0.709510 0.741951
0.743980 0.716087 0.741591
0.749132 0.740549 0.742403
0.678883 0.748503 0.748387
0.678906 0.748510 0.748387
0.678964 0.748510 0.748387
0.679243 0.748521 0.748376
0.680501 0.748560 0.748323
0.686048 0.748539 0.747932
0.717298 0.741276 0.741014
0.738926 0.738930 0.738926
0.749995 0.744553 0.744156
0.741965 0.751170 0.743023
0.741969 0.751170 0.743023
0.741969 0.751170 0.743023
0.741979 0.751170 0.743026
0.742011 0.751170 0.743033
0.742158 0.751181 0.743075
0.742767 0.751216 0.743216
0.745864 0.750221 0.744946
0.749853 0.749984 0.747304
0.715006 0.721119 0.751397
0.715023 0.721126 0.751397
0.715067 0.721160 0.751397
0.715290 0.721313 0.751400
0.716249 0.721971 0.751408
0.718768 0.723475 0.751422
0.722908 0.724544 0.751429
0.737342 0.731117 0.751503
0.749705 0.741990 0.749058
0.715013 0.721126 0.751397
0.715023 0.721133 0.751397
0.715074 0.721167 0.751393
0.715296 0.721317 0.751400
0.716256 0.721971 0.751404
0.718782 0.723485 0.751422
0.722915 0.724554 0.751429
0.737345 0.731117 0.751503
0.749708 0.741993 0.749058
0.715030 0.721143 0.751393
0.715043 0.721153 0.751397
0.715094 0.721187 0.751397
0.715313 0.721337 0.751400
0.716273 0.721994 0.751411
0.718816 0.723516 0.751422
0.722942 0.724585 0.751432
0.737352 0.731138 0.751496
0.749708 0.741993 0.749058
0.715107 0.721232 0.751397
0.715121 0.721235 0.751400
0.715175 0.721269 0.751400
0.715391 0.721419 0.751404
0.716350 0.722080 0.751411
0.718962 0.723659 0.751429
0.723075 0.724729 0.751432
0.737387 0.731207 0.751503
0.749708 0.742011 0.749061
0.715458 0.721610 0.751404
0.715465 0.721620 0.751404
0.715519 0.721654 0.751404
0.715735 0.721800 0.751404
0.716678 0.722444 0.751411
0.719607 0.724298 0.751432
0.723642 0.725358 0.751443
0.737540 0.731524 0.751507
0.749726 0.742081 0.749079
0.716946 0.723249 0.751422
0.716959 0.723253 0.751422
0.717003 0.723283 0.751422
0.717206 0.723417 0.751429
0.718070 0.723994 0.751432
0.721395 0.726187 0.751461
0.725834 0.727785 0.751475
0.738149 0.732781 0.751525
0.749783 0.742357 0.749157
0.722257 0.729012 0.751503
0.722257 0.729016 0.751503
0.722291 0.729036 0.751500
0.722427 0.729115 0.751503
0.723021 0.729473 0.751507
0.725358 0.730855 0.751525
0.730927 0.733698 0.751560
0.739662 0.736289 0.751581
0.749956 0.743209 0.749387
0.732982 0.740605 0.751670
0.732985 0.740608 0.751670
0.732999 0.740612 0.751670
0.733037 0.740626 0.751670
0.733217 0.740692 0.751670
0.733975 0.740951 0.751670
0.736355 0.741598 0.751677
0.742399 0.742911 0.749093
0.750186 0.745593 0.749645
0.741664 0.751230 0.751053
0.741661 0.751230 0.751053
0.741668 0.751227 0.751060
0.741668 0.751230 0.751060
0.741696 0.751227 0.751053
0.741818 0.751234 0.751043
0.742406 0.751159 0.750965
0.746628 0.749885 0.749825
0.749984 0.749981 0.749984
