OCIO/luts/ACES2_Output_v2.0.0/ACES2 Output v2.0.0 Rec2100 (P3D65 500nit Limited)_inverse.cube
TITLE "Generated by Foundry::LUT"
LUT_3D_SIZE 9
0.072906 0.072906 0.072906
0.307858 0.059507 0.072623
0.400274 0.028643 0.071534
0.479096 -0.004368 0.076101
0.561070 -0.026906 0.104760
0.654118 -0.027715 0.204470
0.789009 -0.715670 0.343324
1.447547 1.447547 1.447547
1.447547 1.447547 1.447547
0.076122 0.280715 0.078118
0.260124 0.260499 0.086240
0.384459 0.223498 0.094450
0.504028 -0.795753 -0.717419
0.560113 0.095471 0.117082
0.654073 0.055341 0.207038
0.789130 -0.605902 0.343687
1.447547 1.447547 1.447547
1.447547 1.447547 1.447547
0.088311 0.377437 0.091769
-0.079913 0.367259 0.032957
0.361958 0.362261 0.114493
0.466276 0.343902 0.124081
0.564480 0.246528 0.048423
0.654524 0.299171 0.206859
0.790202 0.111492 0.343160
1.447547 1.447547 1.447547
1.447547 1.447547 1.447547
0.143957 0.464568 0.137885
0.227018 0.463455 0.157040
0.314549 0.465353 0.038866
0.456140 0.456071 0.146098
0.556619 0.446868 0.154958
0.656567 0.439357 0.199568
0.796532 0.396255 0.278770
1.447547 1.447547 1.447547
1.447547 1.447547 1.447547
0.249932 0.556301 0.234331
0.267713 0.556309 0.233680
0.343034 0.556371 0.228426
0.406660 0.562175 -0.267515
0.556189 0.555372 0.047582
0.663913 0.559360 0.180946
0.813292 0.594439 0.270114
1.447547 1.447547 1.447547
1.447547 1.447547 1.447547
0.331808 0.666124 0.333259
0.336233 0.666218 0.331545
0.363720 0.666953 0.316538
0.457033 0.668684 0.289761
0.541328 0.682465 -1.437956
0.690766 0.689179 -0.856427
0.909939 0.800648 -0.176362
1.447547 1.447547 1.447547
1.447547 1.447547 1.447547
1.447547 1.447547 1.447547
1.447547 1.447547 1.447547
1.447547 1.447547 1.447547
1.447547 1.447547 1.447547
1.447547 1.447547 1.447547
1.447547 1.447547 1.447547
1.447547 1.447547 1.447547
1.447547 1.447547 1.447547
1.447547 1.447547 1.447547
1.447547 1.447547 1.447547
1.447547 1.447547 1.447547
1.447547 1.447547 1.447547
1.447547 1.447547 1.447547
1.447547 1.447547 1.447547
1.447547 1.447547 1.447547
1.447547 1.447547 1.447547
1.447547 1.447547 1.447547
1.447547 1.447547 1.447547
1.447547 1.447547 1.447547
1.447547 1.447547 1.447547
1.447547 1.447547 1.447547
1.447547 1.447547 1.447547
1.447547 1.447547 1.447547
1.447547 1.447547 1.447547
1.447547 1.447547 1.447547
1.447547 1.447547 1.447547
1.447547 1.447547 1.447547
0.066490 0.057907 0.342933
0.285381 0.070961 0.286367
0.396261 0.044095 0.211541
0.478405 0.004505 0.163853
0.560976 -0.022919 0.171197
0.654129 -0.025951 0.235010
0.789065 -0.714838 0.353685
1.447547 1.447547 1.447547
1.447547 1.447547 1.447547
0.083915 0.269452 0.269042
0.254306 0.254306 0.254306
0.373176 0.245055 0.240794
0.501955 -0.897183 -0.154672
0.560026 0.098517 0.182753
0.654084 0.057032 0.236900
0.789186 -0.605054 0.354018
1.447547 1.447547 1.447547
1.447547 1.447547 1.447547
0.093529 0.376083 0.207212
-0.009203 0.367006 0.093687
0.360013 0.360654 0.236589
0.463074 0.348870 0.223808
0.567949 0.102266 0.053086
0.654544 0.299241 0.236394
0.790261 0.111103 0.353547
1.447547 1.447547 1.447547
1.447547 1.447547 1.447547
0.146333 0.464395 0.203816
0.227239 0.463308 0.214217
0.338694 0.461881 0.200784
0.455782 0.455951 0.223831
0.555919 0.448013 0.217021
0.656981 0.436911 0.220021
0.796727 0.388399 0.292666
1.447547 1.447547 1.447547
1.447547 1.447547 1.447547
0.250228 0.556297 0.257005
0.267917 0.556306 0.256474
0.341738 0.556454 0.250399
0.436854 0.558383 0.062501
0.556037 0.555594 0.206081
0.663259 0.559360 0.230539
0.813599 0.593003 0.278080
1.447547 1.447547 1.447547
1.447547 1.447547 1.447547
0.331760 0.666152 0.341507
0.336175 0.666247 0.339941
0.363783 0.666981 0.326437
0.454781 0.668853 0.296455
0.549594 0.680555 -1.093822
0.690347 0.689051 -0.471271
0.910307 0.800611 -0.122582
1.447547 1.447547 1.447547
1.447547 1.447547 1.447547
1.447547 1.447547 1.447547
1.447547 1.447547 1.447547
1.447547 1.447547 1.447547
1.447547 1.447547 1.447547
1.447547 1.447547 1.447547
1.447547 1.447547 1.447547
1.447547 1.447547 1.447547
1.447547 1.447547 1.447547
1.447547 1.447547 1.447547
1.447547 1.447547 1.447547
1.447547 1.447547 1.447547
1.447547 1.447547 1.447547
1.447547 1.447547 1.447547
1.447547 1.447547 1.447547
1.447547 1.447547 1.447547
1.447547 1.447547 1.447547
1.447547 1.447547 1.447547
1.447547 1.447547 1.447547
1.447547 1.447547 1.447547
1.447547 1.447547 1.447547
1.447547 1.447547 1.447547
1.447547 1.447547 1.447547
1.447547 1.447547 1.447547
1.447547 1.447547 1.447547
1.447547 1.447547 1.447547
1.447547 1.447547 1.447547
1.447547 1.447547 1.447547
0.040092 0.006786 0.435180
0.232946 0.038883 0.420832
0.381058 0.070291 0.381963
0.474602 0.039735 0.345343
0.560375 0.000524 0.324904
0.654210 -0.013224 0.335731
0.789479 -0.708121 0.407116
1.447547 1.447547 1.447547
1.447547 1.447547 1.447547
0.103591 0.237775 0.405568
0.253878 0.258327 0.376193
0.369584 0.241075 0.368737
0.476635 -0.260230 0.306365
0.559483 0.117324 0.327607
0.654167 0.069313 0.336462
0.789601 -0.597821 0.407349
1.447547 1.447547 1.447547
1.447547 1.447547 1.447547
0.114382 0.369086 0.368666
0.240721 0.364867 0.364384
0.358259 0.358259 0.358259
0.459101 0.352502 0.352021
0.569111 0.038005 0.276496
0.654689 0.299839 0.335532
0.790696 0.107026 0.407067
1.447547 1.447547 1.447547
1.447547 1.447547 1.447547
0.161566 0.463292 0.340730
0.229725 0.462393 0.342235
0.279531 0.467422 0.303277
0.455144 0.455310 0.344468
0.556848 0.446477 0.325421
0.660644 0.415570 0.294103
0.797400 0.374855 0.372425
1.447547 1.447547 1.447547
1.447547 1.447547 1.447547
0.252446 0.556275 0.343146
0.269619 0.556288 0.342904
0.341829 0.556484 0.340096
0.447608 0.556874 0.329425
0.556361 0.555998 0.323765
0.664261 0.557325 0.310464
0.815898 0.581211 0.318482
1.447547 1.447547 1.447547
1.447547 1.447547 1.447547
0.332171 0.666356 0.387029
0.336558 0.666451 0.386077
0.364215 0.667188 0.378201
0.437853 0.670002 0.338244
0.565953 0.675238 0.294025
0.689718 0.688839 0.315999
0.913097 0.800328 0.229033
1.447547 1.447547 1.447547
1.447547 1.447547 1.447547
1.447547 1.447547 1.447547
1.447547 1.447547 1.447547
1.447547 1.447547 1.447547
1.447547 1.447547 1.447547
1.447547 1.447547 1.447547
1.447547 1.447547 1.447547
1.447547 1.447547 1.447547
1.447547 1.447547 1.447547
1.447547 1.447547 1.447547
1.447547 1.447547 1.447547
1.447547 1.447547 1.447547
1.447547 1.447547 1.447547
1.447547 1.447547 1.447547
1.447547 1.447547 1.447547
1.447547 1.447547 1.447547
1.447547 1.447547 1.447547
1.447547 1.447547 1.447547
1.447547 1.447547 1.447547
1.447547 1.447547 1.447547
1.447547 1.447547 1.447547
1.447547 1.447547 1.447547
1.447547 1.447547 1.447547
1.447547 1.447547 1.447547
1.447547 1.447547 1.447547
1.447547 1.447547 1.447547
1.447547 1.447547 1.447547
1.447547 1.447547 1.447547
0.042733 -0.011398 0.504783
0.175869 0.004820 0.501981
0.358059 0.065119 0.487989
0.466501 0.095567 0.467165
0.558632 0.065995 0.451080
0.654541 0.034804 0.450875
0.791083 -0.677893 0.499885
1.447547 1.447547 1.447547
1.447547 1.447547 1.447547
0.148686 0.223261 0.490435
0.231307 0.233741 0.486667
0.357930 0.230476 0.478917
0.413660 0.384129 0.411061
0.557982 0.171274 0.451219
0.654509 0.116134 0.451110
0.791207 -0.565559 0.500044
1.447547 1.447547 1.447547
1.447547 1.447547 1.447547
0.164142 0.356046 0.477894
0.246629 0.357732 0.472489
0.358858 0.360602 0.459530
0.458434 0.351555 0.458148
0.568276 -0.003084 0.443861
0.655234 0.302593 0.450352
0.792387 0.091140 0.499927
1.447547 1.447547 1.447547
1.447547 1.447547 1.447547
0.195730 0.460279 0.459850
0.241997 0.459800 0.459366
-0.917748 0.475633 0.476908
0.454673 0.454673 0.454673
0.559702 0.441300 0.443887
0.662550 0.410608 0.435549
0.799244 0.373727 0.487267
1.447547 1.447547 1.447547
1.447547 1.447547 1.447547
0.261118 0.556275 0.452039
0.276379 0.556299 0.451959
0.343965 0.556551 0.451166
0.430700 0.560205 0.436188
0.557769 0.557211 0.429419
0.671112 0.548149 0.403226
0.824050 0.514642 0.400538
1.447547 1.447547 1.447547
1.447547 1.447547 1.447547
0.334183 0.667180 0.472911
0.338495 0.667277 0.472548
0.365887 0.668023 0.469641
0.432184 0.671208 0.454318
0.555622 0.677897 0.413121
0.691883 0.690482 0.411016
0.924549 0.799060 0.408115
1.447547 1.447547 1.447547
1.447547 1.447547 1.447547
1.447547 1.447547 1.447547
1.447547 1.447547 1.447547
1.447547 1.447547 1.447547
1.447547 1.447547 1.447547
1.447547 1.447547 1.447547
1.447547 1.447547 1.447547
1.447547 1.447547 1.447547
1.447547 1.447547 1.447547
1.447547 1.447547 1.447547
1.447547 1.447547 1.447547
1.447547 1.447547 1.447547
1.447547 1.447547 1.447547
1.447547 1.447547 1.447547
1.447547 1.447547 1.447547
1.447547 1.447547 1.447547
1.447547 1.447547 1.447547
1.447547 1.447547 1.447547
1.447547 1.447547 1.447547
1.447547 1.447547 1.447547
1.447547 1.447547 1.447547
1.447547 1.447547 1.447547
1.447547 1.447547 1.447547
1.447547 1.447547 1.447547
1.447547 1.447547 1.447547
1.447547 1.447547 1.447547
1.447547 1.447547 1.447547
1.447547 1.447547 1.447547
0.144838 0.084850 0.575295
0.209149 0.090229 0.574850
0.342134 0.122788 0.571915
0.457261 0.180076 0.564547
0.556266 0.195916 0.556748
0.655894 0.176243 0.558315
0.796230 -0.576416 0.604418
1.447547 1.447547 1.447547
1.447547 1.447547 1.447547
0.193381 0.220350 0.572200
0.233885 0.221691 0.571840
0.345670 0.229516 0.569418
0.457081 0.241055 0.563213
0.556085 0.236825 0.556520
0.655894 0.222245 0.558372
0.796363 -0.457414 0.604556
1.447547 1.447547 1.447547
1.447547 1.447547 1.447547
0.233613 0.350400 0.566359
0.266022 0.352903 0.565087
0.322346 0.307847 0.575896
0.456193 0.350354 0.559778
0.562755 -0.072900 0.565362
0.656993 0.313346 0.558517
0.797809 0.033588 0.604677
1.447547 1.447547 1.447547
1.447547 1.447547 1.447547
0.247943 0.456491 0.560352
0.270581 0.456477 0.560058
-27.390146 -41.976124 0.811262
0.451291 0.450604 0.562594
0.558341 0.440475 0.559237
0.665039 0.407550 0.558676
0.805031 0.369727 0.602585
1.447547 1.447547 1.447547
1.447547 1.447547 1.447547
0.284215 0.556839 0.556417
0.295020 0.556880 0.556462
0.349409 0.557207 0.556828
0.397681 0.561631 0.561598
0.557900 0.557900 0.557900
0.682143 0.530020 0.540319
0.832050 0.505133 0.587481
1.447547 1.447547 1.447547
1.447547 1.447547 1.447547
0.340712 0.669926 0.572876
0.344739 0.670023 0.572814
0.370689 0.670769 0.572315
0.435413 0.673948 0.569613
0.529264 0.685653 0.547679
0.698886 0.696622 0.511501
0.965437 0.788521 0.526653
1.447547 1.447547 1.447547
1.447547 1.447547 1.447547
1.447547 1.447547 1.447547
1.447547 1.447547 1.447547
1.447547 1.447547 1.447547
1.447547 1.447547 1.447547
1.447547 1.447547 1.447547
1.447547 1.447547 1.447547
1.447547 1.447547 1.447547
1.447547 1.447547 1.447547
1.447547 1.447547 1.447547
1.447547 1.447547 1.447547
1.447547 1.447547 1.447547
1.447547 1.447547 1.447547
1.447547 1.447547 1.447547
1.447547 1.447547 1.447547
1.447547 1.447547 1.447547
1.447547 1.447547 1.447547
1.447547 1.447547 1.447547
1.447547 1.447547 1.447547
1.447547 1.447547 1.447547
1.447547 1.447547 1.447547
1.447547 1.447547 1.447547
1.447547 1.447547 1.447547
1.447547 1.447547 1.447547
1.447547 1.447547 1.447547
1.447547 1.447547 1.447547
1.447547 1.447547 1.447547
1.447547 1.447547 1.447547
0.297458 0.289862 0.656259
0.308856 0.290123 0.656222
0.365486 0.291982 0.655960
0.458420 0.297536 0.655187
0.557854 0.304972 0.654891
0.661953 0.298709 0.662488
0.813796 -0.701482 0.718989
1.447547 1.447547 1.447547
1.447547 1.447547 1.447547
0.300930 0.306843 0.655916
0.311850 0.307040 0.655882
0.366826 0.308292 0.655646
0.458686 0.312157 0.654955
0.557875 0.316925 0.654829
0.662091 0.305527 0.662649
0.814037 -0.668388 0.719139
1.447547 1.447547 1.447547
1.447547 1.447547 1.447547
0.308858 0.368857 0.655104
0.318100 0.368443 0.655154
0.368853 0.367472 0.655190
0.458599 0.365308 0.655164
0.560999 -0.424221 0.668994
0.783330 -88.132622 0.823232
0.815898 -0.412987 0.720289
1.447547 1.447547 1.447547
1.447547 1.447547 1.447547
0.312753 0.459630 0.655075
0.320329 0.459310 0.655243
0.362197 0.456420 0.656683
0.450521 0.445849 0.660850
0.558997 0.439140 0.662188
0.669528 0.408922 0.671224
0.824046 0.324496 0.725214
1.447547 1.447547 1.447547
1.447547 1.447547 1.447547
0.327211 0.561166 0.657594
0.332611 0.561148 0.657765
0.365322 0.560977 0.659111
-8.955698 0.520174 0.738019
0.548735 0.542360 0.686586
0.683282 0.529808 0.686277
0.856180 0.495519 0.743145
1.447547 1.447547 1.447547
1.447547 1.447547 1.447547
0.354287 0.679003 0.678642
0.357586 0.679091 0.678733
0.379459 0.679765 0.679432
0.437984 0.682618 0.682387
0.514342 0.693779 0.693907
0.708100 0.708099 0.708099
1.447547 1.447547 1.447547
1.447547 1.447547 1.447547
1.447547 1.447547 1.447547
1.447547 1.447547 1.447547
1.447547 1.447547 1.447547
1.447547 1.447547 1.447547
1.447547 1.447547 1.447547
1.447547 1.447547 1.447547
1.447547 1.447547 1.447547
1.447547 1.447547 1.447547
1.447547 1.447547 1.447547
1.447547 1.447547 1.447547
1.447547 1.447547 1.447547
1.447547 1.447547 1.447547
1.447547 1.447547 1.447547
1.447547 1.447547 1.447547
1.447547 1.447547 1.447547
1.447547 1.447547 1.447547
1.447547 1.447547 1.447547
1.447547 1.447547 1.447547
1.447547 1.447547 1.447547
1.447547 1.447547 1.447547
1.447547 1.447547 1.447547
1.447547 1.447547 1.447547
1.447547 1.447547 1.447547
1.447547 1.447547 1.447547
1.447547 1.447547 1.447547
1.447547 1.447547 1.447547
1.447547 1.447547 1.447547
1.447547 1.447547 1.447547
0.408612 0.401055 0.760760
0.412017 0.400987 0.760800
0.434416 0.400524 0.761106
0.492832 0.398445 0.762430
0.580632 0.390620 0.767257
0.689859 0.346905 0.785385
0.912704 -27.889284 0.916339
1.447547 1.447547 1.447547
1.447547 1.447547 1.447547
0.407507 0.403006 0.760947
0.410974 0.402961 0.760985
0.433637 0.402482 0.761293
0.492510 0.400441 0.762618
0.580601 0.392726 0.767450
0.689969 0.350185 0.785591
0.913293 -28.168018 0.916959
1.447547 1.447547 1.447547
1.447547 1.447547 1.447547
0.398183 0.416734 0.762379
0.402078 0.416674 0.762420
0.427196 0.416254 0.762729
0.489876 0.414409 0.764064
0.580333 0.407445 0.768933
0.690810 0.371973 0.787179
0.917937 -30.501291 0.921837
1.447547 1.447547 1.447547
1.447547 1.447547 1.447547
0.381203 0.478162 0.765933
0.383635 0.477082 0.766142
0.400168 0.467886 0.767773
0.474979 0.457224 0.770321
0.578581 0.452131 0.775322
0.694364 0.430165 0.794038
0.940660 -46.117134 0.945693
1.447547 1.447547 1.447547
1.447547 1.447547 1.447547
0.380798 0.581340 0.774390
0.383130 0.581108 0.774588
0.399339 0.579253 0.776109
0.447123 0.569291 0.782773
0.560159 0.533336 0.798687
0.706337 0.521672 0.819500
1.298439 1.298439 1.298439
1.447547 1.447547 1.447547
1.447547 1.447547 1.447547
0.283324 0.715008 0.813063
0.290671 0.715064 0.813245
0.331865 0.715483 0.814660
0.415318 0.717154 0.820819
0.520764 0.720769 0.844413
0.721673 0.646136 0.935997
1.447547 1.447547 1.447547
1.447547 1.447547 1.447547
1.447547 1.447547 1.447547
1.447547 1.447547 1.447547
1.447547 1.447547 1.447547
1.447547 1.447547 1.447547
1.447547 1.447547 1.447547
1.447547 1.447547 1.447547
1.447547 1.447547 1.447547
1.447547 1.447547 1.447547
1.447547 1.447547 1.447547
1.447547 1.447547 1.447547
1.447547 1.447547 1.447547
1.447547 1.447547 1.447547
1.447547 1.447547 1.447547
1.447547 1.447547 1.447547
1.447547 1.447547 1.447547
1.447547 1.447547 1.447547
1.447547 1.447547 1.447547
1.447547 1.447547 1.447547
1.447547 1.447547 1.447547
1.447547 1.447547 1.447547
1.447547 1.447547 1.447547
1.447547 1.447547 1.447547
1.447547 1.447547 1.447547
1.447547 1.447547 1.447547
1.447547 1.447547 1.447547
1.447547 1.447547 1.447547
1.447547 1.447547 1.447547
1.447547 1.447547 1.447547
-1676.920166 -5087.036621 1.233232
-1756.990479 -5350.184082 1.236487
-2589.347900 -8114.478027 1.263718
1.447547 1.447547 1.447547
1.447547 1.447547 1.447547
1.447547 1.447547 1.447547
1.447547 1.447547 1.447547
1.447547 1.447547 1.447547
1.447547 1.447547 1.447547
-1824.432373 -5542.495605 1.238784
-1905.155029 -5809.111328 1.241830
-2903.402588 -9124.147461 1.271507
1.447547 1.447547 1.447547
1.447547 1.447547 1.447547
1.447547 1.447547 1.447547
1.447547 1.447547 1.447547
1.447547 1.447547 1.447547
1.447547 1.447547 1.447547
-4037.453857 -12580.671875 1.293129
1.050504 1.050504 1.050504
1.080808 1.080808 1.080808
1.447547 1.447547 1.447547
1.447547 1.447547 1.447547
1.447547 1.447547 1.447547
1.447547 1.447547 1.447547
1.447547 1.447547 1.447547
1.447547 1.447547 1.447547
1.447547 1.447547 1.447547
1.447547 1.447547 1.447547
1.447547 1.447547 1.447547
1.447547 1.447547 1.447547
1.447547 1.447547 1.447547
1.447547 1.447547 1.447547
1.447547 1.447547 1.447547
1.447547 1.447547 1.447547
1.447547 1.447547 1.447547
1.447547 1.447547 1.447547
1.447547 1.447547 1.447547
1.447547 1.447547 1.447547
1.447547 1.447547 1.447547
1.447547 1.447547 1.447547
1.447547 1.447547 1.447547
1.447547 1.447547 1.447547
1.447547 1.447547 1.447547
1.447547 1.447547 1.447547
1.447547 1.447547 1.447547
1.447547 1.447547 1.447547
1.447547 1.447547 1.447547
1.447547 1.447547 1.447547
1.447547 1.447547 1.447547
1.447547 1.447547 1.447547
1.447547 1.447547 1.447547
1.447547 1.447547 1.447547
1.447547 1.447547 1.447547
1.447547 1.447547 1.447547
1.447547 1.447547 1.447547
1.447547 1.447547 1.447547
1.447547 1.447547 1.447547
1.447547 1.447547 1.447547
1.447547 1.447547 1.447547
1.447547 1.447547 1.447547
1.447547 1.447547 1.447547
1.447547 1.447547 1.447547
1.447547 1.447547 1.447547
1.447547 1.447547 1.447547
1.447547 1.447547 1.447547
1.447547 1.447547 1.447547
1.447547 1.447547 1.447547
1.447547 1.447547 1.447547
1.447547 1.447547 1.447547
1.447547 1.447547 1.447547
1.447547 1.447547 1.447547
1.447547 1.447547 1.447547
1.447547 1.447547 1.447547
1.447547 1.447547 1.447547
1.447547 1.447547 1.447547
1.447547 1.447547 1.447547
1.447547 1.447547 1.447547
1.447547 1.447547 1.447547
1.447547 1.447547 1.447547
1.447547 1.447547 1.447547
1.447547 1.447547 1.447547
1.447547 1.447547 1.447547
1.447547 1.447547 1.447547
1.447547 1.447547 1.447547
1.447547 1.447547 1.447547
1.447547 1.447547 1.447547
1.447547 1.447547 1.447547
1.447547 1.447547 1.447547
1.447547 1.447547 1.447547
1.447547 1.447547 1.447547
1.447547 1.447547 1.447547
1.447547 1.447547 1.447547
1.447547 1.447547 1.447547
1.447547 1.447547 1.447547
1.447547 1.447547 1.447547
1.447547 1.447547 1.447547
1.447547 1.447547 1.447547
1.447547 1.447547 1.447547
1.447547 1.447547 1.447547
1.447547 1.447547 1.447547
1.447547 1.447547 1.447547
1.447547 1.447547 1.447547
1.447547 1.447547 1.447547
1.447547 1.447547 1.447547
1.447547 1.447547 1.447547
1.447547 1.447547 1.447547
1.447547 1.447547 1.447547
1.447547 1.447547 1.447547
1.447547 1.447547 1.447547
1.447547 1.447547 1.447547
1.447547 1.447547 1.447547
1.447547 1.447547 1.447547
1.447547 1.447547 1.447547
1.447547 1.447547 1.447547
1.447547 1.447547 1.447547
1.447547 1.447547 1.447547
1.447547 1.447547 1.447547
1.447547 1.447547 1.447547
1.447547 1.447547 1.447547
1.447547 1.447547 1.447547
1.447547 1.447547 1.447547
1.447547 1.447547 1.447547
1.447547 1.447547 1.447547
1.447547 1.447547 1.447547
1.447547 1.447547 1.447547
1.447547 1.447547 1.447547
1.447547 1.447547 1.447547
1.447547 1.447547 1.447547
1.447547 1.447547 1.447547
1.447547 1.447547 1.447547
1.447547 1.447547 1.447547
1.447547 1.447547 1.447547
1.447547 1.447547 1.447547
1.447547 1.447547 1.447547
1.447547 1.447547 1.447547
1.447547 1.447547 1.447547
1.447547 1.447547 1.447547
1.447547 1.447547 1.447547
1.447547 1.447547 1.447547
1.447547 1.447547 1.447547
1.447547 1.447547 1.447547
1.447547 1.447547 1.447547
1.447547 1.447547 1.447547
1.447547 1.447547 1.447547
1.447547 1.447547 1.447547
1.447547 1.447547 1.447547
1.447547 1.447547 1.447547
1.447547 1.447547 1.447547
1.447547 1.447547 1.447547
1.447547 1.447547 1.447547
1.447547 1.447547 1.447547
1.447547 1.447547 1.447547
1.447547 1.447547 1.447547
1.447547 1.447547 1.447547
1.447547 1.447547 1.447547
1.447547 1.447547 1.447547
1.447547 1.447547 1.447547
1.447547 1.447547 1.447547
1.447547 1.447547 1.447547
1.447547 1.447547 1.447547
1.447547 1.447547 1.447547
