OCIO/luts/ACES2_Output_v2.0.0/ACES2 Output v2.0.0 Rec2100 (P3D65 500nit Limited)_inverse.cube
TITLE "Generated by Foundry::LUT"
LUT_3D_SIZE 65
0.072906 0.072906 0.072906
0.132388 0.072589 0.073122
0.179696 0.071916 0.073214
0.212632 0.070869 0.073240
0.237860 0.069417 0.073205
0.258775 0.067541 0.073117
0.276914 0.065244 0.072984
0.293107 0.062551 0.072815
0.307858 0.059507 0.072623
0.321500 0.056166 0.072419
0.334270 0.052589 0.072214
0.346343 0.048830 0.072019
0.357859 0.044938 0.071843
0.368925 0.040949 0.071697
0.379635 0.036892 0.071589
0.390064 0.032786 0.071530
0.400274 0.028643 0.071534
0.410318 0.024476 0.071612
0.420243 0.020294 0.071782
0.430087 0.016105 0.072064
0.439881 0.011923 0.072479
0.449657 0.007761 0.073055
0.459439 0.003642 0.073824
0.469245 -0.000411 0.074825
0.479096 -0.004368 0.076101
0.489005 -0.008188 0.077705
0.498990 -0.011830 0.079699
0.509057 -0.015240 0.082153
0.519225 -0.018369 0.085153
0.529495 -0.021153 0.088792
0.539887 -0.023538 0.093184
0.550409 -0.025472 0.098457
0.561070 -0.026906 0.104760
0.571893 -0.027818 0.112270
0.582888 -0.028206 0.121190
0.594079 -0.028110 0.131764
0.605493 -0.027634 0.144289
0.617157 -0.026952 0.159028
0.629117 -0.026379 0.174314
0.641416 -0.026385 0.189428
0.654118 -0.027715 0.204470
0.667302 -0.031518 0.219549
0.681069 -0.039632 0.234795
0.695554 -0.055078 0.250368
0.710943 -0.082963 0.266470
0.727486 -0.132550 0.283358
0.745570 -0.221667 0.301403
0.765755 -0.387215 0.321110
0.789009 -0.715670 0.343324
0.817050 -1.441713 0.369477
0.853629 -3.392950 0.402577
0.909513 -11.339597 0.450832
1.062992 -207.957123 0.565212
1.447547 1.447547 1.447547
1.447547 1.447547 1.447547
1.447547 1.447547 1.447547
1.447547 1.447547 1.447547
1.447547 1.447547 1.447547
1.447547 1.447547 1.447547
1.447547 1.447547 1.447547
1.447547 1.447547 1.447547
1.447547 1.447547 1.447547
1.447547 1.447547 1.447547
1.447547 1.447547 1.447547
1.447547 1.447547 1.447547
0.073793 0.116033 0.073709
0.106040 0.106065 0.073868
0.159292 0.095422 0.074037
0.200312 0.089416 0.074435
0.228082 0.086563 0.075032
0.251743 0.082579 0.074791
0.511856 0.435183 -18.708937
0.288648 0.075755 0.074425
0.304486 0.071308 0.073998
0.318923 0.066730 0.073601
0.332286 0.062045 0.073237
0.344808 0.057292 0.072912
0.356665 0.052507 0.072628
0.367995 0.047718 0.072391
0.378908 0.042947 0.072208
0.389494 0.038206 0.072086
0.399827 0.033501 0.072034
0.409966 0.028838 0.072066
0.419966 0.024216 0.072195
0.429868 0.019640 0.072439
0.439709 0.015116 0.072822
0.449521 0.010654 0.073369
0.459331 0.006267 0.074111
0.469160 0.001976 0.075087
0.479028 -0.002189 0.076341
0.488952 -0.006196 0.077925
0.498948 -0.010004 0.079900
0.509024 -0.013563 0.082337
0.519199 -0.016825 0.085321
0.529475 -0.019729 0.088944
0.539872 -0.022219 0.093322
0.550397 -0.024245 0.098583
0.561061 -0.025770 0.104872
0.571887 -0.026753 0.112372
0.582883 -0.027210 0.121280
0.594075 -0.027166 0.131846
0.605491 -0.026742 0.144361
0.617155 -0.026114 0.159087
0.629116 -0.025569 0.174359
0.641415 -0.025613 0.189460
0.654117 -0.026964 0.204493
0.667302 -0.030785 0.219566
0.681069 -0.038908 0.234806
0.695555 -0.054332 0.250378
0.710943 -0.082229 0.266478
0.727486 -0.131772 0.283363
0.745571 -0.220840 0.301407
0.765756 -0.386379 0.321114
0.789010 -0.714679 0.343328
0.817052 -1.440567 0.369479
0.853631 -3.391483 0.402580
0.909517 -11.337642 0.450836
1.063011 -208.014832 0.565225
1.447547 1.447547 1.447547
1.447547 1.447547 1.447547
1.447547 1.447547 1.447547
1.447547 1.447547 1.447547
1.447547 1.447547 1.447547
1.447547 1.447547 1.447547
1.447547 1.447547 1.447547
1.447547 1.447547 1.447547
1.447547 1.447547 1.447547
1.447547 1.447547 1.447547
1.447547 1.447547 1.447547
1.447547 1.447547 1.447547
0.074326 0.153012 0.074306
0.093256 0.146084 0.074953
0.134413 0.134517 0.074923
0.183128 0.122841 0.075185
0.217697 0.113644 0.075541
0.243146 0.107387 0.076177
0.263488 0.103525 0.077014
0.280718 0.101487 0.078029
0.299982 0.090451 0.075651
0.362600 -0.082005 -0.003097
0.242195 0.212621 0.203330
0.340581 0.080414 0.076072
0.353323 0.073595 0.075338
0.365353 0.066876 0.074735
0.376820 0.060301 0.074253
0.387843 0.053899 0.073886
0.398521 0.047682 0.073633
0.408933 0.041652 0.073495
0.419147 0.035802 0.073480
0.429220 0.030128 0.073601
0.439195 0.024621 0.073876
0.449114 0.019284 0.074328
0.459008 0.014118 0.074987
0.468905 0.009132 0.075887
0.478827 0.004346 0.077072
0.488793 -0.000212 0.078593
0.498823 -0.004517 0.080510
0.508926 -0.008516 0.082894
0.519122 -0.012177 0.085827
0.529415 -0.015433 0.089405
0.539825 -0.018242 0.093740
0.550361 -0.020557 0.098960
0.561034 -0.022330 0.105212
0.571865 -0.023544 0.112677
0.582867 -0.024198 0.121554
0.594064 -0.024338 0.132089
0.605482 -0.024067 0.144576
0.617149 -0.023565 0.159270
0.629112 -0.023145 0.174491
0.641412 -0.023272 0.189558
0.654116 -0.024694 0.204565
0.667302 -0.028559 0.219619
0.681069 -0.036701 0.234846
0.695556 -0.052136 0.250407
0.710945 -0.079973 0.266500
0.727488 -0.129448 0.283381
0.745573 -0.218400 0.301421
0.765759 -0.383695 0.321125
0.789013 -0.711673 0.343338
0.817056 -1.437079 0.369488
0.853637 -3.387043 0.402590
0.909527 -11.331879 0.450847
1.063074 -208.204300 0.565268
1.447547 1.447547 1.447547
1.447547 1.447547 1.447547
1.447547 1.447547 1.447547
1.447547 1.447547 1.447547
1.447547 1.447547 1.447547
1.447547 1.447547 1.447547
1.447547 1.447547 1.447547
1.447547 1.447547 1.447547
1.447547 1.447547 1.447547
1.447547 1.447547 1.447547
1.447547 1.447547 1.447547
1.447547 1.447547 1.447547
0.074725 0.185716 0.074871
-0.215036 0.315771 -0.776180
0.118755 0.174449 0.076165
0.163973 0.164179 0.076219
0.203610 0.152339 0.076644
0.233369 0.141417 0.076958
0.256740 0.132782 0.077589
0.276021 0.126479 0.078467
0.292615 0.122210 0.079549
0.307409 0.119546 0.080777
0.321159 0.117432 0.081840
0.351435 0.038147 0.068391
1.134498 1.208104 -136050.640625
0.313412 0.209032 0.168227
0.373281 0.089617 0.078603
0.384996 0.080926 0.077647
0.396236 0.072490 0.076910
0.407104 0.064355 0.076375
0.417685 0.056545 0.076032
0.428053 0.049061 0.075878
0.438264 0.041902 0.075921
0.448372 0.035062 0.076173
0.458419 0.028537 0.076658
0.468436 0.022324 0.077405
0.478455 0.016435 0.078454
0.488498 0.010881 0.079852
0.498590 0.005685 0.081658
0.508743 0.000876 0.083939
0.518978 -0.003504 0.086779
0.529303 -0.007419 0.090269
0.539738 -0.010813 0.094523
0.550294 -0.013653 0.099667
0.560982 -0.015899 0.105849
0.571826 -0.017537 0.113249
0.582838 -0.018566 0.122066
0.594042 -0.019040 0.132544
0.605466 -0.019054 0.144980
0.617138 -0.018806 0.159609
0.629104 -0.018582 0.174741
0.641408 -0.018881 0.189741
0.654114 -0.020431 0.204699
0.667301 -0.024391 0.219718
0.681070 -0.032575 0.234919
0.695557 -0.048001 0.250462
0.710948 -0.075750 0.266542
0.727492 -0.125109 0.283413
0.745577 -0.213785 0.301446
0.765764 -0.378694 0.321148
0.789020 -0.706106 0.343356
0.817064 -1.430464 0.369506
0.853648 -3.378833 0.402607
0.909546 -11.321151 0.450869
1.063205 -208.602997 0.565360
1.447547 1.447547 1.447547
1.447547 1.447547 1.447547
1.447547 1.447547 1.447547
1.447547 1.447547 1.447547
1.447547 1.447547 1.447547
1.447547 1.447547 1.447547
1.447547 1.447547 1.447547
1.447547 1.447547 1.447547
1.447547 1.447547 1.447547
1.447547 1.447547 1.447547
1.447547 1.447547 1.447547
1.447547 1.447547 1.447547
0.075027 0.210778 0.075432
0.088413 0.207126 0.077863
0.110483 0.203392 0.077856
0.147025 0.197429 0.077622
0.189115 0.189377 0.077767
0.221709 0.180300 0.078360
0.247921 0.170833 0.078683
0.269539 0.161684 0.079259
0.287864 0.153588 0.080147
0.303902 0.147251 0.081259
0.318345 0.142630 0.082524
0.331649 0.139424 0.083908
0.344095 0.137503 0.085448
0.368055 0.067798 0.069308
0.445655 -0.264552 -0.859481
-0.004162 0.310252 0.344372
0.072906 0.072906 0.072906
0.404427 0.097681 0.081387
0.415512 0.087483 0.080421
0.426296 0.077675 0.079748
0.436849 0.068302 0.079356
0.447235 0.059383 0.079242
0.457508 0.050925 0.079415
0.467708 0.042933 0.079892
0.477874 0.035411 0.080704
0.488037 0.028367 0.081893
0.498224 0.021811 0.083512
0.508454 0.015773 0.085624
0.518751 0.010274 0.088309
0.529125 0.005350 0.091657
0.539599 0.001038 0.095779
0.550187 -0.002629 0.100802
0.560900 -0.005617 0.106871
0.571764 -0.007914 0.114166
0.582791 -0.009541 0.122885
0.594007 -0.010543 0.133274
0.605441 -0.011016 0.145628
0.617121 -0.011161 0.160151
0.629092 -0.011271 0.175138
0.641400 -0.011842 0.190033
0.654110 -0.013598 0.204914
0.667300 -0.017692 0.219876
0.681071 -0.025934 0.235037
0.695560 -0.041336 0.250550
0.710952 -0.068994 0.266608
0.727497 -0.118090 0.283465
0.745584 -0.206370 0.301487
0.765772 -0.370694 0.321181
0.789030 -0.697083 0.343386
0.817076 -1.419910 0.369533
0.853665 -3.365474 0.402635
0.909576 -11.303837 0.450906
1.063333 -208.957428 0.565437
1.447547 1.447547 1.447547
1.447547 1.447547 1.447547
1.447547 1.447547 1.447547
1.447547 1.447547 1.447547
1.447547 1.447547 1.447547
1.447547 1.447547 1.447547
1.447547 1.447547 1.447547
1.447547 1.447547 1.447547
1.447547 1.447547 1.447547
1.447547 1.447547 1.447547
1.447547 1.447547 1.447547
1.447547 1.447547 1.447547
0.075269 0.231573 0.076010
0.087009 0.228936 0.078467
-0.112163 0.282301 -0.050665
0.135835 0.222202 0.079559
0.175530 0.216991 0.079325
0.210063 0.210370 0.079558
0.238092 0.203022 0.080299
0.261634 0.195327 0.080693
0.281787 0.187615 0.081194
0.299279 0.180450 0.082046
0.314820 0.174137 0.083156
0.328954 0.168782 0.084433
0.342028 0.164525 0.085895
0.354363 0.161164 0.087423
0.366126 0.158715 0.089054
0.389333 0.069227 0.068142
0.455799 -0.381021 -0.563369
-0.421902 0.343992 0.397155
0.411747 -0.064603 0.065205
0.423970 0.116079 0.085667
0.434918 0.104657 0.084679
0.445664 0.093291 0.083961
0.456236 0.082466 0.083620
0.466683 0.072217 0.083659
0.477051 0.062569 0.084093
0.487378 0.053542 0.084952
0.497700 0.045150 0.086278
0.508038 0.037415 0.088129
0.518422 0.030362 0.090578
0.528866 0.024019 0.093712
0.539398 0.018409 0.097637
0.550030 0.013563 0.102479
0.560779 0.009508 0.108380
0.571672 0.006243 0.115519
0.582722 0.003761 0.124095
0.593956 0.002002 0.134352
0.605404 0.000857 0.146584
0.617095 0.000133 0.160944
0.629075 -0.000465 0.175723
0.641390 -0.001436 0.190462
0.654104 -0.003477 0.205230
0.667298 -0.007771 0.220110
0.681072 -0.016116 0.235210
0.695564 -0.031496 0.250680
0.710958 -0.058974 0.266707
0.727505 -0.107739 0.283541
0.745594 -0.195451 0.301549
0.765784 -0.358813 0.321232
0.789044 -0.683761 0.343430
0.817095 -1.404182 0.369575
0.853691 -3.345708 0.402677
0.909621 -11.278341 0.450957
1.063618 -209.822449 0.565634
1.447547 1.447547 1.447547
1.447547 1.447547 1.447547
1.447547 1.447547 1.447547
1.447547 1.447547 1.447547
1.447547 1.447547 1.447547
1.447547 1.447547 1.447547
1.447547 1.447547 1.447547
1.447547 1.447547 1.447547
1.447547 1.447547 1.447547
1.447547 1.447547 1.447547
1.447547 1.447547 1.447547
1.447547 1.447547 1.447547
0.075498 0.249652 0.076633
0.085467 0.247820 0.078798
0.105941 0.244563 0.082176
0.129353 0.242314 0.081850
0.164249 0.238918 0.081477
0.198924 0.234330 0.081261
0.228372 0.228711 0.081577
0.253213 0.222540 0.082440
0.274710 0.216077 0.082936
0.293636 0.209458 0.083371
0.310404 0.203095 0.084154
0.325503 0.197265 0.085231
0.339345 0.192128 0.086538
0.352243 0.187757 0.088021
0.364450 0.184118 0.089619
0.376153 0.181103 0.091273
0.387889 0.176194 0.091672
0.413089 0.036963 0.063678
0.488669 -0.457277 -1.669911
-0.245894 0.356363 0.398855
0.429923 -0.041882 0.061907
0.443740 0.136052 0.090435
0.454614 0.123478 0.089564
0.465337 0.111158 0.089071
0.475960 0.099026 0.088937
0.486498 0.087605 0.089302
0.496994 0.076937 0.090197
0.507474 0.067062 0.091666
0.517975 0.058004 0.093774
0.528514 0.049803 0.096599
0.539121 0.042479 0.100244
0.549815 0.036066 0.104828
0.560613 0.030573 0.110494
0.571545 0.026010 0.117415
0.582626 0.022354 0.125789
0.593886 0.019549 0.135861
0.605353 0.017488 0.147924
0.617059 0.015966 0.162042
0.629051 0.014709 0.176534
0.641375 0.013191 0.191062
0.654096 0.010726 0.205672
0.667296 0.006153 0.220436
0.681074 -0.002321 0.235452
0.695570 -0.017649 0.250861
0.710967 -0.044898 0.266845
0.727517 -0.093169 0.283648
0.745608 -0.180048 0.301634
0.765801 -0.342098 0.321303
0.789065 -0.665014 0.343492
0.817121 -1.382135 0.369632
0.853728 -3.318026 0.402736
0.909685 -11.242375 0.451032
1.063962 -210.844421 0.565861
1.447547 1.447547 1.447547
1.447547 1.447547 1.447547
1.447547 1.447547 1.447547
1.447547 1.447547 1.447547
1.447547 1.447547 1.447547
1.447547 1.447547 1.447547
1.447547 1.447547 1.447547
1.447547 1.447547 1.447547
1.447547 1.447547 1.447547
1.447547 1.447547 1.447547
1.447547 1.447547 1.447547
1.447547 1.447547 1.447547
0.075764 0.265860 0.077325
0.084324 0.264554 0.079231
0.105757 0.261374 0.084091
0.597404 0.786194 -659.275757
0.155879 0.257361 0.084020
0.189279 0.254201 0.083609
0.218950 0.250121 0.083421
0.244887 0.245249 0.083807
0.267387 0.239935 0.084768
0.287285 0.234377 0.085392
0.305186 0.228607 0.085771
0.321315 0.222932 0.086483
0.336012 0.217600 0.087538
0.349608 0.212733 0.088824
0.362365 0.208402 0.090291
0.374471 0.204684 0.091946
0.386113 0.201466 0.093670
0.397384 0.198817 0.095535
0.410493 0.182493 0.089415
0.439797 -0.064423 0.060154
0.580557 0.463792 -27.731936
0.314293 0.350226 0.359654
0.463017 -0.321809 0.038313
0.463814 0.157636 0.095724
0.474664 0.144075 0.095155
0.485383 0.131563 0.095254
0.496090 0.118305 0.095542
0.506747 0.105915 0.096476
0.517394 0.094453 0.098108
0.528053 0.083974 0.100507
0.538758 0.074516 0.103767
0.549532 0.066113 0.108001
0.560394 0.058794 0.113345
0.571377 0.052552 0.119971
0.582499 0.047378 0.128074
0.593791 0.043208 0.137896
0.605285 0.039937 0.149730
0.617010 0.037371 0.163501
0.629018 0.035211 0.177616
0.641355 0.032982 0.191863
0.654086 0.029964 0.206265
0.667293 0.025017 0.220875
0.681078 0.016394 0.235780
0.695578 0.001136 0.251107
0.710978 -0.025782 0.267032
0.727532 -0.073378 0.283794
0.745627 -0.159116 0.301750
0.765824 -0.319455 0.321399
0.789093 -0.639619 0.343576
0.817157 -1.352172 0.369710
0.853777 -3.280294 0.402816
0.909772 -11.193572 0.451132
1.064403 -212.145782 0.566146
1.447547 1.447547 1.447547
1.447547 1.447547 1.447547
1.447547 1.447547 1.447547
1.447547 1.447547 1.447547
1.447547 1.447547 1.447547
1.447547 1.447547 1.447547
1.447547 1.447547 1.447547
1.447547 1.447547 1.447547
1.447547 1.447547 1.447547
1.447547 1.447547 1.447547
1.447547 1.447547 1.447547
1.447547 1.447547 1.447547
0.076122 0.280715 0.078118
0.083540 0.279764 0.079798
0.104093 0.277108 0.084858
0.072906 0.072906 0.072906
0.142002 0.275268 0.081479
0.181636 0.271378 0.086377
0.210556 0.268452 0.085946
0.236744 0.264792 0.085785
0.260124 0.260499 0.086240
0.280840 0.255842 0.087284
0.299472 0.250976 0.088027
0.316502 0.245895 0.088402
0.332079 0.240804 0.089038
0.346426 0.235918 0.090032
0.359802 0.231359 0.091301
0.372411 0.227235 0.092824
0.384459 0.223498 0.094450
0.396055 0.220235 0.096254
0.407324 0.217391 0.098172
0.418351 0.214929 0.100196
0.434785 0.162381 0.078074
0.471242 -0.315519 0.034871
-17.894434 0.317882 0.688948
0.414742 0.323952 0.286541
0.504028 -0.795753 -0.717419
0.484237 0.177823 0.101677
0.495103 0.166151 0.101685
0.505878 0.154123 0.102566
0.516670 0.140891 0.103813
0.527473 0.127789 0.105644
0.538299 0.115812 0.108391
0.549171 0.105027 0.112161
0.560113 0.095471 0.117082
0.571162 0.087160 0.123320
0.582336 0.080093 0.131067
0.593669 0.074214 0.140563
0.605196 0.069412 0.152098
0.616948 0.065512 0.165377
0.628976 0.062218 0.179017
0.641329 0.059075 0.192905
0.654073 0.055341 0.207038
0.667290 0.049945 0.221450
0.681082 0.041095 0.236209
0.695588 0.025937 0.251429
0.710994 -0.000541 0.267278
0.727552 -0.047250 0.283985
0.745652 -0.131507 0.301903
0.765854 -0.289469 0.321526
0.789130 -0.605902 0.343687
0.817204 -1.312569 0.369813
0.853843 -3.230324 0.402922
0.909886 -11.128765 0.451265
1.065050 -214.110306 0.566575
1.447547 1.447547 1.447547
1.447547 1.447547 1.447547
1.447547 1.447547 1.447547
1.447547 1.447547 1.447547
1.447547 1.447547 1.447547
1.447547 1.447547 1.447547
1.447547 1.447547 1.447547
1.447547 1.447547 1.447547
1.447547 1.447547 1.447547
1.447547 1.447547 1.447547
1.447547 1.447547 1.447547
1.447547 1.447547 1.447547
0.076622 0.294560 0.079038
0.083081 0.293858 0.080515
0.101327 0.291866 0.084956
0.125415 0.289543 0.089820
0.294150 -0.116519 0.381614
0.176084 0.286752 0.089448
0.203614 0.284642 0.088927
0.229341 0.281936 0.088482
0.252978 0.278627 0.088359
0.274420 0.274801 0.088877
0.293740 0.270667 0.089985
0.311348 0.266353 0.090857
0.327646 0.261836 0.091258
0.342745 0.257245 0.091806
0.356784 0.252772 0.092746
0.369959 0.248539 0.094017
0.382461 0.244604 0.095515
0.394435 0.241017 0.097218
0.406016 0.237754 0.099042
0.417294 0.234837 0.101013
0.428354 0.232213 0.103086
0.439756 0.226792 0.102393
0.461834 0.055580 0.058012
0.513885 -0.872317 -0.542254
-0.907391 0.412101 0.463979
0.474040 0.189520 0.097878
0.557412 0.305331 -11.243904
0.505043 0.195499 0.108559
0.515964 0.185992 0.109493
0.526835 0.176732 0.111514
0.537736 0.166809 0.114315
0.548726 0.154147 0.117487
0.559765 0.141986 0.121865
0.570893 0.131228 0.127607
0.582131 0.121882 0.134899
0.593517 0.113919 0.143980
0.605084 0.107258 0.155135
0.616869 0.101709 0.167723
0.628923 0.097013 0.180780
0.641296 0.092720 0.194224
0.654056 0.088122 0.208022
0.667285 0.082138 0.222184
0.681087 0.073048 0.236758
0.695602 0.058021 0.251844
0.711015 0.032142 0.267594
0.727579 -0.013379 0.284231
0.745685 -0.095723 0.302100
0.765893 -0.250634 0.321689
0.789178 -0.562325 0.343830
0.817265 -1.261190 0.369945
0.853928 -3.165708 0.403058
0.910034 -11.044845 0.451438
1.065875 -216.641373 0.567118
1.447547 1.447547 1.447547
1.447547 1.447547 1.447547
1.447547 1.447547 1.447547
1.447547 1.447547 1.447547
1.447547 1.447547 1.447547
1.447547 1.447547 1.447547
1.447547 1.447547 1.447547
1.447547 1.447547 1.447547
1.447547 1.447547 1.447547
1.447547 1.447547 1.447547
1.447547 1.447547 1.447547
1.447547 1.447547 1.447547
0.077314 0.307634 0.080115
0.082961 0.307112 0.081413
0.099118 0.305614 0.085295
0.125714 0.303168 0.092085
0.147287 0.302002 0.093259
-0.002031 0.320707 0.049807
0.198257 0.299343 0.092249
0.223037 0.297343 0.091683
0.246388 0.294838 0.091240
0.268080 0.291830 0.091158
0.288011 0.288393 0.091728
0.306213 0.284689 0.092895
0.322987 0.280828 0.093878
0.338668 0.276782 0.094318
0.353345 0.272635 0.094835
0.367114 0.268539 0.095715
0.380118 0.264615 0.096967
0.392519 0.260914 0.098477
0.404450 0.257472 0.100192
0.416023 0.254285 0.102052
0.427318 0.251376 0.104077
0.438426 0.248657 0.106163
0.449394 0.246143 0.108378
0.463768 0.215892 0.087708
0.493258 -0.249556 0.048963
0.662928 0.586091 -104.082878
0.442284 0.363356 0.330788
0.525125 -0.818552 -0.035144
0.711630 0.671532 -323.812958
0.526263 0.211596 0.116779
0.537278 0.203960 0.119084
0.548293 0.196975 0.122756
0.559345 0.190840 0.127863
0.570566 0.181540 0.132984
0.581881 0.172343 0.139711
0.593329 0.163434 0.148272
0.604947 0.154970 0.158873
0.616772 0.147468 0.170584
0.628858 0.141082 0.182951
0.641256 0.135397 0.195860
0.654035 0.129749 0.209250
0.667280 0.123073 0.223104
0.681095 0.113715 0.237449
0.695620 0.098872 0.252366
0.711041 0.073783 0.267994
0.727613 0.029749 0.284543
0.745726 -0.050104 0.302351
0.765943 -0.201127 0.321898
0.789239 -0.506694 0.344011
0.817343 -1.195717 0.370115
0.854037 -3.083088 0.403234
0.910223 -10.937386 0.451656
1.066957 -220.026764 0.567830
1.447547 1.447547 1.447547
1.447547 1.447547 1.447547
1.447547 1.447547 1.447547
1.447547 1.447547 1.447547
1.447547 1.447547 1.447547
1.447547 1.447547 1.447547
1.447547 1.447547 1.447547
1.447547 1.447547 1.447547
1.447547 1.447547 1.447547
1.447547 1.447547 1.447547
1.447547 1.447547 1.447547
1.447547 1.447547 1.447547
0.078247 0.320115 0.081379
0.083200 0.319723 0.082518
0.097501 0.318592 0.085908
0.122297 0.316624 0.092212
0.147552 0.315035 0.096391
0.267815 0.254648 0.274842
0.191777 0.313517 0.092989
0.217966 0.311505 0.095253
0.240654 0.309616 0.094662
0.262173 0.307297 0.094228
0.282344 0.304551 0.094189
0.301068 0.301444 0.094807
0.318360 0.298105 0.096024
0.334447 0.294625 0.097108
0.349606 0.290980 0.097615
0.363920 0.287222 0.098106
0.377449 0.283475 0.098944
0.390309 0.279837 0.100153
0.402631 0.276364 0.101650
0.414524 0.273102 0.103405
0.426095 0.270037 0.105311
0.437419 0.267179 0.107378
0.448572 0.264480 0.109541
0.459593 0.261965 0.111882
0.470929 0.257067 0.111099
0.491125 0.098529 0.055167
0.534270 -1.027339 -0.258415
-2.622551 0.452682 0.521659
0.514307 0.079658 0.064682
0.581372 -1.880731 -3.794755
0.536791 0.233284 0.124252
0.547941 0.226723 0.126934
0.559099 0.220786 0.131190
0.570312 0.215759 0.137188
0.581608 0.211941 0.145133
0.593104 0.206109 0.153573
0.604781 0.199708 0.163272
0.616654 0.193804 0.173995
0.628779 0.188399 0.185565
0.641207 0.183363 0.197847
0.654011 0.178315 0.210752
0.667275 0.172467 0.224236
0.681105 0.164230 0.238303
0.695642 0.150197 0.253014
0.711074 0.126110 0.268492
0.727656 0.083993 0.284933
0.745778 0.007291 0.302665
0.766006 -0.138838 0.322159
0.789316 -0.436680 0.344240
0.817441 -1.113101 0.370328
0.854173 -2.979004 0.403453
0.910462 -10.801624 0.451933
1.068336 -224.487762 0.568674
1.447547 1.447547 1.447547
1.447547 1.447547 1.447547
1.447547 1.447547 1.447547
1.447547 1.447547 1.447547
1.447547 1.447547 1.447547
1.447547 1.447547 1.447547
1.447547 1.447547 1.447547
1.447547 1.447547 1.447547
1.447547 1.447547 1.447547
1.447547 1.447547 1.447547
1.447547 1.447547 1.447547
1.447547 1.447547 1.447547
0.079467 0.332137 0.082863
0.083832 0.331841 0.083864
0.096571 0.330977 0.086855
0.118931 0.329461 0.092371
0.147616 0.327650 0.098975
0.170497 0.326739 0.100185
0.217815 -7.910399 0.646405
0.214119 0.324783 0.099091
0.235902 0.323347 0.098483
0.256948 0.321568 0.097878
0.277022 0.319420 0.097464
0.295973 0.316907 0.097466
0.313718 0.314085 0.098137
0.330260 0.311062 0.099405
0.345776 0.307911 0.100573
0.360493 0.304615 0.101168
0.374494 0.301200 0.101636
0.387814 0.297772 0.102448
0.400548 0.294412 0.103634
0.412801 0.291175 0.105139
0.424673 0.288088 0.106884
0.436251 0.285165 0.108839
0.447614 0.282387 0.110932
0.458811 0.279765 0.113210
0.469906 0.277221 0.115565
0.480931 0.274743 0.118060
0.495473 0.242418 0.088097
0.523426 -0.347636 0.038150
0.638569 0.478567 -42.062309
0.495175 0.370417 0.311973
0.569841 -1.642069 -0.300187
0.678499 0.550190 -84.281288
0.558831 0.246521 0.134894
0.570143 0.241319 0.139876
0.581519 0.236946 0.146860
0.593004 0.233631 0.156094
0.604643 0.231562 0.167019
0.616515 0.228940 0.177974
0.628685 0.224495 0.188653
0.641150 0.220449 0.200219
0.653982 0.216600 0.212559
0.667270 0.212538 0.225608
0.681118 0.207420 0.239345
0.695670 0.199574 0.253809
0.711115 0.185049 0.269104
0.727709 0.151491 0.285414
0.745844 0.078740 0.303052
0.766085 -0.061199 0.322483
0.789412 -0.349398 0.344523
0.817563 -1.010200 0.370593
0.854343 -2.848988 0.403725
0.910759 -10.632061 0.452277
1.070060 -231.215576 0.568430
1.447547 1.447547 1.447547
1.447547 1.447547 1.447547
1.447547 1.447547 1.447547
1.447547 1.447547 1.447547
1.447547 1.447547 1.447547
1.447547 1.447547 1.447547
1.447547 1.447547 1.447547
1.447547 1.447547 1.447547
1.447547 1.447547 1.447547
1.447547 1.447547 1.447547
1.447547 1.447547 1.447547
1.447547 1.447547 1.447547
0.081026 0.343803 0.084601
0.084885 0.343579 0.085480
0.096237 0.342918 0.088115
0.116355 0.341750 0.092944
0.146103 0.340029 0.100498
0.170883 0.338952 0.103822
-0.026433 0.333028 0.046547
0.013302 0.353808 0.038573
0.232000 0.336356 0.102311
0.252529 0.334949 0.101971
0.272259 0.333279 0.101365
0.291164 0.331289 0.100968
0.309123 0.328985 0.101025
0.326062 0.326416 0.101741
0.341980 0.323669 0.103051
0.357017 0.320807 0.104298
0.371360 0.317818 0.104982
0.385088 0.314714 0.105470
0.398234 0.311570 0.106221
0.410859 0.308471 0.107388
0.423052 0.305468 0.108920
0.434912 0.302566 0.110667
0.446508 0.299792 0.112653
0.457910 0.297122 0.114781
0.469164 0.294571 0.117115
0.480328 0.292070 0.119544
0.491435 0.289611 0.122143
0.503323 0.281636 0.115688
0.523935 0.063173 0.040595
0.565846 -1.521556 -0.388385
