OCIO/luts/ACES2_Output_v2.0.0/ACES2 Output v2.0.0 Rec2100 (P3D65 1000nit Limited).cube
TITLE "Generated by Foundry::LUT"
LUT_3D_SIZE 5
0.000001 0.000001 0.000001
0.076396 0.021400 0.000001
0.412110 0.195293 0.094977
0.721385 0.446708 0.316450
0.744612 0.722298 0.711431
0.049434 0.093892 0.025528
0.117851 0.117870 0.019598
0.423469 0.202735 0.000001
0.721443 0.449960 0.316523
0.744612 0.722322 0.711455
0.289874 0.422047 0.225394
0.292469 0.425696 0.205089
0.442951 0.443365 0.141979
0.722417 0.495574 0.306550
0.744714 0.722792 0.711952
0.549087 0.712813 0.464784
0.549225 0.712981 0.463581
0.552014 0.716526 0.434501
0.709262 0.710441 0.309419
0.746649 0.731666 0.722114
0.741409 0.751078 0.735948
0.741412 0.751078 0.735948
0.741444 0.751078 0.735955
0.742109 0.751117 0.736108
0.751000 0.751617 0.734523
0.011903 0.005706 0.052155
0.093759 0.029631 0.092875
0.412702 0.196323 0.207116
0.721402 0.446437 0.338284
0.744711 0.722734 0.712096
0.061139 0.105500 0.105228
0.124923 0.124923 0.124923
0.422992 0.202905 0.187489
0.721460 0.449749 0.338331
0.744714 0.722755 0.712120
0.290886 0.421872 0.266794
0.293378 0.425386 0.256378
0.443372 0.443365 0.157713
0.722669 0.503095 0.345646
0.744812 0.723219 0.712608
0.549100 0.712722 0.469149
0.549232 0.712890 0.468026
0.551986 0.716374 0.441697
0.709302 0.710455 0.309427
0.746691 0.731831 0.722400
0.741423 0.751078 0.735969
0.741419 0.751078 0.735969
0.741458 0.751078 0.735979
0.742116 0.751117 0.736125
0.750997 0.751624 0.734529
0.161684 0.169464 0.360208
0.171262 0.104295 0.386407
0.427668 0.214833 0.425128
0.721695 0.443208 0.470553
0.746131 0.728947 0.721460
0.176985 0.211928 0.367680
0.180822 0.178018 0.395468
0.432487 0.218283 0.431189
0.721749 0.446517 0.470493
0.746131 0.728964 0.721473
0.310160 0.429541 0.429137
0.311933 0.431594 0.431328
0.444278 0.444278 0.444278
0.723731 0.522898 0.493167
0.746194 0.729246 0.721735
0.549987 0.712083 0.521812
0.550091 0.712228 0.521194
0.554319 0.715067 0.514307
0.705662 0.707784 0.511773
0.747360 0.734547 0.726996
0.741591 0.751092 0.736361
0.741591 0.751089 0.736361
0.741626 0.751092 0.736368
0.742273 0.751128 0.736507
0.751004 0.751624 0.734717
0.428274 0.451402 0.713856
0.428648 0.447672 0.715945
0.443294 0.319021 0.750023
0.726351 0.450420 0.724154
0.747205 0.732757 0.731372
0.429158 0.455259 0.713624
0.429521 0.451801 0.715651
0.440152 0.318368 0.750027
0.726355 0.450439 0.724284
0.747212 0.732799 0.731414
0.445909 0.508292 0.713035
0.446155 0.507043 0.714362
0.462790 0.476631 0.742280
0.725399 0.514565 0.722073
0.747378 0.733553 0.732156
0.561283 0.706506 0.706042
0.561342 0.706562 0.706109
0.563359 0.707216 0.706976
0.698121 0.698121 0.698121
0.748811 0.739868 0.737972
0.742189 0.751145 0.739243
0.742189 0.751152 0.739240
0.742242 0.751152 0.739271
0.743068 0.751202 0.739697
0.750912 0.751645 0.738041
0.715006 0.721119 0.751397
0.715067 0.721160 0.751397
0.716249 0.721971 0.751408
0.722908 0.724544 0.751429
0.749705 0.741990 0.749058
0.715030 0.721143 0.751393
0.715094 0.721187 0.751397
0.716273 0.721994 0.751411
0.722942 0.724585 0.751432
0.749708 0.741993 0.749058
0.715458 0.721610 0.751404
0.715519 0.721654 0.751404
0.716678 0.722444 0.751411
0.723642 0.725358 0.751443
0.749726 0.742081 0.749079
0.722257 0.729012 0.751503
0.722291 0.729036 0.751500
0.723021 0.729473 0.751507
0.730927 0.733698 0.751560
0.749956 0.743209 0.749387
0.741664 0.751230 0.751053
0.741668 0.751227 0.751060
0.741696 0.751227 0.751053
0.742406 0.751159 0.750965
0.749984 0.749981 0.749984
