OCIO/luts/ACES2_Output_v2.0.0/ACES2 Output v2.0.0 Rec2100 (P3D65 1000nit Limited).cube
TITLE "Generated by Foundry::LUT"
LUT_3D_SIZE 65
0.000001 0.000001 0.000001
0.000001 0.000001 0.000001
0.000001 0.000001 0.000001
0.000001 0.000001 0.000001
0.000001 0.000001 0.000001
0.000708 0.000144 0.000001
0.004537 0.000882 0.000001
0.009262 0.001872 0.000001
0.014292 0.003007 0.000001
0.019417 0.004237 0.000001
0.024543 0.005532 0.000001
0.030192 0.007028 0.000001
0.036888 0.008885 0.000001
0.044750 0.011173 0.000001
0.053891 0.013968 0.000001
0.064411 0.017349 0.000001
0.076396 0.021400 0.000001
0.089905 0.026204 0.000001
0.104964 0.031837 0.000001
0.121567 0.038367 0.000001
0.138811 0.045488 0.003061
0.158006 0.053791 0.006257
0.178372 0.063018 0.010357
0.199798 0.073169 0.015215
0.222110 0.084201 0.020891
0.245119 0.096056 0.027420
0.268636 0.108655 0.034810
0.292487 0.121911 0.043039
0.316512 0.135744 0.052070
0.340576 0.150065 0.061845
0.364580 0.164806 0.072303
0.388443 0.179899 0.083371
0.412110 0.195293 0.094977
0.435544 0.210945 0.107041
0.458723 0.226817 0.119479
0.481615 0.242872 0.132203
0.504201 0.259074 0.145116
0.526461 0.275385 0.158114
0.548027 0.291512 0.170305
0.569065 0.307548 0.181898
0.589733 0.323586 0.193232
0.609990 0.339581 0.204257
0.629796 0.355482 0.214923
0.649106 0.371232 0.225161
0.667857 0.386751 0.234922
0.685986 0.401965 0.244142
0.703421 0.416800 0.252762
0.719155 0.430366 0.266209
0.721385 0.446708 0.316450
0.722168 0.482321 0.369079
0.722980 0.509795 0.408809
0.723823 0.532168 0.440936
0.724701 0.551393 0.468475
0.725622 0.568516 0.492971
0.726612 0.584260 0.515466
0.727706 0.599431 0.537160
0.728937 0.614280 0.558397
0.730321 0.628992 0.579436
0.731897 0.643723 0.600484
0.733698 0.658484 0.621537
0.735723 0.673121 0.642350
0.737930 0.687289 0.662409
0.740266 0.700660 0.681241
0.742546 0.712473 0.697769
0.744612 0.722298 0.711431
0.000001 0.000001 0.000001
0.000001 0.000001 0.000001
0.000001 0.000001 0.000001
0.000001 0.000001 0.000001
0.000001 0.000001 0.000001
0.000708 0.000144 0.000001
0.004537 0.000882 0.000001
0.009262 0.001872 0.000001
0.014292 0.003007 0.000001
0.019417 0.004237 0.000001
0.024543 0.005532 0.000001
0.030192 0.007028 0.000001
0.036888 0.008885 0.000001
0.044750 0.011173 0.000001
0.053891 0.013968 0.000001
0.064411 0.017349 0.000001
0.076396 0.021400 0.000001
0.089905 0.026204 0.000001
0.104964 0.031837 0.000001
0.121567 0.038367 0.000001
0.138811 0.045488 0.003061
0.158006 0.053791 0.006257
0.178372 0.063018 0.010357
0.199798 0.073169 0.015215
0.222110 0.084201 0.020891
0.245119 0.096056 0.027420
0.268636 0.108655 0.034810
0.292487 0.121911 0.043039
0.316512 0.135744 0.052070
0.340576 0.150065 0.061845
0.364580 0.164806 0.072303
0.388443 0.179899 0.083371
0.412110 0.195293 0.094976
0.435544 0.210945 0.107041
0.458723 0.226817 0.119480
0.481615 0.242872 0.132203
0.504201 0.259074 0.145116
0.526461 0.275385 0.158114
0.548027 0.291512 0.170305
0.569065 0.307548 0.181898
0.589733 0.323587 0.193232
0.609990 0.339581 0.204257
0.629796 0.355482 0.214923
0.649106 0.371232 0.225161
0.667857 0.386751 0.234922
0.685986 0.401970 0.244141
0.703417 0.416800 0.252762
0.719155 0.430366 0.266208
0.721385 0.446708 0.316450
0.722168 0.482321 0.369079
0.722980 0.509795 0.408809
0.723823 0.532168 0.440940
0.724701 0.551393 0.468475
0.725622 0.568516 0.492971
0.726612 0.584260 0.515466
0.727706 0.599431 0.537160
0.728937 0.614280 0.558397
0.730321 0.628992 0.579436
0.731897 0.643723 0.600484
0.733698 0.658484 0.621537
0.735723 0.673124 0.642344
0.737930 0.687289 0.662409
0.740266 0.700660 0.681241
0.742546 0.712473 0.697769
0.744612 0.722294 0.711431
0.000001 0.000001 0.000001
0.000001 0.000001 0.000001
0.000001 0.000001 0.000001
0.000001 0.000001 0.000001
0.000001 0.000001 0.000001
0.000708 0.000144 0.000001
0.004537 0.000882 0.000001
0.009262 0.001872 0.000001
0.014292 0.003007 0.000001
0.019417 0.004237 0.000001
0.024543 0.005532 0.000001
0.030192 0.007028 0.000001
0.036888 0.008885 0.000001
0.044750 0.011173 0.000001
0.053891 0.013968 0.000001
0.064411 0.017349 0.000001
0.076396 0.021400 0.000001
0.089905 0.026204 0.000001
0.104964 0.031837 0.000001
0.121567 0.038367 0.000001
0.138811 0.045488 0.003061
0.158006 0.053791 0.006257
0.178372 0.063018 0.010357
0.199798 0.073169 0.015215
0.222110 0.084201 0.020891
0.245119 0.096056 0.027420
0.268636 0.108655 0.034810
0.292487 0.121911 0.043039
0.316512 0.135744 0.052070
0.340576 0.150065 0.061845
0.364580 0.164806 0.072303
0.388443 0.179899 0.083371
0.412110 0.195293 0.094977
0.435544 0.210945 0.107041
0.458723 0.226817 0.119480
0.481615 0.242872 0.132203
0.504201 0.259074 0.145116
0.526461 0.275385 0.158114
0.548027 0.291512 0.170305
0.569065 0.307548 0.181898
0.589733 0.323587 0.193232
0.609990 0.339581 0.204257
0.629796 0.355482 0.214923
0.649106 0.371232 0.225161
0.667857 0.386751 0.234922
0.685986 0.401970 0.244141
0.703417 0.416800 0.252762
0.719155 0.430366 0.266208
0.721385 0.446708 0.316450
0.722168 0.482321 0.369079
0.722980 0.509795 0.408809
0.723823 0.532168 0.440936
0.724701 0.551393 0.468475
0.725622 0.568516 0.492971
0.726612 0.584260 0.515466
0.727710 0.599434 0.537160
0.728937 0.614280 0.558397
0.730321 0.628992 0.579436
0.731897 0.643723 0.600484
0.733698 0.658484 0.621537
0.735723 0.673124 0.642344
0.737930 0.687289 0.662406
0.740266 0.700667 0.681241
0.742546 0.712473 0.697769
0.744612 0.722298 0.711431
0.000001 0.000001 0.000001
0.000001 0.000001 0.000001
0.000001 0.000001 0.000001
0.000001 0.000001 0.000001
0.000001 0.000001 0.000001
0.000708 0.000144 0.000001
0.004537 0.000882 0.000001
0.009262 0.001872 0.000001
0.014292 0.003007 0.000001
0.019417 0.004237 0.000001
0.024543 0.005532 0.000001
0.030192 0.007028 0.000001
0.036888 0.008885 0.000001
0.044750 0.011173 0.000001
0.053891 0.013968 0.000001
0.064411 0.017349 0.000001
0.076396 0.021400 0.000001
0.089905 0.026204 0.000001
0.104964 0.031837 0.000001
0.121567 0.038367 0.000001
0.138811 0.045488 0.003061
0.158006 0.053791 0.006257
0.178372 0.063018 0.010357
0.199798 0.073169 0.015215
0.222110 0.084201 0.020891
0.245119 0.096056 0.027420
0.268636 0.108655 0.034810
0.292487 0.121911 0.043039
0.316512 0.135744 0.052070
0.340576 0.150065 0.061845
0.364580 0.164806 0.072303
0.388443 0.179899 0.083371
0.412110 0.195293 0.094976
0.435544 0.210945 0.107041
0.458723 0.226817 0.119480
0.481615 0.242872 0.132203
0.504201 0.259074 0.145116
0.526461 0.275385 0.158114
0.548027 0.291512 0.170305
0.569065 0.307548 0.181898
0.589733 0.323587 0.193232
0.609990 0.339581 0.204257
0.629796 0.355484 0.214924
0.649106 0.371228 0.225163
0.667857 0.386751 0.234922
0.685986 0.401970 0.244141
0.703417 0.416800 0.252762
0.719155 0.430366 0.266209
0.721385 0.446708 0.316450
0.722168 0.482321 0.369079
0.722980 0.509795 0.408809
0.723823 0.532168 0.440940
0.724701 0.551393 0.468475
0.725622 0.568516 0.492971
0.726612 0.584260 0.515466
0.727706 0.599431 0.537160
0.728937 0.614280 0.558397
0.730321 0.628992 0.579436
0.731897 0.643723 0.600484
0.733698 0.658484 0.621537
0.735723 0.673124 0.642344
0.737930 0.687289 0.662406
0.740266 0.700660 0.681241
0.742546 0.712473 0.697769
0.744612 0.722298 0.711431
0.000001 0.000001 0.000001
0.000001 0.000001 0.000001
0.000001 0.000001 0.000001
0.000001 0.000001 0.000001
0.000001 0.000001 0.000001
0.000708 0.000144 0.000001
0.004537 0.000882 0.000001
0.009262 0.001872 0.000001
0.014292 0.003007 0.000001
0.019417 0.004237 0.000001
0.024543 0.005532 0.000001
0.030192 0.007028 0.000001
0.036888 0.008885 0.000001
0.044750 0.011173 0.000001
0.053891 0.013968 0.000001
0.064411 0.017349 0.000001
0.076396 0.021400 0.000001
0.089905 0.026204 0.000001
0.104964 0.031837 0.000001
0.121567 0.038367 0.000001
0.138811 0.045488 0.003061
0.158006 0.053791 0.006257
0.178372 0.063018 0.010357
0.199797 0.073167 0.015215
0.222110 0.084201 0.020891
0.245119 0.096056 0.027420
0.268636 0.108655 0.034810
0.292487 0.121911 0.043039
0.316512 0.135744 0.052070
0.340576 0.150065 0.061845
0.364580 0.164806 0.072303
0.388443 0.179899 0.083371
0.412110 0.195293 0.094976
0.435544 0.210945 0.107041
0.458723 0.226817 0.119479
0.481615 0.242872 0.132203
0.504201 0.259074 0.145116
0.526461 0.275385 0.158114
0.548027 0.291512 0.170305
0.569065 0.307548 0.181898
0.589733 0.323586 0.193232
0.609990 0.339581 0.204257
0.629796 0.355484 0.214924
0.649106 0.371232 0.225161
0.667857 0.386751 0.234922
0.685986 0.401965 0.244142
0.703417 0.416800 0.252762
0.719155 0.430366 0.266209
0.721385 0.446708 0.316450
0.722168 0.482321 0.369079
0.722980 0.509795 0.408809
0.723823 0.532168 0.440940
0.724701 0.551393 0.468475
0.725622 0.568516 0.492971
0.726612 0.584260 0.515466
0.727706 0.599431 0.537160
0.728937 0.614277 0.558397
0.730321 0.628992 0.579436
0.731897 0.643723 0.600484
0.733698 0.658484 0.621537
0.735723 0.673124 0.642344
0.737930 0.687289 0.662409
0.740266 0.700660 0.681241
0.742546 0.712473 0.697769
0.744612 0.722294 0.711431
0.000431 0.001072 0.000112
0.000431 0.001072 0.000112
0.000431 0.001072 0.000112
0.000431 0.001072 0.000112
0.000431 0.001072 0.000112
0.001536 0.001535 0.000145
0.005993 0.002690 0.000165
0.010934 0.003674 0.000001
0.016057 0.004566 0.000001
0.021224 0.005395 0.000001
0.026368 0.006176 0.000001
0.032046 0.007533 0.000001
0.038775 0.009424 0.000001
0.046668 0.011748 0.000001
0.055839 0.014581 0.000001
0.066392 0.018004 0.000001
0.078405 0.022099 0.000001
0.091838 0.026911 0.000001
0.106774 0.032533 0.000001
0.123236 0.039040 0.000001
0.140733 0.046295 0.000001
0.159680 0.054526 0.000001
0.179828 0.063687 0.000001
0.201053 0.073770 0.008868
0.223181 0.084737 0.015987
0.246029 0.096527 0.023389
0.269401 0.109065 0.031415
0.293123 0.122266 0.040152
0.317036 0.136047 0.049603
0.341006 0.150323 0.059737
0.364932 0.165022 0.070501
0.388729 0.180079 0.081833
0.412341 0.195444 0.093665
0.435736 0.211072 0.105925
0.458875 0.226921 0.118533
0.481741 0.242961 0.131401
0.504306 0.259146 0.144436
0.526541 0.275446 0.157536
0.548094 0.291565 0.169809
0.569125 0.307595 0.181474
0.589781 0.323626 0.192868
0.610031 0.339618 0.203947
0.629837 0.355513 0.214657
0.649139 0.371258 0.224931
0.667889 0.386774 0.234720
0.686012 0.401989 0.243967
0.703441 0.416821 0.252612
0.719172 0.430376 0.266117
0.721388 0.446774 0.316452
0.722172 0.482360 0.369086
0.722987 0.509829 0.408815
0.723826 0.532188 0.440943
0.724701 0.551406 0.468477
0.725625 0.568532 0.492975
0.726612 0.584268 0.515473
0.727706 0.599443 0.537165
0.728933 0.614286 0.558399
0.730321 0.628998 0.579441
0.731900 0.643730 0.600487
0.733698 0.658487 0.621537
0.735723 0.673124 0.642350
0.737937 0.687293 0.662409
0.740266 0.700667 0.681244
0.742546 0.712476 0.697769
0.744612 0.722298 0.711431
0.002675 0.006521 0.000644
0.002675 0.006521 0.000644
0.002675 0.006521 0.000644
0.002675 0.006521 0.000644
0.002675 0.006521 0.000644
0.003271 0.007434 0.000738
0.009413 0.009409 0.000884
0.015036 0.011143 0.000980
0.020501 0.012715 0.001033
0.025841 0.014166 0.001045
0.031060 0.015521 0.001013
0.036731 0.016939 0.000919
0.043384 0.018545 0.000699
0.051141 0.020355 0.000001
0.060117 0.022385 0.000001
0.070418 0.024647 0.000001
0.082131 0.027157 0.000001
0.095331 0.029915 0.000001
0.110075 0.033812 0.000001
0.126406 0.040329 0.000001
0.144221 0.047781 0.000001
0.163427 0.056196 0.000001
0.183930 0.065595 0.000001
0.204717 0.075541 0.000001
0.226308 0.086304 0.000001
0.248685 0.097911 0.000001
0.271637 0.110274 0.016789
0.294989 0.123310 0.029321
0.318582 0.136940 0.040981
0.342281 0.151081 0.052678
0.365974 0.165661 0.064643
0.389581 0.180617 0.076940
0.413039 0.195895 0.089559
0.436304 0.211448 0.102468
0.459339 0.227235 0.115618
0.482118 0.243221 0.128942
0.504612 0.259365 0.142360
0.526797 0.275628 0.155783
0.548305 0.291716 0.168305
0.569300 0.307728 0.180193
0.589937 0.323743 0.191774
0.610163 0.339722 0.203010
0.629953 0.355607 0.213842
0.649241 0.371341 0.224229
0.667974 0.386844 0.234116
0.686086 0.402054 0.243447
0.703507 0.416873 0.252161
0.719209 0.430409 0.265841
0.721388 0.446969 0.316453
0.722168 0.482491 0.369098
0.722987 0.509914 0.408831
0.723826 0.532249 0.440957
0.724705 0.551453 0.468497
0.725632 0.568565 0.492989
0.726619 0.584295 0.515483
0.727710 0.599463 0.537180
0.728933 0.614303 0.558418
0.730324 0.629013 0.579452
0.731900 0.643739 0.600496
0.733698 0.658496 0.621546
0.735726 0.673130 0.642353
0.737930 0.687299 0.662412
0.740266 0.700667 0.681244
0.742550 0.712476 0.697775
0.744612 0.722298 0.711431
0.005525 0.012966 0.001353
0.005525 0.012966 0.001353
0.005525 0.012966 0.001353
0.005525 0.012966 0.001353
0.005525 0.012966 0.001353
0.006098 0.014222 0.001500
0.012141 0.016392 0.001707
0.018378 0.018374 0.001865
0.024174 0.020191 0.001990
0.029701 0.021878 0.002083
0.035025 0.023458 0.002147
0.040750 0.025113 0.002185
0.047415 0.026988 0.002183
0.055135 0.029099 0.002110
0.064024 0.031464 0.001904
0.074188 0.034095 0.001428
0.085723 0.037000 0.000001
0.098697 0.040185 0.000001
0.113158 0.043642 0.000001
0.129108 0.047377 0.000001
0.146529 0.051349 0.000001
0.165386 0.057076 0.000001
0.185608 0.066382 0.000001
0.206973 0.076646 0.000001
0.229288 0.087823 0.000001
0.251312 0.099294 0.000001
0.273829 0.111463 0.000001
0.296806 0.124330 0.007199
0.320095 0.137816 0.029008
0.343530 0.151827 0.043966
0.367001 0.166293 0.057847
0.390423 0.181150 0.071469
0.413731 0.196341 0.085084
0.436864 0.211820 0.098776
0.459795 0.227546 0.112553
0.482491 0.243481 0.126388
0.504918 0.259583 0.140224
0.527047 0.275810 0.153992
0.548507 0.291868 0.166776
0.569483 0.307860 0.178890
0.590088 0.323862 0.190659
0.610299 0.339827 0.202050
0.630067 0.355700 0.213018
0.649342 0.371424 0.223522
0.668062 0.386918 0.233510
0.686167 0.402119 0.242923
0.703567 0.416926 0.251706
0.719250 0.430442 0.265564
0.721395 0.447166 0.316456
0.722172 0.482616 0.369112
0.722990 0.509998 0.408844
0.723826 0.532309 0.440972
0.724705 0.551497 0.468506
0.725628 0.568600 0.492999
0.726619 0.584323 0.515495
0.727713 0.599485 0.537190
0.728940 0.614321 0.558423
0.730321 0.629031 0.579463
0.731907 0.643748 0.600507
0.733705 0.658503 0.621552
0.735723 0.673137 0.642362
0.737937 0.687302 0.662412
0.740269 0.700673 0.681250
0.742546 0.712480 0.697772
0.744612 0.722298 0.711435
0.008629 0.019619 0.002527
0.008629 0.019619 0.002527
0.008629 0.019619 0.002527
0.008629 0.019619 0.002527
0.008629 0.019619 0.002527
0.009376 0.021194 0.002368
0.014475 0.023385 0.002616
0.021263 0.025455 0.002813
0.027372 0.027369 0.002979
0.033084 0.029157 0.003118
0.038517 0.030839 0.003232
0.044308 0.032607 0.003332
0.051002 0.034614 0.003414
0.058711 0.036877 0.003461
0.067546 0.039414 0.003440
0.077613 0.042238 0.003299
0.089004 0.045358 0.002937
0.101798 0.048774 0.002110
0.116040 0.052486 0.000001
0.131747 0.056481 0.000001
0.148906 0.060724 0.000001
0.167444 0.065205 0.000001
0.187274 0.069860 0.000001
0.208317 0.077306 0.000001
0.230414 0.088398 0.000001
0.253316 0.100359 0.000001
0.276027 0.112670 0.000001
0.298643 0.125365 0.000001
0.321600 0.138690 0.000001
0.344755 0.152561 0.032103
0.368012 0.166916 0.049692
0.391256 0.181676 0.065289
0.414410 0.196782 0.080199
0.437420 0.212192 0.094828
0.460253 0.227858 0.109319
0.482864 0.243741 0.123714
0.505225 0.259800 0.138002
0.527299 0.275993 0.152134
0.548718 0.292023 0.165197
0.569664 0.307997 0.177550
0.590244 0.323983 0.189520
0.610438 0.339934 0.201078
0.630186 0.355794 0.212188
0.649446 0.371507 0.222811
0.668151 0.386992 0.232897
0.686242 0.402177 0.242396
0.703633 0.416982 0.251253
0.719287 0.430475 0.265287
0.721395 0.447362 0.316458
0.722178 0.482747 0.369125
0.722990 0.510083 0.408852
0.723833 0.532370 0.440987
0.724708 0.551547 0.468522
0.725632 0.568635 0.493013
0.726619 0.584348 0.515505
0.727713 0.599508 0.537206
0.728940 0.614338 0.558439
0.730324 0.629040 0.579474
0.731904 0.643760 0.600516
0.733705 0.658515 0.621561
0.735726 0.673143 0.642365
0.737933 0.687309 0.662422
0.740269 0.700680 0.681254
0.742546 0.712480 0.697782
0.744612 0.722298 0.711435
0.011847 0.026240 0.003900
0.011847 0.026240 0.003900
0.011847 0.026240 0.003900
0.011847 0.026240 0.003900
0.011847 0.026240 0.003900
0.012588 0.027763 0.003258
0.016533 0.030260 0.003586
0.023825 0.032348 0.003808
0.030223 0.034291 0.004002
0.036116 0.036115 0.004172
0.041660 0.037837 0.004318
0.047522 0.039654 0.004457
0.054253 0.041722 0.004592
0.061965 0.044060 0.004710
0.070765 0.046686 0.004788
0.080758 0.049612 0.004791
0.092036 0.052849 0.004661
0.104677 0.056396 0.004293
0.118732 0.060254 0.003464
0.134228 0.064403 0.001330
0.151148 0.068816 0.000001
0.169439 0.073468 0.000001
0.189018 0.078297 0.000001
0.209746 0.083278 0.000001
0.231489 0.088950 0.000001
0.254196 0.100828 0.000001
0.277527 0.113500 0.000001
0.300456 0.126401 0.000001
0.323113 0.139572 0.000001
0.346008 0.153311 0.000001
0.369021 0.167537 0.038768
0.392073 0.182193 0.058111
0.415082 0.197219 0.074806
0.437975 0.212558 0.090592
0.460701 0.228165 0.105913
0.483233 0.243998 0.120935
0.505529 0.260017 0.135711
0.527549 0.276175 0.150232
0.548926 0.292178 0.163586
0.569839 0.308132 0.176190
0.590403 0.324102 0.188366
0.610573 0.340038 0.200096
0.630302 0.355887 0.211350
0.649551 0.371583 0.222093
0.668239 0.387062 0.232281
0.686313 0.402244 0.241867
0.703700 0.417033 0.250796
0.719328 0.430507 0.265011
0.721395 0.447559 0.316461
0.722182 0.482873 0.369139
0.722993 0.510172 0.408866
0.723833 0.532435 0.440997
0.724708 0.551591 0.468533
0.725632 0.568667 0.493024
0.726619 0.584378 0.515520
0.727713 0.599534 0.537223
0.728940 0.614356 0.558452
0.730324 0.629055 0.579482
0.731907 0.643772 0.600521
0.733705 0.658521 0.621570
0.735726 0.673149 0.642371
0.737933 0.687312 0.662425
0.740269 0.700680 0.681257
0.742550 0.712480 0.697782
0.744612 0.722305 0.711435
0.015110 0.032735 0.005416
0.015110 0.032735 0.005416
0.015110 0.032735 0.005416
0.015110 0.032735 0.005416
0.015110 0.032735 0.005416
0.015842 0.034215 0.004193
0.018383 0.036964 0.004599
0.026139 0.039034 0.004838
0.032807 0.040971 0.005052
0.038870 0.042796 0.005243
0.044524 0.044525 0.005412
0.050461 0.046354 0.005579
0.057237 0.048442 0.005750
0.064959 0.050809 0.005916
0.073737 0.053474 0.006060
0.083672 0.056449 0.006154
0.094857 0.059744 0.006157
0.107369 0.063361 0.005998
0.121262 0.067298 0.005554
0.136568 0.071534 0.004565
0.153276 0.076049 0.002154
0.171339 0.080810 0.000001
0.190683 0.085759 0.000001
0.211185 0.090837 0.000001
0.232693 0.096004 0.000001
0.255041 0.101280 0.000001
0.278211 0.113878 0.000001
0.301847 0.127197 0.000001
0.324607 0.140455 0.000001
0.347253 0.154058 0.000001
0.370053 0.168174 0.018393
0.392906 0.182720 0.048785
0.415747 0.197653 0.068740
0.438516 0.212920 0.086010
0.461152 0.228470 0.102310
0.483604 0.244253 0.118036
0.505831 0.260232 0.133346
0.527802 0.276357 0.148283
0.549131 0.292331 0.161943
0.570022 0.308266 0.174807
0.590557 0.324221 0.187197
0.610706 0.340145 0.199103
0.630421 0.355980 0.210504
0.649649 0.371670 0.221370
0.668331 0.387135 0.231661
0.686388 0.402301 0.241333
0.703763 0.417089 0.250337
0.719362 0.430540 0.264736
0.721402 0.447755 0.316464
0.722182 0.482999 0.369153
0.722997 0.510257 0.408877
0.723833 0.532496 0.441012
0.724711 0.551636 0.468546
0.725632 0.568707 0.493041
0.726619 0.584406 0.515534
0.727717 0.599556 0.537234
0.728943 0.614376 0.558463
0.730324 0.629072 0.579494
0.731907 0.643784 0.600535
0.733705 0.658528 0.621573
0.735726 0.673156 0.642380
0.737937 0.687315 0.662431
0.740269 0.700680 0.681260
0.742546 0.712486 0.697788
0.744612 0.722305 0.711441
0.018748 0.039771 0.007224
0.018748 0.039771 0.007224
0.018748 0.039771 0.007224
0.018748 0.039771 0.007224
0.018748 0.039771 0.007224
0.019459 0.041195 0.005270
0.021056 0.044220 0.005757
0.028482 0.046228 0.006014
0.035431 0.048135 0.006243
0.041674 0.049939 0.006451
0.047446 0.051653 0.006639
0.053466 0.053470 0.006827
0.060298 0.055550 0.007027
0.068043 0.057917 0.007232
0.076805 0.060588 0.007427
0.086689 0.063577 0.007592
0.097786 0.066894 0.007694
0.110172 0.070542 0.007680
0.123910 0.074517 0.007465
0.139024 0.078804 0.006898
0.155520 0.083375 0.005663
0.173357 0.088195 0.002676
0.192456 0.093225 0.000001
0.212720 0.098390 0.000001
0.233999 0.103626 0.000001
0.256128 0.108888 0.000001
0.278945 0.114285 0.000001
0.302433 0.127533 0.000001
0.326247 0.141424 0.000001
0.348624 0.154893 0.000001
0.371193 0.168877 0.000001
0.393848 0.183319 0.032912
0.416507 0.198147 0.060169
0.439118 0.213321 0.080398
0.461647 0.228808 0.098026
0.484010 0.244540 0.114654
0.506169 0.260470 0.130617
0.528074 0.276558 0.146053
0.549365 0.292500 0.160073
0.570222 0.308417 0.173237
0.590733 0.324353 0.185874
0.610856 0.340261 0.197984
0.630549 0.356083 0.209553
0.649762 0.371762 0.220557
0.668425 0.387216 0.230966
0.686475 0.402374 0.240735
0.703836 0.417152 0.249821
0.719406 0.430575 0.264429
0.721405 0.447976 0.316468
0.722185 0.483139 0.369165
0.722997 0.510349 0.408897
0.723840 0.532564 0.441024
0.724715 0.551690 0.468562
0.725635 0.568748 0.493052
0.726626 0.584436 0.515544
0.727717 0.599582 0.537249
0.728940 0.614396 0.558476
0.730331 0.629084 0.579504
0.731907 0.643796 0.600541
0.733705 0.658537 0.621584
0.735726 0.673162 0.642383
0.737937 0.687322 0.662431
0.740269 0.700690 0.681266
0.742550 0.712490 0.697788
0.744612 0.722305 0.711441
0.023105 0.047966 0.009523
0.023105 0.047966 0.009523
0.023105 0.047966 0.009524
0.023105 0.047966 0.009524
0.023105 0.047966 0.009524
0.023790 0.049328 0.006679
0.025609 0.052686 0.007181
0.031045 0.054571 0.007461
0.038310 0.056424 0.007702
0.044757 0.058184 0.007924
0.050665 0.059863 0.008127
0.056785 0.061646 0.008334
0.063687 0.063693 0.008559
0.071467 0.066029 0.008796
0.080226 0.068673 0.009035
0.090062 0.071643 0.009260
0.101070 0.074948 0.009445
0.113330 0.078590 0.009548
0.126899 0.082567 0.009507
0.141813 0.086864 0.009216
0.158077 0.091457 0.008496
0.175662 0.096305 0.006965
0.194504 0.101366 0.003291
0.214494 0.106586 0.000001
0.235513 0.111883 0.000001
0.257401 0.117190 0.000001
0.279987 0.122460 0.000001
0.303112 0.127922 0.000001
0.326781 0.141744 0.000001
0.350255 0.155890 0.000001
0.372555 0.169727 0.000001
0.394979 0.184038 0.000001
0.417448 0.198759 0.045689
0.439882 0.213829 0.071827
0.462239 0.229210 0.092395
0.484499 0.244878 0.110317
0.506570 0.260757 0.127174
0.528410 0.276801 0.143268
0.549638 0.292707 0.157756
0.570460 0.308600 0.171303
0.590937 0.324516 0.184250
0.611035 0.340404 0.196611
0.630710 0.356209 0.208389
0.649898 0.371868 0.219566
0.668542 0.387316 0.230119
0.686576 0.402464 0.240008
0.703926 0.417222 0.249195
0.719461 0.430620 0.264060
0.721409 0.448236 0.316476
0.722192 0.483306 0.369186
0.723004 0.510465 0.408912
0.723840 0.532645 0.441045
0.724715 0.551750 0.468579
0.725639 0.568793 0.493073
0.726626 0.584472 0.515564
0.727724 0.599610 0.537269
0.728947 0.614423 0.558492
0.730331 0.629102 0.579524
0.731911 0.643812 0.600555
0.733705 0.658552 0.621593
0.735729 0.673168 0.642392
0.737937 0.687325 0.662444
0.740273 0.700693 0.681270
0.742550 0.712490 0.697788
0.744612 0.722305 0.711441
0.028272 0.057413 0.012409
0.028272 0.057413 0.012409
0.028272 0.057413 0.012409
0.028272 0.057413 0.012409
0.028272 0.057413 0.012409
0.028940 0.058707 0.009759
0.030992 0.062424 0.008927
0.033824 0.064161 0.009230
0.041442 0.065936 0.009479
0.048118 0.067631 0.009711
0.054181 0.069252 0.009926
0.060416 0.070979 0.010148
0.067404 0.072968 0.010392
0.075235 0.075244 0.010656
0.084001 0.077829 0.010931
0.093799 0.080742 0.011205
0.104721 0.083995 0.011458
0.116850 0.087591 0.011658
0.130247 0.091528 0.011753
0.144949 0.095793 0.011669
0.160968 0.100360 0.011280
0.178280 0.105200 0.010372
0.196833 0.110254 0.008486
0.216535 0.115474 0.004004
0.237258 0.120799 0.000001
0.258870 0.126141 0.000001
0.281205 0.131432 0.000001
0.304094 0.136626 0.000001
0.327398 0.142109 0.000001
0.351135 0.156430 0.000001
0.374174 0.170748 0.000001
0.396332 0.184901 0.000001
0.418576 0.199493 0.000001
0.440819 0.214455 0.058049
0.463003 0.229732 0.083728
0.485079 0.245285 0.104645
0.507055 0.261100 0.122774
0.528813 0.277089 0.139757
0.549974 0.292954 0.154861
0.570749 0.308816 0.168904
0.591189 0.324706 0.182243
0.611255 0.340574 0.194924
