OCIO/luts/ACES2_Output_v2.0.0/ACES2 Output v2.0.0 Rec2100 (Rec709 sim)_inverse.cube
TITLE "Generated by Foundry::LUT"
LUT_3D_SIZE 5
0.072906 0.072906 0.072906
0.406376 0.051000 0.076397
0.592020 0.017869 0.144160
1.229190 1.229190 1.229190
1.229190 1.229190 1.229190
0.116628 0.386526 0.105411
0.373903 0.374181 0.119758
0.594214 0.350300 0.155409
1.229190 1.229190 1.229190
1.229190 1.229190 1.229190
0.250242 0.614808 0.275281
0.378629 0.617685 0.249764
0.672227 0.671536 0.272084
1.229190 1.229190 1.229190
1.229190 1.229190 1.229190
1.229190 1.229190 1.229190
1.229190 1.229190 1.229190
1.229190 1.229190 1.229190
1.229190 1.229190 1.229190
1.229190 1.229190 1.229190
1.229190 1.229190 1.229190
1.229190 1.229190 1.229190
1.229190 1.229190 1.229190
1.229190 1.229190 1.229190
1.229190 1.229190 1.229190
0.100230 0.096123 0.427336
0.389544 0.094673 0.390001
0.592650 0.039502 0.361392
1.229190 1.229190 1.229190
1.229190 1.229190 1.229190
0.139908 0.379714 0.379262
0.371024 0.371024 0.371024
0.596164 0.342925 0.358639
1.229190 1.229190 1.229190
1.229190 1.229190 1.229190
0.251611 0.616299 0.396719
0.363584 0.619920 0.385246
0.722698 0.707332 -19.212038
1.229190 1.229190 1.229190
1.229190 1.229190 1.229190
1.229190 1.229190 1.229190
1.229190 1.229190 1.229190
1.229190 1.229190 1.229190
1.229190 1.229190 1.229190
1.229190 1.229190 1.229190
1.229190 1.229190 1.229190
1.229190 1.229190 1.229190
1.229190 1.229190 1.229190
1.229190 1.229190 1.229190
1.229190 1.229190 1.229190
0.246875 0.243431 0.591182
-2.474807 -8.677716 0.694905
0.607295 0.206103 0.608054
1.229190 1.229190 1.229190
1.229190 1.229190 1.229190
0.257271 0.373770 0.590439
-0.564737 -1.756767 0.648447
0.612500 0.354074 0.613699
1.229190 1.229190 1.229190
1.229190 1.229190 1.229190
0.267085 0.642517 0.642205
0.373958 0.647019 0.646790
0.758376 0.758376 0.758376
1.229190 1.229190 1.229190
1.229190 1.229190 1.229190
1.229190 1.229190 1.229190
1.229190 1.229190 1.229190
1.229190 1.229190 1.229190
1.229190 1.229190 1.229190
1.229190 1.229190 1.229190
1.229190 1.229190 1.229190
1.229190 1.229190 1.229190
1.229190 1.229190 1.229190
1.229190 1.229190 1.229190
1.229190 1.229190 1.229190
1.229190 1.229190 1.229190
1.229190 1.229190 1.229190
1.229190 1.229190 1.229190
1.229190 1.229190 1.229190
1.229190 1.229190 1.229190
1.229190 1.229190 1.229190
1.229190 1.229190 1.229190
1.229190 1.229190 1.229190
1.229190 1.229190 1.229190
1.229190 1.229190 1.229190
1.229190 1.229190 1.229190
1.229190 1.229190 1.229190
1.229190 1.229190 1.229190
1.229190 1.229190 1.229190
1.229190 1.229190 1.229190
1.229190 1.229190 1.229190
1.229190 1.229190 1.229190
1.229190 1.229190 1.229190
1.229190 1.229190 1.229190
1.229190 1.229190 1.229190
1.229190 1.229190 1.229190
1.229190 1.229190 1.229190
1.229190 1.229190 1.229190
1.229190 1.229190 1.229190
1.229190 1.229190 1.229190
1.229190 1.229190 1.229190
1.229190 1.229190 1.229190
1.229190 1.229190 1.229190
1.229190 1.229190 1.229190
1.229190 1.229190 1.229190
1.229190 1.229190 1.229190
1.229190 1.229190 1.229190
1.229190 1.229190 1.229190
1.229190 1.229190 1.229190
1.229190 1.229190 1.229190
1.229190 1.229190 1.229190
1.229190 1.229190 1.229190
1.229190 1.229190 1.229190
1.229190 1.229190 1.229190
1.229190 1.229190 1.229190
1.229190 1.229190 1.229190
1.229190 1.229190 1.229190
1.229190 1.229190 1.229190
1.229190 1.229190 1.229190
1.229190 1.229190 1.229190
1.229190 1.229190 1.229190
1.229190 1.229190 1.229190
1.229190 1.229190 1.229190
1.229190 1.229190 1.229190
1.229190 1.229190 1.229190
