OCIO/luts/ACES2_Output_v2.0.0/ACES2 Output v2.0.0 P3D65 (Rec709 sim)_inverse.cube
TITLE "Generated by Foundry::LUT"
LUT_3D_SIZE 65
0.072906 0.072906 0.072906
0.106963 0.075042 0.073070
0.147788 0.077762 0.073314
0.185625 0.080887 0.073633
0.212946 0.084379 0.074028
0.234344 0.088216 0.074497
0.252026 0.092374 0.075035
0.267168 0.096831 0.075636
0.280470 0.101561 0.076291
0.292385 0.106544 0.076992
0.303215 0.111758 0.077730
0.313179 0.117190 0.078498
0.322433 0.122825 0.079289
0.331097 0.128656 0.080098
0.339262 0.134679 0.080920
0.346999 0.140890 0.081752
0.354366 0.147291 0.082593
0.361409 0.153883 0.083439
0.368168 0.160498 0.084291
0.374673 0.166806 0.085147
0.380951 0.172830 0.086007
0.387027 0.178602 0.086871
0.392919 0.184151 0.087738
0.398644 0.189501 0.088610
0.404218 0.194668 0.089486
0.409653 0.199670 0.090364
0.414961 0.204522 0.091245
0.420153 0.209236 0.092128
0.425236 0.213825 0.093014
0.430221 0.218298 0.093902
0.435114 0.222666 0.094793
0.439920 0.226935 0.095685
0.444647 0.231113 0.096579
0.449300 0.235207 0.097475
0.453884 0.239224 0.098372
0.458403 0.243167 0.099271
0.462862 0.247044 0.100171
0.467264 0.250857 0.101072
0.471613 0.254613 0.101975
0.475912 0.258313 0.102879
0.480165 0.261964 0.103785
0.484374 0.265568 0.104692
0.488542 0.269128 0.105600
0.492672 0.272648 0.106510
0.496766 0.276131 0.107424
0.500827 0.279579 0.108339
0.504856 0.282996 0.109258
0.508857 0.286384 0.110180
0.512831 0.289745 0.111107
0.516780 0.293083 0.112039
0.520707 0.296400 0.112976
0.524612 0.299697 0.113920
0.528499 0.302978 0.114872
0.532369 0.306244 0.115832
0.536224 0.309498 0.116803
0.540066 0.312742 0.117785
0.543897 0.315978 0.118779
0.547719 0.319208 0.119787
0.551533 0.322434 0.120811
0.555342 0.325659 0.121852
0.559147 0.328884 0.122914
0.562951 0.332112 0.123995
0.566756 0.335344 0.125101
0.570563 0.338583 0.126233
0.574374 0.341831 0.127393
0.079374 0.100045 0.074116
0.095252 0.096063 0.073968
0.137737 0.090158 0.073878
0.180739 0.088656 0.074020
0.210486 0.089761 0.074321
0.232927 0.092228 0.074733
0.251132 0.095523 0.075233
0.266560 0.099408 0.075810
0.280039 0.103726 0.076445
0.292068 0.108400 0.077129
0.302977 0.113376 0.077853
0.312995 0.118620 0.078608
0.322289 0.124103 0.079388
0.330983 0.129811 0.080187
0.339169 0.135730 0.081001
0.346924 0.141856 0.081827
0.354303 0.148185 0.082662
0.361357 0.154716 0.083504
0.368123 0.161229 0.084352
0.374635 0.167444 0.085205
0.380919 0.173394 0.086063
0.386998 0.179104 0.086924
0.392894 0.184599 0.087790
0.398622 0.189901 0.088659
0.404199 0.195028 0.089532
0.409636 0.199995 0.090407
0.414947 0.204816 0.091286
0.420140 0.209505 0.092167
0.425226 0.214070 0.093051
0.430212 0.218524 0.093937
0.435105 0.222873 0.094826
0.439913 0.227126 0.095717
0.444641 0.231290 0.096609
0.449295 0.235372 0.097504
0.453879 0.239376 0.098400
0.458399 0.243310 0.099298
0.462858 0.247177 0.100197
0.467261 0.250982 0.101097
0.471610 0.254730 0.101999
0.475910 0.258423 0.102902
0.480163 0.262068 0.103807
0.484372 0.265665 0.104712
0.488541 0.269220 0.105621
0.492671 0.272735 0.106531
0.496765 0.276213 0.107442
0.500826 0.279658 0.108358
0.504856 0.283070 0.109276
0.508857 0.286454 0.110198
0.512831 0.289813 0.111124
0.516780 0.293147 0.112055
0.520707 0.296461 0.112992
0.524612 0.299755 0.113935
0.528500 0.303034 0.114887
0.532370 0.306298 0.115847
0.536225 0.309550 0.116817
0.540067 0.312791 0.117798
0.543898 0.316025 0.118792
0.547720 0.319253 0.119800
0.551534 0.322478 0.120824
0.555343 0.325701 0.121864
0.559148 0.328925 0.122925
0.562952 0.332151 0.124007
0.566756 0.335382 0.125113
0.570564 0.338619 0.126244
0.574376 0.341866 0.127404
0.087734 0.132643 0.075943
0.094380 0.130889 0.075823
0.122483 0.124321 0.075578
0.165595 0.117062 0.075542
0.201203 0.112246 0.075545
0.227025 0.110176 0.075770
0.247187 0.110174 0.076136
0.263812 0.111627 0.076604
0.278052 0.114129 0.077152
0.290591 0.117403 0.077762
0.301845 0.121300 0.078430
0.312124 0.125639 0.079121
0.321592 0.130441 0.079867
0.330414 0.135590 0.080638
0.338702 0.141036 0.081424
0.346536 0.146758 0.082223
0.353980 0.152738 0.083032
0.361085 0.158885 0.083850
0.367893 0.164856 0.084677
0.374439 0.170621 0.085510
0.380751 0.176194 0.086350
0.386855 0.181588 0.087194
0.392770 0.186816 0.088045
0.398515 0.191889 0.088899
0.404106 0.196818 0.089759
0.409556 0.201615 0.090622
0.414876 0.206288 0.091490
0.420079 0.210847 0.092361
0.425172 0.215299 0.093236
0.430165 0.219651 0.094113
0.435064 0.223911 0.094994
0.439877 0.228085 0.095877
0.444610 0.232179 0.096763
0.449267 0.236196 0.097651
0.453855 0.240144 0.098541
0.458378 0.244026 0.099433
0.462840 0.247846 0.100326
0.467245 0.251609 0.101221
0.471597 0.255318 0.102118
0.475898 0.258977 0.103017
0.480153 0.262589 0.103917
0.484364 0.266157 0.104819
0.488534 0.269685 0.105723
0.492665 0.273175 0.106630
0.496761 0.276630 0.107539
0.500822 0.280053 0.108450
0.504853 0.283446 0.109366
0.508855 0.286812 0.110284
0.512830 0.290153 0.111208
0.516780 0.293472 0.112136
0.520707 0.296771 0.113071
0.524613 0.300051 0.114012
0.528501 0.303317 0.114961
0.532372 0.306569 0.115920
0.536227 0.309809 0.116888
0.540070 0.313040 0.117867
0.543901 0.316265 0.118859
0.547723 0.319483 0.119865
0.551538 0.322699 0.120887
0.555347 0.325914 0.121927
0.559153 0.329130 0.122986
0.562957 0.332349 0.124067
0.566762 0.335572 0.125171
0.570569 0.338804 0.126302
0.574381 0.342045 0.127462
0.097438 0.167202 0.078334
0.101154 0.166388 0.078245
0.118816 0.162559 0.077907
0.152560 0.155570 0.077689
0.189317 0.148002 0.077826
0.217977 0.141862 0.077734
0.240522 0.137761 0.077849
0.258854 0.135664 0.078145
0.274300 0.135215 0.078559
0.287700 0.136067 0.079053
0.299596 0.137928 0.079602
0.310327 0.140644 0.080216
0.320147 0.144056 0.080879
0.329261 0.147957 0.081542
0.337746 0.152450 0.082279
0.345745 0.157291 0.083017
0.353326 0.162225 0.083758
0.360544 0.167169 0.084510
0.367428 0.172172 0.085311
0.374038 0.177114 0.086118
0.380405 0.181982 0.086931
0.386555 0.186771 0.087749
0.392509 0.191476 0.088574
0.398288 0.196095 0.089404
0.403908 0.200630 0.090240
0.409383 0.205082 0.091081
0.414725 0.209452 0.091928
0.419946 0.213743 0.092779
0.425056 0.217959 0.093635
0.430063 0.222101 0.094496
0.434975 0.226173 0.095360
0.439799 0.230179 0.096227
0.444541 0.234122 0.097098
0.449207 0.238004 0.097973
0.453803 0.241830 0.098850
0.458332 0.245600 0.099729
0.462800 0.249320 0.100611
0.467210 0.252991 0.101496
0.471567 0.256617 0.102383
0.475873 0.260199 0.103272
0.480131 0.263741 0.104163
0.484346 0.267245 0.105056
0.488518 0.270713 0.105952
0.492653 0.274149 0.106851
0.496751 0.277553 0.107752
0.500815 0.280930 0.108657
0.504848 0.284280 0.109565
0.508851 0.287605 0.110478
0.512828 0.290909 0.111396
0.516779 0.294193 0.112318
0.520708 0.297459 0.113248
0.524616 0.300710 0.114184
0.528505 0.303947 0.115128
0.532376 0.307172 0.116082
0.536233 0.310388 0.117046
0.540076 0.313596 0.118021
0.543909 0.316798 0.119009
0.547731 0.319996 0.120011
0.551547 0.323192 0.121030
0.555357 0.326389 0.122066
0.559163 0.329587 0.123123
0.562968 0.332790 0.124200
0.566773 0.335999 0.125302
0.570581 0.339215 0.126430
0.574394 0.342442 0.127586
0.108337 0.194799 0.081254
0.110777 0.194441 0.081184
0.122786 0.192680 0.080869
0.147782 0.189053 0.080415
0.180764 0.183866 0.080263
0.209148 0.178288 0.080563
0.232818 0.173128 0.080516
0.252616 0.168796 0.080479
0.269313 0.165712 0.080661
0.283699 0.163939 0.080987
0.296357 0.163367 0.081408
0.307690 0.163835 0.081900
0.317986 0.165165 0.082449
0.327459 0.167171 0.083033
0.336257 0.169721 0.083655
0.344509 0.172638 0.084280
0.352266 0.175961 0.084981
0.359644 0.179438 0.085660
0.366667 0.183122 0.086379
0.373385 0.186949 0.087130
0.379846 0.190826 0.087879
0.386078 0.194736 0.088630
0.392104 0.198662 0.089386
0.397942 0.202602 0.090155
0.403603 0.206585 0.090970
0.409114 0.210545 0.091788
0.414488 0.214475 0.092611
0.419737 0.218373 0.093439
0.424872 0.222235 0.094271
0.429900 0.226060 0.095108
0.434831 0.229847 0.095950
0.439673 0.233594 0.096796
0.444430 0.237303 0.097646
0.449110 0.240973 0.098501
0.453717 0.244606 0.099358
0.458258 0.248201 0.100220
0.462735 0.251760 0.101084
0.467154 0.255285 0.101952
0.471518 0.258776 0.102823
0.475831 0.262235 0.103697
0.480096 0.265663 0.104573
0.484316 0.269063 0.105453
0.488494 0.272435 0.106336
0.492632 0.275781 0.107222
0.496734 0.279102 0.108112
0.500803 0.282402 0.109005
0.504839 0.285681 0.109903
0.508845 0.288940 0.110805
0.512825 0.292182 0.111713
0.516779 0.295409 0.112626
0.520710 0.298621 0.113547
0.524620 0.301821 0.114475
0.528511 0.305011 0.115411
0.532384 0.308192 0.116357
0.536243 0.311366 0.117313
0.540088 0.314535 0.118282
0.543921 0.317700 0.119264
0.547746 0.320864 0.120260
0.551562 0.324028 0.121273
0.555373 0.327194 0.122304
0.559180 0.330363 0.123354
0.562986 0.333538 0.124428
0.566793 0.336720 0.125524
0.570602 0.339912 0.126649
0.574415 0.343116 0.127801
0.120317 0.216564 0.084646
0.122077 0.216379 0.084586
0.130871 0.215450 0.084311
0.149823 0.213451 0.083815
0.176871 0.210306 0.083319
0.203152 0.206292 0.083238
0.226269 0.202088 0.083647
0.246321 0.198164 0.083750
0.263829 0.194633 0.083602
0.279082 0.191766 0.083615
0.292488 0.189728 0.083825
0.304448 0.188514 0.084153
0.315271 0.188052 0.084548
0.325170 0.188280 0.085009
0.334310 0.189128 0.085537
0.342841 0.190460 0.086084
0.350852 0.192218 0.086664
0.358431 0.194304 0.087254
0.365620 0.196721 0.087901
0.372494 0.199331 0.088537
0.379067 0.202188 0.089236
0.385402 0.205148 0.089917
0.391519 0.208209 0.090599
0.397419 0.211439 0.091356
0.403146 0.214717 0.092110
0.408717 0.218033 0.092864
0.414144 0.221377 0.093622
0.419441 0.224742 0.094384
0.424617 0.228120 0.095152
0.429682 0.231506 0.095928
0.434637 0.234933 0.096750
0.439501 0.238351 0.097575
0.444278 0.241758 0.098404
0.448975 0.245152 0.099237
0.453599 0.248530 0.100073
0.458154 0.251892 0.100913
0.462644 0.255237 0.101756
0.467075 0.258563 0.102604
0.471450 0.261871 0.103454
0.475772 0.265161 0.104309
0.480046 0.268433 0.105167
0.484273 0.271688 0.106029
0.488459 0.274925 0.106894
0.492604 0.278147 0.107763
0.496712 0.281353 0.108637
0.500785 0.284544 0.109515
0.504827 0.287722 0.110398
0.508838 0.290888 0.111286
0.512821 0.294042 0.112180
0.516779 0.297187 0.113081
0.520714 0.300322 0.113989
0.524627 0.303450 0.114904
0.528520 0.306573 0.115830
0.532397 0.309690 0.116765
0.536258 0.312804 0.117711
0.540105 0.315917 0.118670
0.543941 0.319029 0.119642
0.547767 0.322143 0.120630
0.551585 0.325259 0.121634
0.555398 0.328380 0.122657
0.559207 0.331508 0.123700
0.563014 0.334643 0.124767
0.566822 0.337787 0.125857
0.570633 0.340944 0.126974
0.574448 0.344113 0.128121
0.133275 0.234699 0.088433
0.134623 0.234594 0.088378
0.141435 0.234053 0.088141
0.156337 0.232870 0.087661
0.177503 0.230927 0.087051
0.200176 0.228244 0.086560
0.221872 0.225039 0.086537
0.241401 0.221736 0.087014
0.258785 0.218641 0.087275
0.274398 0.215778 0.087110
0.288367 0.213280 0.086973
0.300888 0.211290 0.087010
0.312196 0.209878 0.087217
0.322520 0.209023 0.087519
0.332032 0.208701 0.087896
0.340876 0.208853 0.088316
0.349146 0.209461 0.088803
0.356944 0.210436 0.089308
0.364330 0.211752 0.089848
0.371364 0.213353 0.090409
0.378095 0.215191 0.090982
0.384541 0.217286 0.091618
0.390760 0.219527 0.092239
0.396763 0.221933 0.092889
0.402568 0.224499 0.093585
0.408211 0.227142 0.094267
0.413704 0.229856 0.094943
0.419049 0.232681 0.095669
0.424263 0.235584 0.096426
0.429364 0.238525 0.097183
0.434360 0.241496 0.097941
0.439260 0.244493 0.098702
0.444070 0.247511 0.099468
0.448797 0.250545 0.100240
0.453446 0.253592 0.101017
0.458024 0.256647 0.101800
0.462532 0.259728 0.102615
0.466977 0.262817 0.103443
0.471365 0.265904 0.104273
0.475699 0.268987 0.105107
0.479983 0.272067 0.105945
0.484221 0.275143 0.106787
0.488415 0.278213 0.107632
0.492569 0.281278 0.108482
0.496684 0.284338 0.109337
0.500765 0.287392 0.110197
0.504812 0.290442 0.111061
0.508829 0.293487 0.111932
0.512818 0.296529 0.112810
0.516781 0.299567 0.113694
0.520720 0.302604 0.114587
0.524637 0.305638 0.115488
0.528534 0.308672 0.116399
0.532414 0.311707 0.117320
0.536278 0.314742 0.118253
0.540129 0.317781 0.119199
0.543967 0.320823 0.120159
0.547796 0.323871 0.121135
0.551617 0.326925 0.122129
0.555432 0.329987 0.123142
0.559243 0.333058 0.124175
0.563053 0.336141 0.125232
0.566863 0.339235 0.126314
0.570675 0.342344 0.127423
0.574492 0.345467 0.128562
0.147123 0.250370 0.092537
0.148207 0.250305 0.092488
0.153702 0.249969 0.092274
0.165223 0.249220 0.091841
0.181439 0.247972 0.091212
0.200231 0.246183 0.090534
0.219585 0.243895 0.090067
0.238087 0.241274 0.090090
0.255028 0.238601 0.090598
0.270392 0.236089 0.090988
0.284445 0.233746 0.090891
0.297288 0.231614 0.090641
0.308992 0.229804 0.090525
0.319698 0.228385 0.090572
0.329552 0.227385 0.090759
0.338695 0.226793 0.091036
0.347235 0.226590 0.091380
0.355265 0.226744 0.091769
0.362856 0.227228 0.092200
0.370067 0.228009 0.092661
0.376945 0.229069 0.093164
0.383531 0.230375 0.093702
0.389868 0.231876 0.094238
0.395972 0.233585 0.094822
0.401878 0.235446 0.095407
0.407594 0.237480 0.096046
0.413159 0.239602 0.096653
0.418566 0.241868 0.097317
0.423837 0.244241 0.098010
0.428990 0.246678 0.098693
0.434034 0.249173 0.099371
0.438978 0.251722 0.100052
0.443815 0.254376 0.100810
0.448567 0.257064 0.101567
0.453241 0.259783 0.102324
0.457842 0.262530 0.103083
0.462374 0.265300 0.103846
0.466842 0.268091 0.104614
0.471251 0.270900 0.105386
0.475604 0.273725 0.106165
0.479905 0.276563 0.106950
0.484159 0.279413 0.107741
0.488366 0.282276 0.108545
0.492529 0.285160 0.109376
0.496654 0.288050 0.110211
0.500742 0.290944 0.111052
0.504797 0.293842 0.111898
0.508821 0.296745 0.112750
0.512816 0.299652 0.113609
0.516785 0.302564 0.114475
0.520730 0.305480 0.115350
0.524652 0.308402 0.116234
0.528554 0.311329 0.117128
0.532439 0.314262 0.118033
0.536307 0.317202 0.118951
0.540161 0.320150 0.119882
0.544003 0.323107 0.120828
0.547835 0.326073 0.121791
0.551659 0.329050 0.122771
0.555478 0.332039 0.123771
0.559292 0.335041 0.124793
0.563104 0.338057 0.125838
0.566916 0.341089 0.126909
0.570731 0.344137 0.128008
0.574550 0.347205 0.129138
0.161552 0.264266 0.096889
0.162385 0.264223 0.096847
0.166492 0.264000 0.096664
0.174923 0.263505 0.096262
0.187399 0.262670 0.095653
0.202728 0.261447 0.094924
0.219450 0.259833 0.094220
0.236326 0.257870 0.093786
0.252489 0.255688 0.093839
0.267481 0.253479 0.094355
0.281271 0.251397 0.094835
0.294048 0.249452 0.094835
0.305903 0.247646 0.094546
0.316867 0.246045 0.094296
0.327008 0.244715 0.094194
0.336423 0.243693 0.094245
0.345211 0.242989 0.094412
0.353468 0.242588 0.094644
0.361256 0.242493 0.094957
0.368641 0.242679 0.095322
0.375682 0.243113 0.095703
0.382408 0.243802 0.096146
0.388868 0.244703 0.096601
0.395084 0.245810 0.097093
0.401081 0.247114 0.097631
0.406897 0.248550 0.098141
0.412526 0.250176 0.098733
0.418015 0.251886 0.099269
0.423344 0.253776 0.099914
0.428553 0.255744 0.100534
0.433650 0.257784 0.101133
0.438628 0.259951 0.101807
0.443508 0.262193 0.102497
0.448300 0.264488 0.103178
0.453010 0.266833 0.103857
0.457644 0.269224 0.104536
0.462202 0.271677 0.105248
0.466689 0.274190 0.106003
0.471116 0.276734 0.106757
0.475487 0.279306 0.107514
0.479804 0.281904 0.108274
0.484072 0.284525 0.109038
0.488294 0.287168 0.109808
0.492472 0.289831 0.110585
0.496611 0.292512 0.111369
0.500712 0.295211 0.112160
0.504779 0.297926 0.112960
0.508813 0.300656 0.113770
0.512818 0.303401 0.114588
0.516794 0.306164 0.115424
0.520745 0.308944 0.116281
0.524674 0.311736 0.117148
0.528582 0.314541 0.118024
0.532471 0.317358 0.118912
0.536344 0.320187 0.119813
0.540203 0.323030 0.120727
0.544049 0.325887 0.121657
0.547886 0.328758 0.122605
0.551713 0.331645 0.123570
0.555535 0.334548 0.124556
0.559353 0.337468 0.125564
0.563168 0.340405 0.126597
0.566984 0.343363 0.127656
0.570801 0.346341 0.128743
0.574623 0.349340 0.129862
0.174761 0.276824 0.101435
0.175368 0.276795 0.101397
0.178392 0.276641 0.101235
0.184741 0.276299 0.100875
0.194466 0.275718 0.100309
0.206930 0.274861 0.099576
0.221159 0.273707 0.098778
0.236164 0.272261 0.098076
0.251139 0.270568 0.097676
0.265520 0.268726 0.097746
0.278995 0.266873 0.098255
0.291530 0.265120 0.098778
0.303252 0.263484 0.098889
0.314249 0.261954 0.098629
0.324542 0.260560 0.098288
0.334159 0.259356 0.098056
0.343161 0.258379 0.097965
0.351614 0.257648 0.098007
0.359588 0.257169 0.098156
0.367146 0.256931 0.098370
0.374334 0.256934 0.098659
0.381204 0.257154 0.098975
0.387785 0.257592 0.099349
0.394114 0.258225 0.099749
0.400217 0.259043 0.100182
0.406119 0.260026 0.100631
0.411842 0.261157 0.101090
0.417389 0.262463 0.101628
0.422803 0.263858 0.102109
0.428062 0.265428 0.102706
0.433211 0.267070 0.103251
0.438243 0.268825 0.103837
0.443166 0.270686 0.104465
0.448000 0.272611 0.105072
0.452750 0.274596 0.105666
0.457408 0.276689 0.106347
0.461993 0.278841 0.107031
0.466510 0.281038 0.107709
0.470965 0.283281 0.108387
0.475361 0.285565 0.109067
0.479702 0.287889 0.109751
0.483986 0.290273 0.110486
0.488222 0.292696 0.111239
0.492414 0.295148 0.111994
0.496565 0.297627 0.112754
0.500678 0.300132 0.113520
0.504756 0.302662 0.114293
0.508800 0.305215 0.115074
0.512815 0.307792 0.115864
0.516801 0.310389 0.116665
0.520761 0.313009 0.117478
0.524698 0.315649 0.118302
0.528614 0.318309 0.119140
0.532511 0.320991 0.119994
0.536391 0.323691 0.120863
0.540255 0.326413 0.121749
0.544107 0.329155 0.122656
0.547948 0.331920 0.123587
0.551780 0.334705 0.124537
0.555606 0.337511 0.125508
0.559428 0.340338 0.126502
0.563247 0.343188 0.127520
0.567066 0.346060 0.128565
0.570887 0.348957 0.129640
0.574713 0.351880 0.130747
0.186669 0.288340 0.106133
0.187129 0.288319 0.106100
0.189429 0.288209 0.105952
0.194332 0.287966 0.105622
0.202041 0.287548 0.105111
0.212225 0.286932 0.104403
0.224270 0.286090 0.103591
0.237426 0.285021 0.102749
0.251019 0.283729 0.102068
0.264500 0.282260 0.101706
0.277480 0.280689 0.101786
0.289743 0.279116 0.102276
0.301255 0.277625 0.102814
0.312098 0.276235 0.103023
0.322354 0.274933 0.102821
0.332043 0.273729 0.102444
0.341177 0.272662 0.102108
0.349787 0.271763 0.101896
0.357925 0.271053 0.101808
0.365636 0.270546 0.101839
0.372964 0.270248 0.101985
0.379963 0.270143 0.102182
0.386666 0.270230 0.102435
0.393106 0.270500 0.102728
0.399315 0.270935 0.103037
0.405307 0.271544 0.103404
0.411107 0.272312 0.103809
0.416732 0.273234 0.104258
0.422204 0.274284 0.104714
0.427542 0.275439 0.105147
0.432737 0.276751 0.105684
0.437826 0.278135 0.106162
0.442795 0.279654 0.106732
0.447671 0.281249 0.107281
0.452460 0.282911 0.107807
0.457152 0.284697 0.108440
0.461771 0.286539 0.109052
0.466320 0.288436 0.109650
0.470806 0.290386 0.110244
0.475219 0.292430 0.110925
0.479577 0.294521 0.111603
0.483884 0.296655 0.112280
0.488141 0.298830 0.112959
0.492353 0.301044 0.113641
0.496522 0.303296 0.114331
0.500652 0.305585 0.115030
0.504740 0.307929 0.115784
0.508795 0.310303 0.116545
0.512820 0.312707 0.117312
0.516815 0.315139 0.118088
0.520785 0.317598 0.118873
0.524731 0.320085 0.119671
0.528654 0.322598 0.120481
0.532559 0.325138 0.121307
0.536445 0.327703 0.122148
0.540317 0.330295 0.123007
0.544175 0.332912 0.123884
0.548023 0.335555 0.124782
0.551861 0.338225 0.125703
0.555692 0.340922 0.126648
0.559519 0.343644 0.127619
0.563342 0.346395 0.128618
0.567166 0.349174 0.129647
0.570991 0.351982 0.130710
0.574820 0.354819 0.131806
0.197534 0.299020 0.110958
0.197893 0.299004 0.110928
0.199691 0.298925 0.110791
0.203574 0.298745 0.110501
0.209772 0.298440 0.110018
0.218173 0.297983 0.109368
0.228376 0.297357 0.108576
0.239840 0.296556 0.107685
0.252030 0.295571 0.106859
0.264453 0.294422 0.106191
0.276729 0.293143 0.105851
0.288582 0.291792 0.105943
0.299855 0.290446 0.106409
0.310515 0.289168 0.106957
0.320619 0.287977 0.107231
0.330233 0.286865 0.107108
0.339382 0.285830 0.106736
0.348071 0.284896 0.106335
0.356317 0.284090 0.106018
0.364150 0.283434 0.105825
0.371608 0.282939 0.105750
0.378727 0.282611 0.105774
0.385539 0.282455 0.105894
0.392082 0.282460 0.106067
0.398385 0.282620 0.106275
0.404461 0.282947 0.106569
0.410344 0.283413 0.106875
0.416048 0.284019 0.107213
0.421590 0.284760 0.107583
0.426986 0.285621 0.107966
0.432247 0.286602 0.108377
0.437379 0.287708 0.108843
0.442409 0.288890 0.109257
0.447322 0.290210 0.109790
0.452150 0.291590 0.110264
0.456883 0.293077 0.110803
0.461535 0.294642 0.111354
0.466118 0.296265 0.111878
0.470627 0.297975 0.112456
0.475068 0.299759 0.113069
0.479453 0.301594 0.113670
0.483784 0.303479 0.114266
0.488064 0.305414 0.114865
0.492290 0.307428 0.115544
0.496473 0.309484 0.116222
0.500616 0.311580 0.116901
0.504722 0.313717 0.117586
0.508793 0.315892 0.118278
0.512831 0.318105 0.118981
0.516840 0.320355 0.119697
0.520821 0.322643 0.120433
0.524775 0.324975 0.121209
0.528708 0.327339 0.121997
0.532620 0.329734 0.122798
0.536514 0.332161 0.123613
0.540393 0.334617 0.124445
0.544258 0.337106 0.125297
0.548112 0.339624 0.126168
0.551956 0.342174 0.127062
0.555794 0.344754 0.127980
0.559626 0.347366 0.128925
0.563455 0.350010 0.129899
0.567284 0.352685 0.130903
0.571114 0.355395 0.131941
0.574949 0.358138 0.133016
0.207548 0.309014 0.115891
0.207835 0.309003 0.115865
0.209273 0.308944 0.115736
0.212416 0.308806 0.115488
0.217489 0.308576 0.115055
0.224475 0.308234 0.114434
0.233151 0.307762 0.113673
0.243133 0.307151 0.112805
0.253992 0.306396 0.111902
0.265321 0.305500 0.111064
0.276769 0.304476 0.110437
0.288057 0.303357 0.110126
0.298984 0.302190 0.110211
0.309433 0.301032 0.110647
0.319376 0.299931 0.111179
0.328848 0.298907 0.111514
0.337906 0.297953 0.111461
0.346571 0.297066 0.111134
0.354856 0.296256 0.110687
0.362762 0.295546 0.110293
0.370309 0.294954 0.110006
0.377527 0.294491 0.109818
0.384440 0.294169 0.109742
0.391074 0.293993 0.109782
0.397461 0.293956 0.109880
0.403626 0.294055 0.110024
0.409584 0.294294 0.110236
0.415364 0.294655 0.110456
0.420971 0.295151 0.110746
0.426427 0.295764 0.111051
0.431746 0.296488 0.111373
0.436931 0.297337 0.111767
0.442001 0.298286 0.112168
0.446971 0.299316 0.112538
0.451830 0.300469 0.113013
0.456610 0.301680 0.113417
0.461294 0.303010 0.113937
0.465908 0.304395 0.114407
0.470447 0.305862 0.114915
0.474916 0.307410 0.115464
0.479328 0.309012 0.115991
0.483684 0.310671 0.116514
0.487979 0.312417 0.117127
0.492227 0.314211 0.117731
0.496431 0.316053 0.118332
0.500593 0.317942 0.118934
0.504717 0.319880 0.119546
0.508799 0.321883 0.120228
0.512849 0.323927 0.120912
0.516869 0.326012 0.121604
0.520861 0.328136 0.122306
0.524828 0.330299 0.123022
0.528771 0.332502 0.123752
0.532694 0.334742 0.124500
0.536598 0.337020 0.125268
0.540485 0.339338 0.126064
0.544358 0.341695 0.126893
0.548219 0.344087 0.127740
0.552070 0.346514 0.128609
0.555914 0.348975 0.129502
0.559752 0.351473 0.130422
0.563587 0.354005 0.131370
0.567422 0.356574 0.132349
0.571258 0.359180 0.133363
0.575098 0.361823 0.134412
0.216860 0.318437 0.120925
0.217093 0.318428 0.120901
0.218265 0.318384 0.120779
0.220854 0.318278 0.120563
0.225060 0.318102 0.120162
0.230947 0.317838 0.119610
0.238361 0.317478 0.118875
0.247065 0.317005 0.118045
0.256715 0.316421 0.117118
0.266985 0.315719 0.116206
0.277562 0.314906 0.115385
0.288186 0.313996 0.114790
0.298649 0.313016 0.114503
0.308802 0.312004 0.114585
0.318556 0.311004 0.114982
0.327886 0.310053 0.115498
0.336815 0.309170 0.115860
0.345386 0.308351 0.115879
0.353623 0.307591 0.115595
0.361534 0.306896 0.115166
0.369126 0.306278 0.114713
0.376406 0.305756 0.114336
0.383392 0.305341 0.114068
0.390107 0.305043 0.113906
0.396573 0.304865 0.113839
0.402810 0.304811 0.113857
0.408841 0.304876 0.113936
0.414688 0.305056 0.114047
0.420355 0.305364 0.114254
0.425870 0.305778 0.114469
0.431243 0.306300 0.114713
0.436483 0.306929 0.114996
0.441602 0.307662 0.115314
0.446611 0.308490 0.115647
0.451521 0.309400 0.115968
0.456328 0.310424 0.116394
0.461056 0.311513 0.116772
0.465698 0.312697 0.117218
0.470272 0.313939 0.117617
0.474768 0.315282 0.118123
0.479205 0.316678 0.118588
0.483584 0.318140 0.119068
