OCIO/luts/ACES2_Output_v2.0.0/ACES2 Output v2.0.0 P3D65 (Rec709 sim)_inverse.cube
TITLE "Generated by Foundry::LUT"
LUT_3D_SIZE 5
0.072906 0.072906 0.072906
0.354366 0.147291 0.082593
0.444647 0.231113 0.096579
0.512831 0.289745 0.111107
0.574374 0.341831 0.127393
0.241600 0.344070 0.136576
0.335582 0.338763 0.128335
0.440520 0.335018 0.126480
0.513061 0.349925 0.130969
0.575935 0.379690 0.142012
0.335839 0.448455 0.209747
0.367536 0.448497 0.206993
0.446514 0.449473 0.200478
0.519663 0.455445 0.195944
0.585273 0.471111 0.196170
0.409643 0.534548 0.255993
0.425236 0.535171 0.255415
0.478658 0.538505 0.253348
0.544427 0.547093 0.251835
0.612454 0.565542 0.256341
0.492537 0.629151 0.305953
0.502475 0.630364 0.306097
0.542807 0.636810 0.307248
0.605829 0.653523 0.312024
0.691738 0.693968 0.330048
0.158760 0.103295 0.394096
-2.608894 0.454597 -1.223594
0.312075 -0.046521 0.066937
0.511149 0.300695 0.313222
0.575562 0.338278 0.304712
0.263617 0.336245 0.338886
0.335065 0.335065 0.335065
0.433205 0.343542 0.330443
0.518363 0.334364 0.291659
0.578124 0.372740 0.300834
0.343758 0.446778 0.331357
-2.097817 0.490576 -0.550362
0.446912 0.449314 0.320405
0.524820 0.452965 0.286156
0.588316 0.467916 0.302459
0.405894 0.536034 0.328702
0.422394 0.536658 0.328050
0.441343 0.551237 -0.297646
0.548670 0.545411 -0.356075
0.615144 0.565668 0.321804
0.485400 0.631560 0.350262
0.496463 0.632765 0.350391
1.207018 -6034.584473 0.638393
-438572.125000 1.435074 -14532.960938
1.321428 1.219295 -2078.560791
0.244131 0.156284 0.480308
0.319873 -0.215245 0.501023
-1.442290 0.463929 -0.033436
0.590123 -3.633367 0.472630
0.578635 0.341431 0.450497
0.301660 0.339378 0.452383
0.348128 0.342081 0.448756
0.437244 0.345871 0.449163
0.520798 0.331651 0.449412
0.581570 0.374208 0.450276
0.353829 0.447729 0.450999
-0.623397 0.461395 0.470245
0.450818 0.450818 0.450818
0.529848 0.451549 0.444412
0.598896 0.457015 0.440141
0.408267 0.539300 0.455770
0.421872 0.540582 0.454619
0.471786 0.547499 0.441867
0.551620 0.553252 0.437466
0.627690 0.566091 0.432122
0.468751 0.639859 0.471197
0.477346 0.641827 0.467478
1.172761 -3980.796875 0.604136
0.610015 0.689153 0.080850
0.715965 0.716248 0.381019
0.313791 0.247677 0.540351
0.350743 0.212159 0.543577
0.445342 -0.902817 0.571953
0.586410 -13.942293 0.679132
0.585422 0.350006 0.543343
-1.067371 -2.249649 0.619912
0.368335 0.348403 0.531633
0.445715 0.352202 0.532630
0.524301 0.332210 0.542431
0.588566 0.379774 0.545316
0.373026 0.451192 0.535312
0.147005 0.433372 0.577136
0.457402 0.450784 0.544034
0.534570 0.453255 0.547628
0.606540 0.459514 0.554357
0.418785 0.545080 0.549140
0.430973 0.546285 0.550217
0.477961 0.552243 0.555449
0.559580 0.559580 0.559580
0.701851 0.545343 0.543925
0.477944 0.652363 0.584458
0.486151 0.654581 0.584846
0.522257 0.666409 0.585104
-2.700536 0.758030 0.408796
0.756545 0.755695 0.531321
-0.907872 -3.722760 0.661816
-0.293516 -3.608419 0.660231
0.438340 -3.730116 0.659662
0.554948 -5.309160 0.670023
0.598521 0.364466 0.616869
-1.148565 -3.516058 0.667064
0.204123 -1.846350 0.648898
0.448431 -2.116405 0.651247
0.554070 -2.862298 0.658085
0.601777 0.390701 0.620081
0.397772 0.456027 0.604812
-4.830333 -5.064388 0.728631
-18.445831 -60.732105 0.841174
0.646456 -37.027306 0.816525
0.619565 0.467462 0.637730
0.436589 0.554786 0.625695
0.447008 0.555581 0.627935
0.489115 0.558493 0.640529
0.567570 0.556177 0.668055
0.668691 0.565164 0.686609
0.499059 0.676644 0.681624
0.507079 0.679276 0.684252
0.543203 0.693582 0.698543
0.614435 0.734514 0.739461
0.954339 0.954339 0.954339
