OCIO/luts/ACES2_Output_v2.0.0/ACES2 Output v2.0.0 Rec2100 (P3D65 500nit Limited)_inverse.cube
TITLE "Generated by Foundry::LUT"
LUT_3D_SIZE 5
0.072906 0.072906 0.072906
0.400274 0.028643 0.071534
0.561070 -0.026906 0.104760
0.789009 -0.715670 0.343324
1.447547 1.447547 1.447547
0.088311 0.377437 0.091769
0.361958 0.362261 0.114493
0.564480 0.246528 0.048423
0.790202 0.111492 0.343160
1.447547 1.447547 1.447547
0.249932 0.556301 0.234331
0.343034 0.556371 0.228426
0.556189 0.555372 0.047582
0.813292 0.594439 0.270114
1.447547 1.447547 1.447547
1.447547 1.447547 1.447547
1.447547 1.447547 1.447547
1.447547 1.447547 1.447547
1.447547 1.447547 1.447547
1.447547 1.447547 1.447547
1.447547 1.447547 1.447547
1.447547 1.447547 1.447547
1.447547 1.447547 1.447547
1.447547 1.447547 1.447547
1.447547 1.447547 1.447547
0.040092 0.006786 0.435180
0.381058 0.070291 0.381963
0.560375 0.000524 0.324904
0.789479 -0.708121 0.407116
1.447547 1.447547 1.447547
0.114382 0.369086 0.368666
0.358259 0.358259 0.358259
0.569111 0.038005 0.276496
0.790696 0.107026 0.407067
1.447547 1.447547 1.447547
0.252446 0.556275 0.343146
0.341829 0.556484 0.340096
0.556361 0.555998 0.323765
0.815898 0.581211 0.318482
1.447547 1.447547 1.447547
1.447547 1.447547 1.447547
1.447547 1.447547 1.447547
1.447547 1.447547 1.447547
1.447547 1.447547 1.447547
1.447547 1.447547 1.447547
1.447547 1.447547 1.447547
1.447547 1.447547 1.447547
1.447547 1.447547 1.447547
1.447547 1.447547 1.447547
1.447547 1.447547 1.447547
0.144838 0.084850 0.575295
0.342134 0.122788 0.571915
0.556266 0.195916 0.556748
0.796230 -0.576416 0.604418
1.447547 1.447547 1.447547
0.233613 0.350400 0.566359
0.322346 0.307847 0.575896
0.562755 -0.072900 0.565362
0.797809 0.033588 0.604677
1.447547 1.447547 1.447547
0.284215 0.556839 0.556417
0.349409 0.557207 0.556828
0.557900 0.557900 0.557900
0.832050 0.505133 0.587481
1.447547 1.447547 1.447547
1.447547 1.447547 1.447547
1.447547 1.447547 1.447547
1.447547 1.447547 1.447547
1.447547 1.447547 1.447547
1.447547 1.447547 1.447547
1.447547 1.447547 1.447547
1.447547 1.447547 1.447547
1.447547 1.447547 1.447547
1.447547 1.447547 1.447547
1.447547 1.447547 1.447547
0.408612 0.401055 0.760760
0.434416 0.400524 0.761106
0.580632 0.390620 0.767257
0.912704 -27.889284 0.916339
1.447547 1.447547 1.447547
0.398183 0.416734 0.762379
0.427196 0.416254 0.762729
0.580333 0.407445 0.768933
0.917937 -30.501291 0.921837
1.447547 1.447547 1.447547
0.380798 0.581340 0.774390
0.399339 0.579253 0.776109
0.560159 0.533336 0.798687
1.298439 1.298439 1.298439
1.447547 1.447547 1.447547
1.447547 1.447547 1.447547
1.447547 1.447547 1.447547
1.447547 1.447547 1.447547
1.447547 1.447547 1.447547
1.447547 1.447547 1.447547
1.447547 1.447547 1.447547
1.447547 1.447547 1.447547
1.447547 1.447547 1.447547
1.447547 1.447547 1.447547
1.447547 1.447547 1.447547
1.447547 1.447547 1.447547
1.447547 1.447547 1.447547
1.447547 1.447547 1.447547
1.447547 1.447547 1.447547
1.447547 1.447547 1.447547
1.447547 1.447547 1.447547
1.447547 1.447547 1.447547
1.447547 1.447547 1.447547
1.447547 1.447547 1.447547
1.447547 1.447547 1.447547
1.447547 1.447547 1.447547
1.447547 1.447547 1.447547
1.447547 1.447547 1.447547
1.447547 1.447547 1.447547
1.447547 1.447547 1.447547
1.447547 1.447547 1.447547
1.447547 1.447547 1.447547
1.447547 1.447547 1.447547
1.447547 1.447547 1.447547
1.447547 1.447547 1.447547
1.447547 1.447547 1.447547
1.447547 1.447547 1.447547
1.447547 1.447547 1.447547
1.447547 1.447547 1.447547
1.447547 1.447547 1.447547
