OCIO/luts/ACES2_Output_v2.0.0/ACES2 Output v2.0.0 Rec2100 (P3D65 500nit Limited).cube
TITLE "Generated by Foundry::LUT"
LUT_3D_SIZE 65
0.000001 0.000001 0.000001
0.000001 0.000001 0.000001
0.000001 0.000001 0.000001
0.000001 0.000001 0.000001
0.000001 0.000001 0.000001
0.000664 0.000136 0.000001
0.004263 0.000827 0.000001
0.008732 0.001757 0.000001
0.013513 0.002826 0.000001
0.018401 0.003988 0.000001
0.023304 0.005214 0.000001
0.028721 0.006632 0.000001
0.034744 0.008282 0.000001
0.042206 0.010422 0.000001
0.050877 0.013033 0.000424
0.060866 0.016193 0.001250
0.072261 0.019983 0.002256
0.085124 0.024482 0.003567
0.099489 0.029765 0.005274
0.115356 0.035898 0.007460
0.132687 0.042932 0.010209
0.151400 0.050901 0.013599
0.171379 0.059816 0.017702
0.192475 0.069664 0.022571
0.214505 0.080406 0.028244
0.237280 0.091982 0.034737
0.260597 0.104312 0.042042
0.284267 0.117309 0.050128
0.308114 0.130878 0.058944
0.331991 0.144924 0.068422
0.355767 0.159364 0.078478
0.379344 0.174117 0.089017
0.402647 0.189113 0.099937
0.425619 0.204290 0.111127
0.448216 0.219593 0.122469
0.470384 0.234967 0.133843
0.492092 0.250361 0.145126
0.512844 0.265379 0.155157
0.533114 0.280336 0.164833
0.552899 0.295204 0.174172
0.572158 0.309932 0.183131
0.590839 0.324452 0.191661
0.608889 0.338699 0.199719
0.626260 0.352616 0.207168
0.642374 0.365702 0.216790
0.646461 0.379136 0.258033
0.647219 0.412986 0.307174
0.648009 0.439198 0.344362
0.648814 0.460365 0.374233
0.649643 0.478361 0.399604
0.650500 0.494241 0.421981
0.651392 0.508692 0.442345
0.652353 0.522240 0.461445
0.653392 0.535260 0.479814
0.654566 0.548274 0.498194
0.655966 0.562099 0.517753
0.657495 0.575465 0.536628
0.659234 0.588983 0.555688
0.661184 0.602518 0.574711
0.663320 0.615743 0.593228
0.665546 0.628166 0.610533
0.667728 0.639240 0.625860
0.669721 0.648624 0.638772
0.671409 0.656040 0.648916
0.672752 0.661655 0.656552
0.000001 0.000001 0.000001
0.000001 0.000001 0.000001
0.000001 0.000001 0.000001
0.000001 0.000001 0.000001
0.000001 0.000001 0.000001
0.000664 0.000136 0.000001
0.004263 0.000827 0.000001
0.008732 0.001757 0.000001
0.013513 0.002826 0.000001
0.018401 0.003988 0.000001
0.023304 0.005214 0.000001
0.028721 0.006632 0.000001
0.034744 0.008282 0.000001
0.042206 0.010422 0.000001
0.050877 0.013033 0.000424
0.060866 0.016193 0.001250
0.072261 0.019983 0.002256
0.085124 0.024482 0.003567
0.099489 0.029765 0.005274
0.115356 0.035898 0.007460
0.132687 0.042932 0.010209
0.151400 0.050901 0.013599
0.171379 0.059816 0.017702
0.192475 0.069664 0.022571
0.214505 0.080406 0.028244
0.237280 0.091982 0.034737
0.260597 0.104312 0.042042
0.284267 0.117309 0.050128
0.308114 0.130878 0.058944
0.331991 0.144924 0.068422
0.355767 0.159364 0.078478
0.379344 0.174117 0.089017
0.402647 0.189114 0.099938
0.425619 0.204290 0.111127
0.448216 0.219593 0.122469
0.470384 0.234967 0.133843
0.492092 0.250361 0.145126
0.512844 0.265379 0.155157
0.533114 0.280336 0.164833
0.552899 0.295204 0.174174
0.572158 0.309932 0.183131
0.590839 0.324452 0.191661
0.608889 0.338699 0.199720
0.626260 0.352616 0.207168
0.642374 0.365702 0.216790
0.646467 0.379136 0.258035
0.647219 0.412986 0.307175
0.648009 0.439202 0.344362
0.648814 0.460365 0.374233
0.649643 0.478361 0.399604
0.650500 0.494241 0.421981
0.651392 0.508692 0.442345
0.652353 0.522240 0.461445
0.653392 0.535260 0.479814
0.654566 0.548274 0.498194
0.655966 0.562099 0.517753
0.657495 0.575465 0.536628
0.659234 0.588983 0.555688
0.661184 0.602518 0.574711
0.663320 0.615743 0.593228
0.665546 0.628166 0.610533
0.667728 0.639240 0.625860
0.669721 0.648624 0.638772
0.671409 0.656040 0.648916
0.672752 0.661655 0.656552
0.000001 0.000001 0.000001
0.000001 0.000001 0.000001
0.000001 0.000001 0.000001
0.000001 0.000001 0.000001
0.000001 0.000001 0.000001
0.000664 0.000136 0.000001
0.004263 0.000827 0.000001
0.008732 0.001757 0.000001
0.013513 0.002826 0.000001
0.018401 0.003988 0.000001
0.023304 0.005214 0.000001
0.028721 0.006632 0.000001
0.034744 0.008282 0.000001
0.042206 0.010422 0.000001
0.050877 0.013033 0.000424
0.060866 0.016193 0.001250
0.072261 0.019983 0.002256
0.085124 0.024482 0.003567
0.099489 0.029765 0.005274
0.115356 0.035898 0.007460
0.132687 0.042932 0.010209
0.151400 0.050901 0.013599
0.171379 0.059816 0.017702
0.192475 0.069664 0.022571
0.214505 0.080406 0.028244
0.237280 0.091982 0.034737
0.260597 0.104312 0.042042
0.284267 0.117309 0.050128
0.308114 0.130878 0.058944
0.331991 0.144924 0.068422
0.355767 0.159364 0.078478
0.379344 0.174117 0.089017
0.402647 0.189113 0.099937
0.425619 0.204290 0.111127
0.448216 0.219593 0.122469
0.470384 0.234967 0.133843
0.492092 0.250361 0.145126
0.512844 0.265379 0.155157
0.533114 0.280336 0.164833
0.552899 0.295204 0.174172
0.572158 0.309932 0.183131
0.590839 0.324452 0.191661
0.608889 0.338699 0.199719
0.626260 0.352616 0.207168
0.642374 0.365702 0.216790
0.646467 0.379136 0.258035
0.647219 0.412986 0.307175
0.648009 0.439198 0.344362
0.648814 0.460365 0.374233
0.649643 0.478361 0.399604
0.650500 0.494241 0.421981
0.651392 0.508692 0.442345
0.652353 0.522240 0.461445
0.653392 0.535260 0.479814
0.654566 0.548274 0.498194
0.655966 0.562099 0.517753
0.657495 0.575465 0.536628
0.659234 0.588983 0.555688
0.661184 0.602518 0.574711
0.663320 0.615743 0.593228
0.665546 0.628166 0.610533
0.667728 0.639237 0.625866
0.669721 0.648621 0.638772
0.671409 0.656040 0.648916
0.672752 0.661655 0.656552
0.000001 0.000001 0.000001
0.000001 0.000001 0.000001
0.000001 0.000001 0.000001
0.000001 0.000001 0.000001
0.000001 0.000001 0.000001
0.000664 0.000136 0.000001
0.004263 0.000827 0.000001
0.008732 0.001757 0.000001
0.013513 0.002826 0.000001
0.018401 0.003988 0.000001
0.023304 0.005214 0.000001
0.028721 0.006632 0.000001
0.034744 0.008282 0.000001
0.042206 0.010422 0.000001
0.050877 0.013033 0.000424
0.060866 0.016193 0.001250
0.072261 0.019983 0.002256
0.085124 0.024482 0.003567
0.099489 0.029765 0.005274
0.115356 0.035898 0.007460
0.132687 0.042932 0.010209
0.151400 0.050901 0.013599
0.171379 0.059816 0.017702
0.192475 0.069664 0.022571
0.214505 0.080406 0.028244
0.237280 0.091982 0.034737
0.260597 0.104312 0.042042
0.284267 0.117309 0.050128
0.308114 0.130878 0.058944
0.331991 0.144924 0.068422
0.355767 0.159364 0.078478
0.379344 0.174117 0.089017
0.402647 0.189114 0.099938
0.425619 0.204290 0.111127
0.448216 0.219593 0.122469
0.470384 0.234967 0.133843
0.492092 0.250361 0.145126
0.512844 0.265379 0.155157
0.533114 0.280336 0.164833
0.552899 0.295204 0.174172
0.572158 0.309932 0.183131
0.590839 0.324452 0.191661
0.608889 0.338699 0.199720
0.626260 0.352616 0.207169
0.642371 0.365706 0.216790
0.646467 0.379136 0.258035
0.647219 0.412986 0.307175
0.648009 0.439198 0.344362
0.648814 0.460360 0.374233
0.649643 0.478361 0.399604
0.650500 0.494241 0.421981
0.651392 0.508692 0.442345
0.652353 0.522240 0.461445
0.653392 0.535260 0.479814
0.654566 0.548274 0.498194
0.655966 0.562099 0.517753
0.657495 0.575465 0.536626
0.659234 0.588983 0.555688
0.661184 0.602518 0.574711
0.663320 0.615743 0.593228
0.665546 0.628166 0.610533
0.667728 0.639237 0.625866
0.669721 0.648624 0.638772
0.671409 0.656040 0.648916
0.672752 0.661655 0.656552
0.000001 0.000001 0.000001
0.000001 0.000001 0.000001
0.000001 0.000001 0.000001
0.000001 0.000001 0.000001
0.000001 0.000001 0.000001
0.000664 0.000136 0.000001
0.004263 0.000827 0.000001
0.008732 0.001757 0.000001
0.013513 0.002826 0.000001
0.018401 0.003988 0.000001
0.023304 0.005214 0.000001
0.028721 0.006632 0.000001
0.034744 0.008282 0.000001
0.042206 0.010422 0.000001
0.050877 0.013033 0.000424
0.060866 0.016193 0.001250
0.072261 0.019983 0.002256
0.085124 0.024482 0.003567
0.099489 0.029765 0.005274
0.115356 0.035898 0.007460
0.132687 0.042932 0.010209
0.151400 0.050901 0.013599
0.171379 0.059816 0.017702
0.192475 0.069664 0.022570
0.214505 0.080406 0.028244
0.237280 0.091982 0.034737
0.260597 0.104312 0.042042
0.284267 0.117309 0.050128
0.308114 0.130878 0.058944
0.331991 0.144924 0.068422
0.355767 0.159364 0.078478
0.379344 0.174117 0.089017
0.402647 0.189114 0.099938
0.425619 0.204290 0.111127
0.448216 0.219593 0.122469
0.470384 0.234967 0.133843
0.492092 0.250361 0.145126
0.512844 0.265379 0.155157
0.533114 0.280336 0.164833
0.552899 0.295204 0.174172
0.572158 0.309932 0.183131
0.590839 0.324452 0.191661
0.608889 0.338699 0.199720
0.626260 0.352616 0.207168
0.642374 0.365702 0.216790
0.646461 0.379136 0.258033
0.647219 0.412986 0.307175
0.648009 0.439198 0.344362
0.648814 0.460365 0.374233
0.649643 0.478361 0.399604
0.650500 0.494241 0.421981
0.651392 0.508692 0.442345
0.652353 0.522240 0.461445
0.653392 0.535260 0.479814
0.654566 0.548274 0.498194
0.655966 0.562099 0.517753
0.657495 0.575463 0.536626
0.659234 0.588983 0.555688
0.661184 0.602518 0.574711
0.663320 0.615743 0.593228
0.665546 0.628166 0.610533
0.667728 0.639237 0.625860
0.669721 0.648624 0.638772
0.671409 0.656040 0.648916
0.672752 0.661655 0.656552
0.000387 0.000960 0.000101
0.000387 0.000960 0.000101
0.000387 0.000960 0.000101
0.000387 0.000960 0.000101
0.000387 0.000960 0.000101
0.001440 0.001439 0.000137
0.005634 0.002523 0.000156
0.010308 0.003447 0.000001
0.015173 0.004284 0.000001
0.020094 0.005061 0.000001
0.025005 0.005793 0.000001
0.030440 0.007095 0.000001
0.036893 0.008886 0.000001
0.044479 0.011093 0.000001
0.053314 0.013787 0.000001
0.063504 0.017050 0.000001
0.074855 0.020868 0.000001
0.087530 0.025342 0.000001
0.101700 0.030593 0.000001
0.117366 0.036688 0.000001
0.134490 0.043675 0.005093
0.152999 0.051592 0.009255
0.172784 0.060451 0.013881
0.193691 0.070238 0.019156
0.215551 0.080920 0.025178
0.238165 0.092434 0.031989
0.261342 0.104707 0.039589
0.284887 0.117651 0.047950
0.308629 0.131169 0.057019
0.332412 0.145173 0.066730
0.356111 0.159573 0.076997
0.379629 0.174291 0.087728
0.402877 0.189259 0.098818
0.425805 0.204411 0.110159
0.448363 0.219693 0.121632
0.470504 0.235051 0.133122
0.492195 0.250431 0.144505
0.512927 0.265438 0.154613
0.533187 0.280386 0.164363
0.552964 0.295251 0.173765
0.572215 0.309969 0.182778
0.590884 0.324486 0.191357
0.608930 0.338730 0.199455
0.626298 0.352646 0.206914
0.642398 0.365728 0.216606
0.646464 0.379230 0.258011
0.647219 0.413053 0.307172
0.648009 0.439246 0.344362
0.648814 0.460393 0.374234
0.649643 0.478382 0.399608
0.650497 0.494258 0.421989
0.651398 0.508712 0.442354
0.652353 0.522250 0.461448
0.653392 0.535273 0.479820
0.654566 0.548294 0.498211
0.655966 0.562107 0.517760
0.657495 0.575468 0.536631
0.659234 0.588992 0.555694
0.661190 0.602524 0.574717
0.663320 0.615743 0.593228
0.665546 0.628166 0.610533
0.667728 0.639237 0.625860
0.669721 0.648624 0.638772
0.671409 0.656040 0.648916
0.672749 0.661655 0.656549
0.002457 0.005997 0.000854
0.002457 0.005997 0.000854
0.002457 0.005997 0.000854
0.002457 0.005997 0.000854
0.002457 0.005997 0.000854
0.003067 0.006995 0.000692
0.008867 0.008863 0.000829
0.014203 0.010505 0.000919
0.019407 0.011994 0.000968
0.024505 0.013370 0.000978
0.029498 0.014656 0.000947
0.034934 0.016002 0.000858
0.041325 0.017526 0.000648
0.048791 0.019245 0.000001
0.057448 0.021173 0.000001
0.067405 0.023323 0.000001
0.078754 0.025709 0.000001
0.091571 0.028333 0.000001
0.105926 0.032206 0.000001
0.121859 0.038483 0.000001
0.139280 0.045679 0.000001
0.157720 0.053655 0.000001
0.176916 0.062332 0.000001
0.197271 0.071936 0.000001
0.218619 0.082436 0.010464
0.240774 0.093773 0.020772
0.263536 0.105877 0.030382
0.286718 0.118659 0.040206
0.310142 0.132033 0.050443
0.333658 0.145905 0.061125
0.357129 0.160190 0.072221
0.380455 0.174809 0.083661
0.403550 0.189691 0.095337
0.426358 0.204772 0.107167
0.448811 0.219995 0.119066
0.470868 0.235302 0.130919
0.492494 0.250640 0.142615
0.513177 0.265616 0.152966
0.533397 0.280541 0.162940
0.553142 0.295384 0.172537
0.572372 0.310089 0.181717
0.591021 0.324593 0.190438
0.609062 0.338836 0.198582
0.626420 0.352740 0.206149
0.642483 0.365793 0.216057
0.646470 0.379513 0.257947
0.647225 0.413250 0.307168
0.648015 0.439377 0.344371
0.648821 0.460494 0.374249
0.649649 0.478459 0.399623
0.650497 0.494319 0.422001
0.651398 0.508755 0.442371
0.652356 0.522287 0.461465
0.653395 0.535301 0.479836
0.654573 0.548344 0.498265
0.655969 0.562129 0.517775
0.657495 0.575484 0.536646
0.659240 0.589003 0.555707
0.661187 0.602533 0.574731
0.663320 0.615752 0.593237
0.665546 0.628178 0.610542
0.667728 0.639246 0.625866
0.669727 0.648624 0.638775
0.671409 0.656043 0.648916
0.672749 0.661655 0.656552
0.005105 0.012008 0.002008
0.005105 0.012008 0.002008
0.005105 0.012008 0.002008
0.005105 0.012008 0.002008
0.005105 0.012008 0.002008
0.005736 0.013431 0.001407
0.011451 0.015493 0.001601
0.017383 0.017378 0.001750
0.022913 0.019107 0.001866
0.028200 0.020714 0.001954
0.033301 0.022221 0.002013
0.038798 0.023799 0.002048
0.045208 0.025589 0.002045
0.052647 0.027605 0.001974
0.061229 0.029865 0.001776
0.071063 0.032381 0.001320
0.082247 0.035160 0.000001
0.094854 0.038210 0.000001
0.108938 0.041525 0.000001
0.124505 0.045109 0.000001
0.141546 0.048924 0.000001
0.160040 0.054684 0.000001
0.179909 0.063718 0.000001
0.200764 0.073618 0.000001
0.221622 0.083933 0.000001
0.243322 0.095088 0.000001
0.265682 0.107025 0.014658
0.288509 0.119651 0.029622
0.311632 0.132884 0.042194
0.334888 0.146630 0.054419
0.358142 0.160803 0.066654
0.381283 0.175327 0.078989
0.404230 0.190126 0.091415
0.426911 0.205135 0.103880
0.449262 0.220298 0.116303
0.471241 0.235555 0.128594
0.492793 0.250852 0.140653
0.513425 0.265794 0.151278
0.533612 0.280697 0.161492
0.553331 0.295521 0.171279
0.572534 0.310214 0.180604
0.591178 0.324711 0.189423
0.609203 0.338946 0.197696
0.626541 0.352836 0.205374
0.642568 0.365859 0.215506
0.646473 0.379791 0.257883
0.647231 0.413448 0.307164
0.648021 0.439519 0.344376
0.648827 0.460592 0.374263
0.649649 0.478536 0.399640
0.650503 0.494375 0.422019
0.651398 0.508803 0.442390
0.652356 0.522324 0.461480
0.653398 0.535331 0.479852
0.654573 0.548393 0.498317
0.655972 0.562147 0.517794
0.657499 0.575498 0.536656
0.659240 0.589014 0.555720
0.661190 0.602541 0.574733
0.663323 0.615757 0.593242
0.665549 0.628178 0.610547
0.667725 0.639249 0.625869
0.669727 0.648627 0.638781
0.671409 0.656043 0.648919
0.672749 0.661662 0.656552
0.008005 0.018259 0.003408
0.008005 0.018259 0.003408
0.008005 0.018259 0.003408
0.008005 0.018259 0.003408
0.008005 0.018259 0.003408
0.008679 0.019735 0.002180
0.013661 0.022159 0.002456
0.020131 0.024135 0.002641
0.025969 0.025964 0.002797
0.031441 0.027673 0.002928
0.036655 0.029282 0.003035
0.042222 0.030973 0.003128
0.048667 0.032895 0.003205
0.056103 0.035064 0.003248
0.064641 0.037497 0.003226
0.074389 0.040208 0.003090
0.085442 0.043205 0.002742
0.097881 0.046490 0.001946
0.111757 0.050063 0.000001
0.127095 0.053913 0.000001
0.143886 0.058008 0.000001
0.162067 0.062335 0.000001
0.181552 0.066838 0.000001
0.202277 0.074353 0.000001
0.224069 0.085169 0.000001
0.245819 0.096393 0.000001
0.267792 0.108155 0.000001
0.290279 0.120631 0.006520
0.313101 0.133724 0.030681
0.336098 0.147345 0.046308
0.359141 0.161411 0.060298
0.382111 0.175839 0.073838
0.404914 0.190558 0.087164
0.427467 0.205500 0.100329
0.449723 0.220606 0.113316
0.471622 0.235816 0.126069
0.493113 0.251074 0.138508
0.513693 0.265986 0.149422
0.533850 0.280870 0.159893
0.553535 0.295676 0.169902
0.572716 0.310352 0.179413
0.591337 0.324835 0.188390
0.609342 0.339052 0.196798
0.626659 0.352930 0.204594
0.642653 0.365927 0.214953
0.646479 0.380072 0.257819
0.647234 0.413644 0.307156
0.648021 0.439650 0.344381
0.648824 0.460693 0.374274
0.649655 0.478609 0.399659
0.650503 0.494434 0.422039
0.651401 0.508849 0.442409
0.652359 0.522361 0.461500
0.653398 0.535356 0.479868
0.654579 0.548440 0.498371
0.655975 0.562169 0.517812
0.657502 0.575517 0.536674
0.659237 0.589028 0.555728
0.661190 0.602553 0.574747
0.663327 0.615763 0.593251
0.665549 0.628184 0.610547
0.667728 0.639252 0.625875
0.669721 0.648627 0.638778
0.671412 0.656043 0.648922
0.672749 0.661655 0.656555
0.011027 0.024515 0.004973
0.011027 0.024515 0.004973
0.011027 0.024515 0.004973
0.011027 0.024515 0.004973
0.011027 0.024515 0.004973
0.011699 0.025966 0.003008
0.015608 0.028735 0.003370
0.022572 0.030733 0.003579
0.028697 0.032595 0.003762
0.034348 0.034343 0.003922
0.039675 0.035995 0.004060
0.045317 0.037738 0.004190
0.051806 0.039723 0.004317
0.059251 0.041970 0.004427
0.067763 0.044495 0.004500
0.077446 0.047311 0.004501
0.088395 0.050429 0.004375
0.100693 0.053851 0.004020
0.114395 0.057575 0.003222
0.129530 0.061585 0.001132
0.146094 0.065856 0.000001
0.164035 0.070364 0.000001
0.183278 0.075050 0.000001
0.203689 0.079886 0.000001
0.225143 0.085713 0.000001
0.247568 0.097316 0.000001
0.269860 0.109285 0.000001
0.292014 0.121600 0.000001
0.314551 0.134558 0.002506
0.337304 0.148059 0.034946
0.360131 0.162014 0.052664
0.382921 0.176348 0.068070
0.405581 0.190988 0.082547
0.428020 0.205863 0.096553
0.450176 0.220914 0.110185
0.472000 0.236076 0.123445
0.493422 0.251290 0.136280
0.513966 0.266179 0.147516
0.534082 0.281041 0.158263
0.553745 0.295829 0.168499
0.572897 0.310490 0.178202
0.591494 0.324956 0.187345
0.609480 0.339161 0.195891
0.626772 0.353024 0.203807
0.642735 0.365997 0.214400
0.646485 0.380354 0.257757
0.647240 0.413837 0.307152
0.648027 0.439786 0.344387
0.648830 0.460789 0.374288
0.649652 0.478686 0.399672
0.650509 0.494490 0.422055
0.651410 0.508895 0.442425
0.652365 0.522398 0.461518
0.653401 0.535389 0.479884
0.654585 0.548492 0.498421
0.655975 0.562187 0.517826
0.657502 0.575533 0.536689
0.659240 0.589042 0.555741
0.661196 0.602561 0.574758
0.663327 0.615772 0.593256
0.665549 0.628190 0.610556
0.667728 0.639255 0.625875
0.669727 0.648630 0.638784
0.671412 0.656046 0.648922
0.672749 0.661655 0.656555
0.014102 0.030679 0.006652
0.014102 0.030679 0.006652
0.014102 0.030679 0.006652
0.014102 0.030679 0.006652
0.014102 0.030679 0.006652
0.014768 0.032095 0.004270
0.017353 0.035165 0.004326
0.024776 0.037150 0.004552
0.031169 0.039010 0.004754
0.036991 0.040763 0.004934
0.042430 0.042425 0.005094
0.048149 0.044184 0.005251
0.054688 0.046193 0.005413
0.062151 0.048473 0.005569
0.070647 0.051040 0.005704
0.080281 0.053909 0.005792
0.091144 0.057091 0.005793
0.103323 0.060587 0.005638
0.116872 0.064396 0.005210
0.131828 0.068501 0.004258
0.148189 0.072879 0.001907
0.165911 0.077504 0.000001
0.184926 0.082316 0.000001
0.205118 0.087259 0.000001
0.226332 0.092293 0.000001
0.248414 0.097761 0.000001
0.271323 0.110085 0.000001
0.293727 0.122569 0.000001
0.315980 0.135380 0.000001
0.338497 0.148764 0.014078
0.361120 0.162616 0.042547
0.383736 0.176855 0.061231
0.406246 0.191414 0.077475
0.428571 0.206225 0.092507
0.450632 0.221218 0.106884
0.472376 0.236336 0.120714
0.493726 0.251505 0.133975
0.514234 0.266371 0.145561
0.534320 0.281215 0.156594
0.553949 0.295984 0.167069
0.573076 0.310625 0.176973
0.591653 0.325078 0.186284
0.609618 0.339267 0.194975
0.626894 0.353120 0.203012
0.642821 0.366063 0.213844
0.646488 0.380633 0.257696
0.647247 0.414028 0.307146
0.648033 0.439918 0.344394
0.648836 0.460890 0.374299
0.649658 0.478763 0.399687
0.650509 0.494551 0.422077
0.651410 0.508941 0.442442
0.652365 0.522430 0.461535
0.653405 0.535420 0.479900
0.654588 0.548538 0.498473
0.655975 0.562208 0.517843
0.657502 0.575553 0.536705
0.659240 0.589059 0.555757
0.661196 0.602570 0.574763
0.663327 0.615784 0.593265
0.665552 0.628193 0.610562
0.667728 0.639258 0.625881
0.669727 0.648637 0.638784
0.671409 0.656046 0.648925
0.672749 0.661662 0.656558
0.017543 0.037382 0.008612
0.017543 0.037382 0.008612
0.017543 0.037382 0.008612
0.017543 0.037382 0.008612
0.017543 0.037382 0.008612
0.018205 0.038752 0.006372
0.019958 0.042144 0.005422
0.027006 0.044070 0.005665
0.033679 0.045905 0.005881
0.039683 0.047641 0.006078
0.045241 0.049293 0.006256
0.051047 0.051044 0.006434
0.057645 0.053050 0.006623
0.065137 0.055333 0.006816
0.073626 0.057912 0.007001
0.083216 0.060801 0.007157
0.094003 0.064010 0.007252
0.106065 0.067544 0.007236
0.119466 0.071396 0.007028
0.134242 0.075559 0.006482
0.150399 0.080002 0.005291
0.167904 0.084693 0.002376
0.186683 0.089594 0.000001
0.206640 0.094631 0.000001
0.227631 0.099742 0.000001
0.249489 0.104882 0.000001
0.272057 0.110488 0.000001
0.295294 0.123457 0.000001
0.317555 0.136302 0.000001
0.339806 0.149542 0.000001
0.362213 0.163282 0.025054
0.384639 0.177425 0.051638
0.406991 0.191893 0.070853
0.429176 0.206623 0.087624
0.451137 0.221556 0.102984
0.472798 0.236623 0.117531
0.494070 0.251745 0.131318
0.514534 0.266586 0.143320
0.534581 0.281405 0.154691
0.554183 0.296155 0.165444
0.573277 0.310777 0.175581
0.591827 0.325211 0.185087
0.609768 0.339387 0.193939
0.627027 0.353224 0.202115
0.642912 0.366134 0.213224
0.646495 0.380946 0.257628
0.647253 0.414248 0.307139
0.648039 0.440070 0.344400
0.648836 0.460997 0.374315
0.649661 0.478843 0.399708
0.650515 0.494614 0.422095
0.651413 0.508991 0.442463
0.652371 0.522475 0.461553
0.653411 0.535450 0.479921
0.654594 0.548593 0.498530
0.655981 0.562232 0.517858
0.657508 0.575569 0.536720
0.659244 0.589067 0.555765
0.661196 0.602581 0.574780
0.663327 0.615790 0.593276
0.665552 0.628199 0.610568
0.667728 0.639261 0.625887
0.669727 0.648633 0.638784
0.671409 0.656046 0.648928
0.672749 0.661662 0.656555
0.021679 0.045218 0.011064
0.021679 0.045218 0.011064
0.021679 0.045219 0.011064
0.021679 0.045219 0.011064
0.021679 0.045219 0.011064
0.022331 0.046532 0.008934
0.024314 0.050301 0.006771
0.029444 0.052114 0.007037
0.036434 0.053900 0.007265
0.042643 0.055598 0.007475
0.048340 0.057218 0.007668
0.054249 0.058941 0.007864
0.060922 0.060920 0.008077
0.068454 0.063178 0.008302
0.076947 0.065737 0.008529
0.086500 0.068613 0.008742
0.097209 0.071816 0.008917
0.109152 0.075351 0.009014
0.122398 0.079214 0.008972
0.136984 0.083394 0.008691
0.152920 0.087868 0.007998
0.170183 0.092595 0.006520
0.188709 0.097535 0.002931
0.208402 0.102636 0.000001
0.229136 0.107817 0.000001
0.250756 0.113009 0.000001
0.273087 0.118166 0.000001
0.295971 0.123843 0.000001
0.319391 0.137378 0.000001
0.341372 0.150485 0.000001
0.363514 0.164079 0.000001
0.385731 0.178106 0.034976
0.407897 0.192475 0.061019
0.429923 0.207116 0.080707
0.451741 0.221964 0.097902
0.473298 0.236969 0.113462
0.494485 0.252036 0.127962
0.514892 0.266845 0.140515
0.534900 0.281637 0.152325
0.554456 0.296363 0.163435
0.573524 0.310961 0.173864
0.592040 0.325376 0.183614
0.609953 0.339529 0.192672
0.627187 0.353351 0.201019
0.643018 0.366227 0.212472
0.646501 0.381327 0.257545
0.647259 0.414508 0.307130
0.648042 0.440254 0.344408
0.648848 0.461135 0.374331
0.649664 0.478945 0.399729
0.650521 0.494696 0.422115
0.651416 0.509054 0.442486
0.652368 0.522522 0.461575
0.653411 0.535493 0.479939
0.654600 0.548661 0.498605
0.655984 0.562256 0.517880
0.657508 0.575591 0.536735
0.659247 0.589084 0.555780
0.661196 0.602595 0.574790
0.663333 0.615798 0.593285
0.665552 0.628211 0.610573
0.667728 0.639267 0.625887
0.669727 0.648640 0.638796
0.671409 0.656046 0.648928
0.672752 0.661662 0.656558
0.026601 0.054285 0.014096
0.026601 0.054285 0.014096
0.026601 0.054285 0.014096
0.026601 0.054285 0.014096
0.026601 0.054285 0.014096
0.027237 0.055534 0.012060
0.029272 0.059342 0.008362
0.032081 0.061381 0.008717
0.039427 0.063097 0.008953
0.045870 0.064734 0.009173
0.051726 0.066303 0.009378
0.057755 0.067975 0.009589
0.064519 0.069902 0.009821
0.072108 0.072107 0.010071
0.080617 0.074613 0.010333
0.090142 0.077440 0.010594
0.100775 0.080599 0.010835
0.112601 0.084098 0.011024
0.125684 0.087929 0.011115
0.140069 0.092085 0.011032
0.155771 0.096544 0.010657
0.172768 0.101272 0.009782
0.191017 0.106215 0.007961
0.210426 0.111325 0.003579
0.230871 0.116541 0.000001
0.252217 0.121776 0.000001
0.274299 0.126963 0.000001
0.296943 0.132048 0.000001
0.320004 0.137740 0.000001
0.343231 0.151612 0.000001
0.365075 0.165042 0.000001
0.387027 0.178921 0.000001
0.408984 0.193174 0.044622
0.430833 0.207714 0.070570
0.452494 0.222472 0.090651
0.473903 0.237386 0.108164
0.494983 0.252385 0.123674
0.515332 0.267159 0.136971
0.535280 0.281915 0.149359
0.554794 0.296612 0.160932
0.573817 0.311185 0.171738
0.592297 0.325573 0.181797
