OCIO/luts/ACES2_Output_v2.0.0/ACES2 Output v2.0.0 Rec2100 (P3D65 500nit Limited).cube
TITLE "Generated by Foundry::LUT"
LUT_3D_SIZE 9
0.000001 0.000001 0.000001
0.013513 0.002826 0.000001
0.072261 0.019983 0.002256
0.214505 0.080406 0.028244
0.402647 0.189113 0.099937
0.572158 0.309932 0.183131
0.648814 0.460365 0.374233
0.657495 0.575465 0.536628
0.672752 0.661655 0.656552
0.008005 0.018259 0.003408
0.025969 0.025964 0.002797
0.085442 0.043205 0.002742
0.224069 0.085169 0.000001
0.404914 0.190558 0.087164
0.572716 0.310352 0.179413
0.648824 0.460693 0.374274
0.657502 0.575517 0.536674
0.672749 0.661655 0.656555
0.046912 0.089564 0.027563
0.052111 0.098583 0.016346
0.113613 0.113616 0.018623
0.237649 0.147129 0.016914
0.413650 0.196220 0.000001
0.575111 0.312169 0.161520
0.648876 0.462006 0.374441
0.657526 0.575738 0.536860
0.672752 0.661668 0.656561
0.145994 0.237708 0.104417
0.148187 0.241083 0.093417
0.160550 0.251072 0.061661
0.266306 0.266566 0.064131
0.419428 0.294172 0.052976
0.585885 0.320430 0.000001
0.649093 0.467604 0.375076
0.657632 0.576681 0.537669
0.672762 0.661708 0.656611
0.282308 0.412759 0.223833
0.282802 0.413458 0.220736
0.284672 0.416166 0.204197
0.304298 0.424397 0.137955
0.431451 0.432101 0.136256
0.582793 0.439321 0.106053
0.650152 0.491144 0.379766
0.658092 0.580635 0.540941
0.672809 0.661909 0.656822
0.413142 0.564978 0.342737
0.413236 0.565109 0.341915
0.413666 0.565695 0.338178
0.415726 0.568492 0.317549
0.441779 0.576624 0.225698
0.572841 0.573796 0.216284
0.655408 0.564975 0.422390
0.660472 0.599091 0.559368
0.673016 0.662807 0.657791
0.506364 0.667337 0.424238
0.506385 0.667368 0.424014
0.506481 0.667491 0.423099
0.506875 0.668015 0.419012
0.508444 0.670098 0.400052
0.545787 0.670769 0.337319
0.656878 0.658232 0.272007
0.667889 0.643051 0.609863
0.673843 0.666250 0.661693
0.635594 0.674021 0.616157
0.635600 0.674021 0.616154
0.635636 0.674027 0.616174
0.635766 0.674031 0.616215
0.636247 0.674053 0.616247
0.638304 0.674142 0.616273
0.647271 0.674556 0.617139
0.673798 0.675860 0.596730
0.675203 0.671818 0.667592
0.671251 0.676196 0.668498
0.671251 0.676196 0.668498
0.671251 0.676189 0.668501
0.671254 0.676189 0.668498
0.671270 0.676196 0.668504
0.671339 0.676196 0.668536
0.671631 0.676218 0.668640
0.672831 0.676291 0.669101
0.676132 0.676486 0.669022
0.001378 0.000963 0.007606
0.018202 0.004284 0.017991
0.076346 0.021753 0.039336
0.215852 0.081381 0.083011
0.402688 0.189293 0.142840
0.572063 0.309904 0.203354
0.648817 0.460336 0.376487
0.657573 0.576087 0.537702
0.672755 0.661690 0.656605
0.010773 0.021894 0.021815
0.028771 0.028771 0.028771
0.094102 0.037109 0.038495
0.225620 0.086182 0.072962
0.404935 0.190722 0.135785
0.572588 0.310303 0.200416
0.648836 0.460669 0.376526
0.657579 0.576138 0.537753
0.672758 0.661693 0.656611
0.049383 0.091879 0.056686
0.054461 0.101047 0.051169
0.116523 0.116017 0.042102
0.244688 0.138593 0.045550
0.412884 0.196439 0.098667
0.574660 0.311867 0.187977
0.648888 0.461980 0.376678
0.657604 0.576359 0.537939
0.672762 0.661702 0.656620
0.146945 0.238068 0.128863
0.149135 0.241437 0.122772
0.156955 0.253698 0.064027
0.267407 0.267075 0.064280
0.422498 0.288960 0.047354
0.586095 0.320601 0.000001
0.649170 0.468989 0.379416
0.657716 0.577301 0.538747
0.672771 0.661752 0.656667
0.282489 0.412663 0.234210
0.282978 0.413360 0.231492
0.284830 0.416010 0.218695
0.299833 0.425231 0.138499
0.431609 0.432015 0.136191
0.583870 0.438246 0.104275
0.650195 0.491847 0.383096
0.658164 0.581213 0.541969
0.672819 0.661946 0.656878
0.413185 0.564948 0.345812
0.413281 0.565082 0.345011
0.413672 0.565612 0.341743
0.415696 0.568371 0.322188
0.440733 0.576867 0.225887
0.572889 0.573787 0.216271
0.655442 0.565216 0.424399
0.660531 0.599477 0.560105
0.673028 0.662838 0.657837
0.506356 0.667312 0.425148
0.506380 0.667343 0.424922
0.506476 0.667469 0.424014
0.506873 0.667990 0.419955
0.508442 0.670066 0.401923
0.546128 0.670775 0.340746
0.656884 0.658235 0.272011
0.667908 0.643130 0.610080
0.673846 0.666263 0.661715
0.635627 0.674027 0.616235
0.635639 0.674027 0.616235
0.635672 0.674027 0.616256
0.635808 0.674031 0.616308
0.636286 0.674053 0.616337
0.638343 0.674142 0.616363
0.647292 0.674556 0.617215
0.673805 0.675860 0.596789
0.675203 0.671818 0.667599
0.671251 0.676189 0.668501
0.671251 0.676189 0.668504
0.671254 0.676189 0.668504
0.671254 0.676196 0.668504
0.671273 0.676192 0.668504
0.671339 0.676202 0.668533
0.671634 0.676218 0.668640
0.672835 0.676291 0.669101
0.676132 0.676486 0.669029
0.011060 0.009972 0.046265
0.030116 0.009622 0.061444
0.089556 0.027991 0.088669
0.221242 0.085056 0.141253
0.403191 0.190110 0.204084
0.571763 0.309854 0.249846
0.648842 0.460114 0.384317
0.657819 0.577984 0.541120
0.672796 0.661837 0.656819
0.021572 0.034758 0.061439
0.032824 0.031461 0.083473
0.101465 0.039768 0.101912
0.230007 0.089393 0.141241
0.405407 0.191504 0.200665
0.572293 0.310250 0.247898
0.648854 0.460454 0.384361
0.657834 0.578097 0.541254
0.672793 0.661837 0.656825
0.058248 0.101066 0.100849
0.062686 0.107802 0.107823
0.120543 0.120544 0.120543
0.253573 0.129495 0.133075
0.413228 0.197840 0.185373
0.574382 0.311824 0.239970
0.648906 0.461805 0.384535
0.657887 0.578540 0.541769
0.672796 0.661849 0.656834
0.150572 0.240213 0.173365
0.152624 0.243339 0.171758
0.160006 0.254864 0.158688
0.269659 0.269019 0.138809
0.425508 0.284800 0.155932
0.582603 0.331512 0.207925
0.649324 0.471745 0.391280
0.658021 0.579696 0.542887
0.672809 0.661890 0.656881
0.283231 0.412486 0.262792
0.283715 0.413175 0.260913
0.285521 0.415775 0.252691
0.295589 0.426113 0.179814
0.431834 0.431861 0.153198
0.585339 0.437478 0.165358
0.650441 0.495487 0.396830
0.658484 0.583588 0.546125
0.672850 0.662087 0.657086
0.413362 0.564841 0.356798
0.413460 0.564972 0.356082
0.413847 0.565505 0.353150
0.415570 0.567849 0.339106
0.437948 0.577561 0.226421
0.572933 0.573701 0.216203
0.655585 0.566298 0.432362
0.660762 0.600947 0.562941
0.673054 0.662954 0.658008
0.506383 0.667249 0.428999
0.506407 0.667283 0.428815
0.506508 0.667406 0.428073
0.506942 0.667964 0.424708
0.508430 0.669924 0.409025
0.547537 0.670807 0.353667
0.656878 0.658241 0.272014
0.667977 0.643422 0.610917
0.673859 0.666319 0.661809
0.635781 0.674034 0.616553
0.635784 0.674034 0.616559
0.635820 0.674034 0.616570
0.635970 0.674040 0.616649
0.636457 0.674066 0.616704
0.638503 0.674152 0.616719
0.647378 0.674562 0.617501
0.673808 0.675864 0.597009
0.675206 0.671828 0.667617
0.671254 0.676196 0.668504
0.671254 0.676196 0.668504
0.671254 0.676196 0.668511
0.671257 0.676189 0.668511
0.671273 0.676196 0.668517
0.671343 0.676196 0.668542
0.671641 0.676215 0.668649
0.672838 0.676291 0.669111
0.676132 0.676486 0.669029
0.054697 0.056582 0.161456
0.057720 0.031502 0.179578
0.121114 0.048556 0.198534
0.239292 0.098330 0.237425
0.406304 0.193858 0.291176
0.571240 0.310090 0.329331
0.648922 0.459324 0.408800
0.658450 0.582642 0.550331
0.672939 0.662425 0.657704
0.062843 0.077977 0.169350
0.065631 0.062365 0.188603
0.123464 0.050960 0.210114
0.244331 0.101140 0.243299
0.408244 0.195078 0.290824
0.571760 0.310478 0.328416
0.648934 0.459668 0.408831
0.658468 0.582752 0.550448
0.672939 0.662425 0.657710
0.090430 0.132984 0.194482
0.093258 0.133346 0.205337
0.122291 0.117272 0.245136
0.258143 0.133121 0.259000
0.415121 0.199956 0.288647
0.573825 0.312016 0.324824
0.648986 0.461029 0.408941
0.658521 0.583182 0.550939
0.672939 0.662437 0.657716
0.165078 0.250834 0.250513
0.166699 0.252932 0.252705
0.172515 0.260433 0.260585
0.271727 0.271727 0.271727
0.427426 0.284020 0.283558
0.581592 0.333586 0.313473
0.649465 0.472280 0.416117
0.658761 0.585070 0.553087
0.672952 0.662481 0.657763
0.286658 0.412983 0.322789
0.287107 0.413617 0.322164
0.288791 0.416030 0.319367
0.303999 0.425047 0.301431
0.431627 0.431750 0.296369
0.578844 0.446038 0.328838
0.651490 0.510366 0.442425
0.659755 0.592628 0.561645
0.672997 0.662663 0.657955
0.414126 0.564510 0.390805
0.414219 0.564641 0.390300
0.414601 0.565165 0.388280
0.416109 0.567234 0.379923
0.442390 0.576283 0.322663
0.571873 0.572865 0.323589
0.656136 0.570192 0.459173
0.661727 0.606929 0.574211
0.673181 0.663452 0.658780
0.506546 0.667107 0.441387
0.506577 0.667148 0.441330
0.506700 0.667286 0.441118
0.507185 0.667832 0.440467
0.514651 0.669323 0.434740
0.553889 0.670962 0.398772
0.656505 0.658030 0.318805
0.668274 0.644615 0.614260
0.673926 0.666565 0.662218
0.636394 0.674066 0.617904
0.636406 0.674072 0.617910
0.636439 0.674072 0.617925
0.636586 0.674075 0.617998
0.637192 0.674101 0.618237
0.639188 0.674190 0.618243
0.647758 0.674588 0.618726
0.673830 0.675867 0.597970
0.675216 0.671860 0.667706
0.671267 0.676196 0.668542
0.671270 0.676196 0.668542
0.671270 0.676196 0.668542
0.671273 0.676192 0.668542
0.671289 0.676196 0.668548
0.671355 0.676196 0.668574
0.671653 0.676215 0.668678
0.672838 0.676291 0.669133
0.676132 0.676486 0.669041
0.157036 0.168882 0.350445
0.157902 0.159299 0.357044
0.163966 0.101159 0.380658
0.271886 0.133122 0.391004
0.417474 0.207840 0.414905
0.571673 0.312716 0.437007
0.649231 0.458503 0.462144
0.658820 0.584342 0.560877
0.673461 0.664474 0.660762
0.160263 0.178641 0.351974
0.161140 0.170980 0.358269
0.164610 0.102516 0.384441
0.272247 0.134064 0.394809
0.418465 0.208540 0.416147
0.572122 0.313047 0.436920
0.649247 0.458849 0.462162
0.658845 0.584500 0.561052
0.673458 0.664478 0.660762
0.172002 0.208650 0.358032
0.172939 0.205260 0.363133
0.175707 0.178306 0.385170
0.272404 0.142022 0.407246
0.421977 0.211032 0.420628
0.573896 0.314359 0.436640
0.649296 0.460210 0.462243
0.658923 0.585131 0.561756
0.673458 0.664487 0.660765
0.211703 0.286164 0.377915
0.212469 0.286091 0.380685
0.215183 0.284771 0.391758
0.272135 0.269784 0.425235
0.428595 0.285233 0.428469
0.580514 0.334923 0.436642
0.649793 0.471801 0.467511
0.659287 0.587898 0.564863
0.673467 0.664515 0.660796
0.301445 0.419301 0.418940
0.301780 0.419693 0.419358
0.303043 0.421153 0.420935
0.314064 0.426447 0.426635
0.431941 0.431939 0.431941
0.569656 0.455862 0.451672
0.652014 0.512664 0.489335
0.660862 0.599318 0.577848
0.673496 0.664644 0.660918
0.417339 0.564005 0.461456
0.417424 0.564125 0.461275
0.417771 0.564603 0.460544
0.419105 0.566451 0.457568
0.456375 0.571057 0.449766
0.567930 0.568982 0.470500
0.657691 0.579957 0.518192
0.664945 0.624905 0.606160
0.673633 0.665222 0.661480
0.507152 0.666515 0.479868
0.507185 0.666552 0.479829
0.507293 0.666682 0.479679
0.507760 0.667214 0.479109
0.519857 0.668267 0.481094
0.570697 0.665527 0.491992
0.651884 0.654359 0.491265
0.669209 0.648287 0.624598
0.674167 0.667476 0.663747
0.638536 0.674190 0.622773
0.638551 0.674190 0.622787
0.638615 0.674193 0.622849
0.638895 0.674206 0.623117
0.639481 0.674234 0.623365
0.641679 0.674336 0.623887
0.649158 0.674680 0.623359
0.673926 0.675895 0.601903
0.675257 0.671996 0.668075
0.671330 0.676196 0.668691
0.671330 0.676196 0.668684
0.671330 0.676196 0.668691
0.671333 0.676202 0.668691
0.671349 0.676196 0.668697
0.671416 0.676202 0.668722
0.671707 0.676221 0.668820
0.672873 0.676295 0.669244
0.676135 0.676486 0.669098
0.286857 0.308256 0.538026
0.287015 0.305566 0.539598
0.287642 0.293023 0.546009
0.298693 0.199238 0.570784
0.430372 0.241675 0.573383
0.575672 0.324340 0.572710
0.650500 0.464768 0.545807
0.659624 0.587508 0.582937
0.673964 0.666367 0.663982
0.287629 0.311133 0.538026
0.287788 0.308553 0.539590
0.288415 0.296638 0.545931
0.296996 0.199424 0.571938
0.430362 0.241889 0.574195
0.575874 0.324505 0.572979
0.650509 0.465084 0.545825
0.659642 0.587672 0.583086
0.673961 0.666367 0.663985
0.290670 0.321522 0.538240
0.290817 0.319470 0.539644
0.291434 0.309761 0.545632
0.294815 0.200905 0.576117
0.430260 0.242718 0.577399
0.576668 0.325162 0.574026
0.650567 0.466540 0.545993
0.659726 0.588307 0.583660
0.673964 0.666382 0.664010
0.303302 0.356467 0.540506
0.303438 0.355447 0.541595
0.303964 0.351013 0.545970
0.308069 0.318389 0.568519
0.429655 0.281762 0.585142
0.579395 0.334669 0.577651
0.651072 0.477677 0.548762
0.660091 0.591071 0.586195
0.673983 0.666455 0.664082
0.345462 0.441431 0.549227
0.345595 0.441322 0.549813
0.346115 0.440882 0.552137
0.350789 0.438762 0.561732
0.440698 0.443271 0.566507
0.571365 0.457281 0.569289
0.653247 0.516141 0.560086
0.661677 0.602393 0.596707
0.674053 0.666763 0.664430
0.429717 0.565219 0.564823
0.429776 0.565285 0.564898
0.430017 0.565542 0.565186
0.430841 0.566426 0.566212
0.460111 0.568613 0.568672
0.567113 0.567113 0.567113
0.653022 0.589720 0.586095
0.666458 0.631471 0.624468
0.674333 0.667895 0.665703
0.509100 0.664296 0.556270
0.509119 0.664321 0.556262
0.509206 0.664418 0.556220
0.509544 0.664829 0.556036
0.517373 0.666008 0.555801
0.590214 0.652895 0.582047
0.644734 0.645933 0.600251
0.670455 0.652655 0.639433
0.674728 0.669560 0.667255
0.638998 0.674250 0.629429
0.639010 0.674257 0.629441
0.639073 0.674257 0.629489
0.639327 0.674266 0.629697
0.640461 0.674327 0.630603
0.644621 0.674534 0.633758
0.652026 0.674894 0.634493
0.673970 0.675975 0.617119
0.675385 0.672390 0.669209
0.671549 0.676215 0.669240
0.671555 0.676215 0.669240
0.671549 0.676215 0.669240
0.671558 0.676215 0.669247
0.671571 0.676215 0.669247
0.671631 0.676221 0.669266
0.671901 0.676240 0.669348
0.672978 0.676304 0.669651
0.676144 0.676489 0.669297
0.400734 0.437098 0.674970
0.401250 0.436932 0.674977
0.403389 0.436318 0.674970
0.414187 0.434817 0.674967
0.455546 0.431590 0.674948
0.555194 0.445672 0.674913
0.655173 0.497852 0.654897
0.662268 0.601320 0.622014
0.674148 0.666855 0.666159
0.400999 0.437750 0.674977
0.401510 0.437582 0.674977
0.403650 0.436984 0.674977
0.414410 0.435488 0.674964
0.455617 0.432208 0.674945
0.555189 0.446189 0.674919
0.655188 0.498227 0.654907
0.662287 0.601451 0.622093
0.674148 0.666855 0.666162
0.401896 0.440229 0.674977
0.402458 0.440095 0.674977
0.404683 0.439577 0.674980
0.415291 0.438125 0.674970
0.455905 0.434622 0.674954
0.555181 0.448242 0.674919
0.655275 0.499857 0.654938
0.662356 0.601969 0.622399
0.674152 0.666871 0.666175
0.405585 0.450399 0.675002
0.406177 0.450311 0.675002
0.408491 0.449958 0.675002
0.418990 0.448902 0.674996
0.457548 0.445118 0.674977
0.555423 0.457900 0.674948
0.655637 0.506707 0.655089
0.662675 0.604194 0.623748
0.674167 0.666934 0.666238
0.417940 0.485288 0.675104
0.418455 0.485233 0.675104
0.420526 0.485037 0.675101
0.433618 0.486565 0.675104
0.478169 0.494267 0.674193
0.560362 0.501101 0.673817
0.657163 0.531553 0.655752
0.663998 0.613137 0.629254
0.674231 0.667214 0.666508
0.456507 0.564833 0.675490
0.456498 0.564815 0.675490
0.456453 0.564734 0.675487
0.463500 0.565219 0.675490
0.501678 0.568944 0.673118
0.578688 0.582124 0.650635
0.653192 0.590946 0.649953
0.667709 0.635399 0.643419
0.674480 0.668236 0.667491
0.514648 0.657247 0.656784
0.514656 0.657250 0.656794
0.514673 0.657269 0.656822
0.514748 0.657340 0.656943
0.521604 0.657390 0.657107
0.590462 0.648554 0.648290
0.643362 0.643362 0.643362
0.671228 0.654161 0.653040
0.674958 0.670269 0.669310
0.639699 0.674397 0.645356
0.639711 0.674397 0.645362
0.639759 0.674397 0.645387
0.639965 0.674410 0.645478
0.640855 0.674448 0.645872
0.644232 0.674613 0.647228
0.655003 0.673184 0.651743
0.669632 0.670110 0.658381
0.675490 0.672593 0.670582
0.671669 0.676227 0.670167
0.671669 0.676227 0.670167
0.671669 0.676227 0.670167
0.671676 0.676231 0.670170
0.671695 0.676234 0.670186
0.671780 0.676240 0.670234
0.672110 0.676259 0.670398
0.673086 0.676320 0.670569
0.676141 0.676499 0.670110
0.567355 0.583856 0.675567
0.567422 0.583892 0.675560
0.567712 0.584019 0.675564
0.568987 0.584591 0.675567
0.572328 0.585211 0.675567
0.583003 0.585120 0.675554
0.628217 0.603916 0.675666
0.668687 0.635246 0.667946
0.674594 0.668280 0.669984
0.567427 0.583942 0.675560
0.567500 0.583972 0.675567
0.567787 0.584099 0.675564
0.569063 0.584677 0.675573
0.572423 0.585316 0.675573
0.583086 0.585217 0.675554
0.628249 0.603994 0.675666
0.668694 0.635279 0.667952
0.674594 0.668286 0.669984
0.567736 0.584273 0.675567
0.567806 0.584304 0.675567
0.568097 0.584436 0.675567
0.569367 0.585009 0.675573
0.572816 0.585735 0.675573
0.583398 0.585621 0.675560
0.628386 0.604291 0.675662
0.668713 0.635402 0.667977
0.674594 0.668293 0.669990
0.568715 0.585444 0.675579
0.568837 0.585510 0.675579
0.569305 0.585793 0.675579
0.570684 0.586464 0.675586
0.574540 0.587578 0.675586
0.584763 0.587364 0.675573
0.628980 0.605604 0.675682
0.668798 0.635949 0.668072
0.674604 0.668337 0.670015
0.572079 0.589722 0.675605
0.572187 0.589792 0.675611
0.572640 0.590060 0.675611
0.574646 0.591250 0.675624
0.581526 0.595041 0.675650
0.591541 0.595604 0.675637
0.631510 0.611073 0.675733
0.669177 0.638213 0.668473
0.674652 0.668517 0.670148
0.585269 0.605779 0.675745
0.585355 0.605827 0.675745
0.585724 0.606031 0.675745
0.587353 0.606920 0.675758
0.594228 0.610732 0.675790
0.612830 0.620375 0.675867
0.639539 0.627896 0.675915
0.670367 0.645188 0.669759
0.674811 0.669215 0.670636
0.616920 0.641446 0.676128
0.616958 0.641464 0.676132
0.617113 0.641522 0.676132
0.617808 0.641767 0.676138
0.620759 0.642839 0.676144
0.630773 0.646348 0.676176
0.649523 0.651007 0.672339
0.672231 0.655575 0.670905
0.675136 0.670655 0.671561
0.637547 0.674550 0.674486
0.637553 0.674550 0.674486
0.637580 0.674556 0.674486
0.637707 0.674556 0.674486
0.638277 0.674582 0.674486
0.640673 0.674690 0.674410
0.655687 0.671076 0.670880
0.669266 0.669266 0.669266
0.675554 0.672717 0.672507
0.671568 0.676240 0.672066
0.671568 0.676240 0.672066
0.671568 0.676240 0.672066
0.671574 0.676247 0.672069
0.671587 0.676247 0.672072
0.671657 0.676247 0.672091
0.671964 0.676266 0.672168
0.673461 0.675835 0.672959
0.675669 0.675729 0.674378
0.656400 0.659714 0.676336
0.656409 0.659720 0.676336
0.656431 0.659739 0.676336
0.656546 0.659811 0.676336
0.657033 0.660147 0.676342
0.658683 0.661215 0.676355
0.661171 0.662087 0.676365
0.668678 0.665404 0.676403
0.675471 0.671536 0.675028
0.656403 0.659720 0.676336
0.656409 0.659726 0.676336
0.656434 0.659739 0.676336
0.656546 0.659814 0.676336
0.657036 0.660147 0.676342
0.658683 0.661218 0.676355
0.661180 0.662087 0.676365
0.668681 0.665414 0.676403
0.675471 0.671536 0.675021
0.656415 0.659726 0.676330
0.656418 0.659733 0.676336
0.656443 0.659748 0.676336
0.656555 0.659826 0.676336
0.657045 0.660157 0.676342
0.658696 0.661230 0.676355
0.661190 0.662102 0.676362
0.668684 0.665417 0.676400
0.675471 0.671536 0.675028
0.656456 0.659776 0.676336
0.656462 0.659773 0.676336
0.656487 0.659792 0.676336
0.656592 0.659870 0.676336
0.657086 0.660200 0.676342
0.658749 0.661287 0.676355
0.661249 0.662165 0.676362
0.668703 0.665455 0.676403
0.675474 0.671549 0.675028
0.656639 0.659976 0.676336
0.656648 0.659982 0.676336
0.656670 0.659998 0.676336
0.656781 0.660076 0.676339
0.657259 0.660400 0.676346
0.658988 0.661537 0.676358
0.661502 0.662456 0.676368
0.668779 0.665602 0.676406
0.675481 0.671580 0.675040
0.657443 0.660853 0.676349
0.657449 0.660856 0.676349
0.657471 0.660874 0.676352
0.657567 0.660943 0.676349
0.658008 0.661230 0.676355
0.659742 0.662372 0.676371
0.662503 0.663580 0.676387
0.669079 0.666231 0.676413
0.675509 0.671717 0.675082
0.660309 0.663966 0.676397
0.660316 0.663972 0.676397
0.660331 0.663985 0.676397
0.660400 0.664023 0.676394
0.660703 0.664205 0.676400
0.661915 0.664927 0.676410
0.664952 0.666489 0.676429
0.669841 0.668021 0.676445
0.675605 0.672149 0.675213
0.666272 0.670386 0.676496
0.666272 0.670386 0.676496
0.666282 0.670392 0.676496
0.666301 0.670398 0.676496
0.666398 0.670433 0.676496
0.666798 0.670576 0.676499
0.668062 0.670921 0.676502
0.671355 0.671650 0.675225
0.675733 0.673353 0.675445
0.671542 0.676282 0.676183
0.671536 0.676279 0.676183
0.671542 0.676279 0.676183
0.671542 0.676279 0.676183
0.671555 0.676279 0.676183
0.671612 0.676288 0.676183
0.671885 0.676253 0.676157
0.673954 0.675656 0.675624
0.675765 0.675758 0.675765
