OCIO/luts/ACES2_Output_v2.0.0/ACES2 Output v2.0.0 P3D65 (Rec709 sim)_inverse.cube
TITLE "Generated by Foundry::LUT"
LUT_3D_SIZE 9
0.072906 0.072906 0.072906
0.280470 0.101561 0.076291
0.354366 0.147291 0.082593
0.404218 0.194668 0.089486
0.444647 0.231113 0.096579
0.480165 0.261964 0.103785
0.512831 0.289745 0.111107
0.543897 0.315978 0.118779
0.574374 0.341831 0.127393
0.161552 0.264266 0.096889
0.252489 0.255688 0.093839
0.345211 0.242989 0.094412
0.401081 0.247114 0.097631
0.443508 0.262193 0.102497
0.479804 0.281904 0.108274
0.512818 0.303401 0.114588
0.544049 0.325887 0.121657
0.574623 0.349340 0.129862
0.241600 0.344070 0.136576
0.267875 0.343083 0.133472
0.335582 0.338763 0.128335
0.394362 0.334854 0.128089
0.440520 0.335018 0.126480
0.478915 0.340277 0.127917
0.513061 0.349925 0.130969
0.544944 0.363192 0.135496
0.575935 0.379690 0.142012
0.293775 0.400676 0.178502
0.304980 0.400498 0.177240
0.345431 0.399656 0.172170
0.395261 0.398347 0.168204
0.440290 0.398121 0.167205
0.479642 0.400048 0.163440
0.514801 0.404804 0.162030
0.547483 0.412720 0.163052
0.579143 0.424041 0.166703
0.335839 0.448455 0.209747
0.341988 0.448459 0.209258
0.367536 0.448497 0.206993
0.406006 0.448700 0.203334
0.446514 0.449473 0.200478
0.484492 0.451529 0.198578
0.519663 0.455445 0.195944
0.552864 0.461765 0.194746
0.585273 0.471111 0.196170
0.373356 0.492142 0.234269
0.377284 0.492209 0.234051
0.394782 0.492554 0.232997
0.424433 0.493374 0.231022
0.459356 0.494927 0.228649
0.494783 0.497599 0.226570
0.529101 0.501885 0.225138
0.562435 0.508357 0.224630
0.595678 0.517750 0.225993
0.409643 0.534548 0.255993
0.412409 0.534650 0.255889
0.425236 0.535171 0.255415
0.448674 0.536367 0.254501
0.478658 0.538505 0.253348
0.511231 0.541926 0.252318
0.544427 0.547093 0.251835
0.577919 0.554644 0.252849
0.612454 0.565542 0.256341
0.447842 0.578592 0.278498
0.449935 0.578731 0.278455
0.459892 0.579434 0.278324
0.479059 0.581041 0.278084
0.505223 0.583883 0.277931
0.535452 0.588373 0.278187
0.567963 0.595094 0.279244
0.602439 0.604938 0.282091
0.639959 0.619451 0.288723
0.492537 0.629151 0.305953
0.494235 0.629351 0.305949
0.502475 0.630364 0.306097
0.518979 0.632683 0.306432
0.542807 0.636810 0.307248
0.572117 0.643412 0.308882
0.605829 0.653523 0.312024
0.644533 0.669014 0.317921
0.691738 0.693968 0.330048
0.108395 0.085678 0.320799
0.350559 -2.893726 0.559215
0.253256 0.111357 0.149322
0.233579 0.038272 0.033997
0.359074 -0.069778 -0.166027
0.485786 0.129879 -4.042431
0.679693 0.590982 -116.924942
0.689861 -5.279958 -23.256601
0.574686 0.340393 0.190868
0.183437 0.253544 0.256107
0.249924 0.249924 0.249924
0.329737 0.257181 0.246436
0.399476 0.240759 0.201056
0.501366 -0.801883 -0.332618
0.385541 0.381489 0.380245
0.510315 0.311539 0.204225
0.628872 -3.579579 -1.532619
0.574950 0.347927 0.192142
0.255812 0.338746 0.243328
-0.783675 0.402272 -0.332435
0.334142 0.336661 0.237499
0.394411 0.332364 0.203773
0.454512 0.293577 0.064832
0.558135 -0.834902 -4.562834
0.508534 0.367419 0.249898
0.669606 -4.999693 -11.214727
0.576335 0.378401 0.198128
0.302768 0.397993 0.247889
0.312013 0.398030 0.246733
0.269075 0.410625 -0.000796
0.398862 0.392097 -0.119119
-25.540293 -57.550133 0.825002
0.448445 0.406073 0.338472
0.576404 -0.621545 -1.710952
1.468035 -690754.375000 1.137355
0.579629 0.423086 0.209958
0.339065 0.447697 0.251621
0.344815 0.447739 0.251119
0.085288 0.406670 0.003414
0.332472 0.404719 0.004194
0.402549 0.399991 -0.000630
0.514089 0.446256 -10.572669
1.024273 1.127318 -47121.617188
0.553230 0.461552 0.228203
0.585802 0.470555 0.226785
0.373982 0.492101 0.260763
0.377855 0.492174 0.260531
0.395154 0.492551 0.259406
0.424608 0.493422 0.257229
0.459468 0.495021 0.254424
0.494947 0.497705 0.251594
0.529376 0.501943 0.249098
0.562833 0.508301 0.247367
0.596189 0.517526 0.247417
0.409115 0.534780 0.273649
0.411904 0.534883 0.273540
0.424828 0.535406 0.273029
0.448420 0.536604 0.272003
0.478578 0.538737 0.270667
0.511313 0.542140 0.269317
0.544654 0.547265 0.268356
0.578271 0.554748 0.268798
0.612914 0.565558 0.271663
0.446843 0.578932 0.290855
0.448975 0.579069 0.290828
0.459083 0.579771 0.290673
0.478501 0.581371 0.290402
0.504930 0.584203 0.290140
0.535393 0.588675 0.290221
0.568095 0.595368 0.291090
0.602727 0.605176 0.293713
0.640383 0.619652 0.300156
0.491395 0.629555 0.315067
0.493134 0.629753 0.315109
0.501510 0.630766 0.315219
0.518269 0.633081 0.315594
0.542383 0.637205 0.316387
0.571955 0.643805 0.317919
0.605899 0.653915 0.321006
0.644813 0.669418 0.326988
0.692246 0.694429 0.339403
0.158760 0.103295 0.394096
0.230212 -0.043092 0.415957
-2.608894 0.454597 -1.223594
0.321278 0.272239 0.296313
0.312075 -0.046521 0.066937
0.072906 0.072906 0.072906
0.511149 0.300695 0.313222
0.543777 0.320051 0.308619
0.575562 0.338278 0.304712
0.221479 0.253058 0.352509
0.260085 0.256581 0.344122
0.331099 0.258122 0.340692
0.398045 0.234906 0.331464
0.495661 -0.761404 0.161343
0.425390 0.357479 0.358261
0.561555 -1.567090 0.055239
0.728110 -12.060892 -23.392584
0.575957 0.345142 0.304269
0.263617 0.336245 0.338886
-0.277163 0.360998 0.371838
0.335065 0.335065 0.335065
0.385945 0.338945 0.334361
0.433205 0.343542 0.330443
0.475510 0.346948 0.321504
0.518363 0.334364 0.291659
0.563509 0.274820 0.223682
0.578124 0.372740 0.300834
0.306734 0.396767 0.332439
0.317310 0.396231 0.333045
0.352503 0.395066 0.335349
0.394838 0.396640 0.332326
0.438119 0.398773 0.328482
0.478241 0.401676 0.322187
0.515565 0.404747 0.311994
0.552405 0.406308 0.292857
0.582065 0.418087 0.298946
0.343758 0.446778 0.331357
0.349595 0.446708 0.331674
-2.097817 0.490576 -0.550362
0.407515 0.447923 0.327507
0.446912 0.449314 0.320405
0.486251 0.451119 0.308008
0.524820 0.452965 0.286156
0.563647 0.455097 0.249454
0.588316 0.467916 0.302459
0.374951 0.492387 0.329543
0.378634 0.492500 0.329188
0.395655 0.492951 0.328169
0.413487 0.496397 0.278647
0.454825 0.496781 0.258738
0.495050 0.496682 0.219748
0.537492 0.500355 0.128559
0.580937 0.504155 -0.057716
0.598625 0.516498 0.309440
0.405894 0.536034 0.328702
0.408832 0.536137 0.328590
0.422394 0.536658 0.328050
0.351573 0.552363 -0.260920
0.441343 0.551237 -0.297646
0.500796 0.549250 -0.333711
0.548670 0.545411 -0.356075
0.607483 0.552869 -0.662200
0.615144 0.565668 0.321804
0.441573 0.580629 0.334594
0.443891 0.580764 0.334551
0.454827 0.581454 0.334335
1.093902 -1527.746460 0.525277
-1.193068 0.632293 -1.745799
0.485229 0.627393 -1.976830
0.569663 0.623755 -3.073749
0.628628 0.621208 -6.677765
0.642469 0.620672 0.341201
0.485400 0.631560 0.350262
0.487301 0.631758 0.350268
0.496463 0.632765 0.350391
0.514539 0.635073 0.350637
1.207018 -6034.584473 0.638393
-690754.375000 1.468035 -87733.507812
-438572.125000 1.435074 -14532.960938
-38047.250000 1.333185 -4830.723633
1.321428 1.219295 -2078.560791
0.205255 0.122865 0.442588
0.237897 0.056293 0.448918
0.330761 -0.893305 0.507215
-1.455257 0.436052 -0.018925
0.380298 0.327001 0.361135
0.502719 -1.112213 0.307977
0.511624 0.302537 0.390556
0.544630 0.321310 0.388699
0.576732 0.339274 0.388175
-1.019311 -2.328998 0.580719
0.273105 0.262360 0.413412
0.333171 0.264528 0.408981
0.394821 0.233123 0.411166
0.467511 -0.365561 0.412661
-1.046015 0.455557 0.410449
0.562118 -1.438973 0.315484
0.792194 -36.524616 -11.043658
0.577161 0.345974 0.387966
0.281646 0.335859 0.403569
-0.040757 0.296550 0.465916
0.340677 0.338272 0.396140
0.388844 0.340398 0.396714
0.434627 0.344123 0.395969
0.476553 0.346626 0.393290
0.519308 0.333850 0.383534
0.565129 0.273949 0.363002
0.579479 0.373100 0.386397
0.314487 0.396150 0.399069
0.323686 0.395933 0.398645
0.355963 0.395675 0.397484
0.396933 0.396933 0.396933
0.439737 0.398812 0.395420
0.480112 0.401061 0.392401
0.517305 0.403821 0.388170
0.552288 0.407171 0.383179
0.585248 0.413090 0.379993
0.347121 0.447047 0.397240
0.352649 0.447029 0.397240
-1.277765 0.479791 0.276385
0.409200 0.448486 0.395453
0.448487 0.449972 0.393410
0.487389 0.451969 0.389081
0.524428 0.454258 0.383363
0.559634 0.457160 0.376746
0.593694 0.461625 0.370984
0.377240 0.493081 0.396812
0.380791 0.493212 0.396643
0.396607 0.493942 0.395499
0.420598 0.496653 0.386011
0.460530 0.497277 0.389336
0.497619 0.499626 0.385999
0.533852 0.502911 0.380916
0.568914 0.507540 0.376587
0.603691 0.514290 0.373024
0.405100 0.537580 0.396156
0.407564 0.537784 0.395648
0.419078 0.538841 0.392753
-1.220351 0.566334 -0.333968
0.476532 0.542701 0.385514
0.512320 0.545698 0.382954
0.548117 0.550098 0.378008
0.584341 0.556688 0.373116
0.619846 0.565959 0.379030
0.433490 0.583574 0.395260
0.435324 0.583824 0.394358
0.444596 0.585021 0.389977
0.467990 0.586697 0.387962
0.496542 0.591359 0.373565
0.532952 0.595373 0.368966
0.570205 0.601331 0.361858
0.608471 0.609998 0.352524
0.646947 0.622953 0.392773
0.469288 0.635960 0.398500
0.471698 0.636157 0.398493
0.483142 0.637157 0.398547
0.504939 0.639452 0.398656
-15.851562 0.722247 -4.408194
0.524893 0.690198 -2.013240
0.605412 0.687510 -1.921411
0.658006 0.691450 -1.719041
0.708732 0.708931 -0.987375
0.244131 0.156284 0.480308
0.262185 0.117588 0.482747
0.319873 -0.215245 0.501023
0.404696 -2.846884 0.577060
-1.442290 0.463929 -0.033436
0.445267 0.357228 0.425059
0.590123 -3.633367 0.472630
0.546156 0.324002 0.448687
0.578635 0.341431 0.450497
0.043923 -0.221648 0.513286
0.289539 0.268384 0.463259
0.338105 0.271136 0.460421
0.392724 0.237534 0.465276
0.452549 -0.260584 0.479985
0.535600 -2.504749 0.507430
0.509717 0.358668 0.452442
0.686266 -10.358147 0.448468
0.579097 0.347871 0.450497
0.301660 0.339378 0.452383
0.064514 0.231488 0.506998
0.348128 0.342081 0.448756
0.392994 0.343323 0.449000
0.437244 0.345871 0.449163
0.478852 0.345353 0.449731
0.520798 0.331651 0.449412
0.566037 0.274389 0.446905
0.581570 0.374208 0.450276
0.326339 0.396742 0.450752
0.333916 0.396803 0.450246
0.361513 0.397170 0.449386
0.400580 0.398165 0.449667
0.442104 0.399841 0.449788
0.482015 0.401702 0.449747
0.519233 0.404178 0.448981
0.554410 0.407441 0.448088
0.587652 0.413559 0.448386
0.353829 0.447729 0.450999
0.358787 0.447777 0.450956
-0.623397 0.461395 0.470245
0.412148 0.449336 0.451133
0.450818 0.450818 0.450818
0.492194 0.450846 0.447717
0.529848 0.451549 0.444412
0.564957 0.453368 0.441553
0.598896 0.457015 0.440141
0.381371 0.494283 0.452735
0.384738 0.494423 0.452714
0.399905 0.495171 0.452540
0.422494 0.497812 0.450023
0.459801 0.500463 0.446760
0.500369 0.501700 0.444479
0.539065 0.503495 0.439309
0.576085 0.505698 0.433909
0.612328 0.509093 0.429019
0.408267 0.539300 0.455770
0.410659 0.539509 0.455602
0.421872 0.540582 0.454619
-1.539579 0.569332 0.330280
0.471786 0.547499 0.441867
0.512732 0.549718 0.440234
0.551620 0.553252 0.437466
0.589592 0.558389 0.433574
0.627690 0.566091 0.432122
0.436025 0.586008 0.460835
0.437825 0.586266 0.460468
0.446475 0.587581 0.458438
0.463691 0.590573 0.452737
0.482554 0.598475 0.428119
0.531375 0.599212 0.439078
0.571778 0.604894 0.438847
0.612061 0.613525 0.438818
0.654446 0.626783 0.442757
0.468751 0.639859 0.471197
0.470205 0.640182 0.470616
0.477346 0.641827 0.467478
0.492145 0.645563 0.458985
1.172761 -3980.796875 0.604136
0.522797 0.697863 -1.135318
0.610015 0.689153 0.080850
0.659484 0.692902 0.353242
0.715965 0.716248 0.381019
0.280457 0.204487 0.511857
0.291573 0.191279 0.512861
0.331744 0.038587 0.519886
0.388377 -0.632581 0.542145
0.462238 -3.951439 0.602770
-7.139475 0.546973 -0.685106
0.493590 0.419713 0.479606
0.663355 -9.397978 0.584929
0.581446 0.344970 0.500653
0.244736 0.066632 0.524504
0.309071 0.277313 0.502441
0.346723 0.278525 0.501419
0.394064 0.251484 0.505664
0.445228 -0.102789 0.518946
0.503755 -1.393500 0.540447
0.577662 -4.709164 0.568264
0.598889 -1.103703 0.535511
0.581935 0.351076 0.500834
0.330534 0.349413 0.467726
0.207194 0.210326 0.534362
0.357216 0.345316 0.493407
0.398452 0.346438 0.493500
0.440793 0.348695 0.493941
0.481138 0.347366 0.496144
0.522654 0.328148 0.501119
0.566182 0.277069 0.506540
0.584517 0.376363 0.501676
0.339762 0.398634 0.493893
0.345871 0.398817 0.493613
0.367198 0.398169 0.495587
0.405821 0.399977 0.494321
0.445790 0.401159 0.495507
0.484805 0.402917 0.496906
0.521735 0.405343 0.498399
0.557149 0.408391 0.500329
0.590784 0.414822 0.503002
0.362695 0.449155 0.495917
0.367003 0.449239 0.495965
-0.198257 0.445168 0.536768
0.415788 0.450498 0.498469
0.453163 0.450388 0.502807
0.493750 0.451318 0.501997
0.531883 0.452101 0.501704
0.567794 0.453852 0.501544
0.602463 0.457675 0.502797
0.387268 0.496107 0.499764
0.390354 0.496252 0.499866
0.404422 0.497001 0.500396
0.424067 0.499241 0.502354
0.462414 0.501325 0.503274
0.502918 0.502918 0.502918
0.547211 0.501037 0.497778
0.585236 0.500946 0.494395
0.745318 0.278910 0.476162
0.412861 0.541761 0.505667
0.415137 0.541968 0.505702
0.425893 0.543026 0.505836
-0.929905 0.564996 0.492224
0.474994 0.549550 0.504527
0.509825 0.555797 0.496055
0.556149 0.557371 0.493021
0.598772 0.559918 0.487318
0.750146 -6.313232 -50.064682
0.440030 0.589438 0.514989
0.441765 0.589702 0.514912
0.450171 0.591047 0.514456
0.467013 0.594106 0.512951
0.482642 0.602389 0.504110
0.522777 0.607825 0.493184
0.572549 0.612841 0.490309
0.619070 0.620217 0.489211
0.666091 0.632106 0.490859
0.472348 0.645094 0.531855
0.473774 0.645435 0.531674
0.480766 0.647178 0.530668
0.495286 0.651155 0.527796
0.517490 0.658199 0.520315
-324838.781250 1.410459 -17552.640625
0.600435 0.699062 0.428687
0.663503 0.702776 0.466225
0.732357 0.731966 0.453714
0.313791 0.247677 0.540351
0.321267 0.244113 0.540745
0.350743 0.212159 0.543577
0.394238 -0.053605 0.552743
0.445342 -0.902817 0.571953
0.505022 -3.265697 0.604318
0.586410 -13.942293 0.679132
-28.416420 0.648408 -0.974483
0.585422 0.350006 0.543343
0.302976 0.224611 0.545883
0.330320 0.288881 0.536028
0.359339 0.289494 0.535841
0.400000 0.273680 0.538787
0.444593 0.136579 0.547539
0.493118 -0.679012 0.563871
0.546564 -2.308554 0.582573
0.605736 -4.748470 0.598889
0.585927 0.355722 0.543668
-1.067371 -2.249649 0.619912
0.289565 0.260328 0.556126
0.368335 0.348403 0.531633
0.405608 0.349737 0.531892
0.445715 0.352202 0.532630
0.484725 0.351440 0.535542
0.524301 0.332210 0.542431
0.566675 0.281796 0.551945
0.588566 0.379774 0.545316
0.354147 0.401121 0.531892
-1.088431 -0.680871 0.611037
0.373447 0.397089 0.537416
0.412636 0.401863 0.533520
0.450771 0.402846 0.535157
0.488793 0.404511 0.537387
0.525272 0.407137 0.540223
0.560839 0.410002 0.544325
0.594859 0.417212 0.548925
0.373026 0.451192 0.535312
0.376725 0.451254 0.535479
0.147005 0.433372 0.577136
0.420775 0.451357 0.539979
0.457402 0.450784 0.544034
0.496822 0.451756 0.545635
0.534570 0.453255 0.547628
0.570896 0.455434 0.550338
0.606540 0.459514 0.554357
0.394825 0.498572 0.540870
0.397598 0.498699 0.541086
0.410395 0.499329 0.542231
0.427413 0.500941 0.548190
0.464872 0.502002 0.550827
0.504352 0.500815 0.558988
0.548060 0.501180 0.557567
0.587880 0.501714 0.557438
0.625786 0.504537 0.559027
0.418785 0.545080 0.549140
0.420903 0.545279 0.549317
0.430973 0.546285 0.550217
-0.511369 0.559346 0.566388
0.477961 0.552243 0.555449
0.512535 0.557107 0.559382
0.559580 0.559580 0.559580
0.612705 0.555563 0.551860
0.701851 0.545343 0.543925
0.445526 0.594078 0.561953
0.447195 0.594343 0.562067
0.455272 0.595693 0.562620
0.471611 0.598754 0.563696
0.484938 0.606722 0.564700
0.526821 0.612334 0.564093
0.566390 0.624397 0.550352
0.628123 0.629118 0.545754
0.684552 0.637237 0.542366
0.477944 0.652363 0.584458
0.479328 0.652727 0.584528
0.486151 0.654581 0.584846
0.500380 0.658826 0.585313
0.522257 0.666409 0.585104
0.551663 0.678619 0.581095
-2.700536 0.758030 0.408796
0.667219 0.722030 0.533737
0.756545 0.755695 0.531321
0.343469 0.281346 0.567767
0.348909 0.280852 0.567889
0.371613 0.274922 0.568979
0.407284 0.242467 0.572930
0.448873 -0.042464 0.582379
0.494834 -0.906038 0.598487
0.545001 -2.658218 0.618925
0.599019 -5.411477 0.638921
0.590939 0.356529 0.581400
0.340358 0.280487 0.570284
0.352325 0.301932 0.566597
0.375266 0.303863 0.566525
0.410288 0.299374 0.568164
0.449862 0.265188 0.573971
0.492252 -0.066385 0.585247
0.538153 -1.130005 0.601922
0.587740 -2.828594 0.619409
0.591456 0.361831 0.581835
0.193288 -0.338121 0.602089
0.336346 0.301851 0.578892
0.381781 0.352243 0.565364
0.414940 0.353808 0.565916
0.452474 0.356548 0.567071
0.489939 0.357661 0.570076
0.528070 0.343280 0.577724
0.568271 0.296368 0.588624
0.594129 0.384527 0.584072
-3.581557 -5.360849 0.688284
-164.268341 -549.186584 1.002044
0.383345 0.395602 0.573863
0.421300 0.403868 0.568698
0.457425 0.404938 0.570574
0.494293 0.406753 0.573345
0.530271 0.409663 0.577141
0.565705 0.413019 0.582683
0.600399 0.420830 0.589227
0.384734 0.453564 0.571150
0.387882 0.453546 0.571422
0.283173 0.426138 0.610244
0.427377 0.451826 0.577173
0.463572 0.451875 0.580026
0.501657 0.453040 0.582865
0.538937 0.454905 0.586595
0.575397 0.457868 0.591502
0.611879 0.462748 0.598261
0.404086 0.501660 0.578155
0.406562 0.501740 0.578458
0.418123 0.502104 0.580061
0.432301 0.502356 0.589082
0.469114 0.502053 0.591982
0.508727 0.500504 0.599372
0.551034 0.501679 0.602171
0.591152 0.503806 0.605939
0.630776 0.507729 0.611745
0.426610 0.549338 0.588557
0.428560 0.549511 0.588843
0.437890 0.550383 0.590311
0.211145 0.560495 0.620574
0.482263 0.555119 0.600072
0.515094 0.557838 0.611026
0.560781 0.555648 0.625731
0.613658 0.556211 0.625599
0.661310 0.558733 0.628428
0.452960 0.600220 0.604696
0.454538 0.600481 0.604948
0.462213 0.601807 0.606231
0.477835 0.604800 0.609121
0.488201 0.612016 0.616516
0.531274 0.617805 0.621560
0.570436 0.628334 0.631287
0.635540 0.635540 0.635540
0.746460 0.614219 0.612616
0.486243 0.662412 0.633215
0.487603 0.662802 0.633475
0.494279 0.664792 0.634790
0.508267 0.669367 0.637712
0.529914 0.677599 0.642586
0.559215 0.691064 0.649270
0.597896 0.712712 0.655231
0.609444 0.774066 0.595543
0.800902 0.799688 0.617405
-0.907872 -3.722760 0.661816
-0.784920 -3.655193 0.661063
-0.293516 -3.608419 0.660231
0.333200 -3.573686 0.659162
0.438340 -3.730116 0.659662
0.502217 -4.216531 0.662844
0.554948 -5.309160 0.670023
0.605364 -7.650100 0.682698
0.598521 0.364466 0.616869
-0.794448 -3.359293 0.659294
-0.457734 -2.821805 0.653454
0.003915 -2.796290 0.652882
0.355803 -2.832553 0.652721
0.443121 -2.979756 0.653523
0.502809 -3.363386 0.656489
0.553299 -4.200763 0.662897
0.601677 -5.977607 0.674190
0.599051 0.369366 0.617392
-1.148565 -3.516058 0.667064
-0.586525 -2.562778 0.657208
0.204123 -1.846350 0.648898
0.370732 -1.944963 0.649737
0.448431 -2.116405 0.651247
0.505654 -2.397141 0.653839
0.554070 -2.862298 0.658085
0.600485 -4.132433 0.667948
0.601777 0.390701 0.620081
-1.653735 -2.928771 0.687000
0.490305 0.494369 0.524389
-2.472907 -5.908230 0.699880
0.211339 -3.237529 0.680136
0.432419 -3.931845 0.684741
0.513163 -5.137022 0.691950
0.575552 -7.229279 0.702610
0.634153 -11.529301 0.719364
0.608101 0.425832 0.626343
0.397772 0.456027 0.604812
-690754.375000 1.468035 -31863.658203
-4.830333 -5.064388 0.728631
-11.426117 -22.632967 0.795012
-18.445831 -60.732105 0.841174
0.552246 -7.967341 0.752091
0.646456 -37.027306 0.816525
0.826873 -323.168335 0.965564
0.619565 0.467462 0.637730
0.415140 0.505403 0.613163
0.417339 0.505411 0.613530
-690754.375000 1.468035 -119905.351562
-88.130074 -119.943733 0.918403
0.072906 0.072906 0.072906
-2058.968994 -7864.718750 1.218957
0.556986 0.504054 0.639446
0.597262 0.507330 0.646473
0.638348 0.512943 0.656407
0.436589 0.554786 0.625695
0.438378 0.554921 0.626060
0.447008 0.555581 0.627935
-617.037781 -605.754944 1.054242
0.489115 0.558493 0.640529
0.520847 0.558189 0.654799
0.567570 0.556177 0.668055
0.618520 0.559257 0.675480
0.668691 0.565164 0.686609
0.463306 0.608374 0.645440
0.464804 0.608625 0.645800
0.472100 0.609897 0.647645
0.487091 0.612741 0.651902
0.509615 0.617551 0.659635
0.539062 0.624415 0.672568
0.576790 0.631789 0.694683
0.640040 0.630256 0.727036
0.723582 0.636889 0.741438
0.499059 0.676644 0.681624
0.500410 0.677074 0.682053
0.507079 0.679276 0.684252
0.521150 0.684357 0.689327
0.543203 0.693582 0.698543
0.573558 0.708936 0.713886
0.614435 0.734514 0.739461
0.675985 0.782520 0.787518
0.954339 0.954339 0.954339
