resources/arrilogc4_to_linear.spi1d
Version 1
From -0.125 1.125
Length 5120
Components 1
{
        -0.0322566472
        -0.0322289081
        -0.0322011690
        -0.0321734299
        -0.0321456908
        -0.0321179516
        -0.0320902125
        -0.0320624734
        -0.0320347343
        -0.0320069952
        -0.0319792561
        -0.0319515170
        -0.0319237779
        -0.0318960387
        -0.0318682996
        -0.0318405605
        -0.0318128214
        -0.0317850823
        -0.0317573432
        -0.0317296041
        -0.0317018650
        -0.0316741259
        -0.0316463867
        -0.0316186476
        -0.0315909085
        -0.0315631694
        -0.0315354303
        -0.0315076912
        -0.0314799521
        -0.0314522130
        -0.0314244739
        -0.0313967347
        -0.0313689956
        -0.0313412565
        -0.0313135174
        -0.0312857783
        -0.0312580392
        -0.0312303001
        -0.0312025610
        -0.0311748219
        -0.0311470827
        -0.0311193436
        -0.0310916045
        -0.0310638654
        -0.0310361263
        -0.0310083872
        -0.0309806481
        -0.0309529090
        -0.0309251699
        -0.0308974307
        -0.0308696916
        -0.0308419525
        -0.0308142134
        -0.0307864743
        -0.0307587352
        -0.0307309961
        -0.0307032570
        -0.0306755179
        -0.0306477787
        -0.0306200396
        -0.0305923005
        -0.0305645614
        -0.0305368223
        -0.0305090832
        -0.0304813441
        -0.0304536050
        -0.0304258659
        -0.0303981267
        -0.0303703876
        -0.0303426485
        -0.0303149094
        -0.0302871703
        -0.0302594312
        -0.0302316921
        -0.0302039530
        -0.0301762138
        -0.0301484747
        -0.0301207356
        -0.0300929965
        -0.0300652574
        -0.0300375183
        -0.0300097792
        -0.0299820401
        -0.0299543010
        -0.0299265618
        -0.0298988227
        -0.0298710836
        -0.0298433445
        -0.0298156054
        -0.0297878663
        -0.0297601272
        -0.0297323881
        -0.0297046490
        -0.0296769098
        -0.0296491707
        -0.0296214316
        -0.0295936925
        -0.0295659534
        -0.0295382143
        -0.0295104752
        -0.0294827361
        -0.0294549970
        -0.0294272578
        -0.0293995187
        -0.0293717796
        -0.0293440405
        -0.0293163014
        -0.0292885623
        -0.0292608232
        -0.0292330841
        -0.0292053450
        -0.0291776058
        -0.0291498667
        -0.0291221276
        -0.0290943885
        -0.0290666494
        -0.0290389103
        -0.0290111712
        -0.0289834321
        -0.0289556930
        -0.0289279538
        -0.0289002147
        -0.0288724756
        -0.0288447365
        -0.0288169974
        -0.0287892583
        -0.0287615192
        -0.0287337801
        -0.0287060409
        -0.0286783018
        -0.0286505627
        -0.0286228236
        -0.0285950845
        -0.0285673454
        -0.0285396063
        -0.0285118672
        -0.0284841281
        -0.0284563889
        -0.0284286498
        -0.0284009107
        -0.0283731716
        -0.0283454325
        -0.0283176934
        -0.0282899543
        -0.0282622152
        -0.0282344761
        -0.0282067369
        -0.0281789978
        -0.0281512587
        -0.0281235196
        -0.0280957805
        -0.0280680414
        -0.0280403023
        -0.0280125632
        -0.0279848241
        -0.0279570849
        -0.0279293458
        -0.0279016067
        -0.0278738676
        -0.0278461285
        -0.0278183894
        -0.0277906503
        -0.0277629112
        -0.0277351721
        -0.0277074329
        -0.0276796938
        -0.0276519547
        -0.0276242156
        -0.0275964765
        -0.0275687374
        -0.0275409983
        -0.0275132592
        -0.0274855201
        -0.0274577809
        -0.0274300418
        -0.0274023027
        -0.0273745636
        -0.0273468245
        -0.0273190854
        -0.0272913463
        -0.0272636072
        -0.0272358681
        -0.0272081289
        -0.0271803898
        -0.0271526507
        -0.0271249116
        -0.0270971725
        -0.0270694334
        -0.0270416943
        -0.0270139552
        -0.0269862160
        -0.0269584769
        -0.0269307378
        -0.0269029987
        -0.0268752596
        -0.0268475205
        -0.0268197814
        -0.0267920423
        -0.0267643032
        -0.0267365640
        -0.0267088249
        -0.0266810858
        -0.0266533467
        -0.0266256076
        -0.0265978685
        -0.0265701294
        -0.0265423903
        -0.0265146512
        -0.0264869120
        -0.0264591729
        -0.0264314338
        -0.0264036947
        -0.0263759556
        -0.0263482165
        -0.0263204774
        -0.0262927383
        -0.0262649992
        -0.0262372600
        -0.0262095209
        -0.0261817818
        -0.0261540427
        -0.0261263036
        -0.0260985645
        -0.0260708254
        -0.0260430863
        -0.0260153472
        -0.0259876080
        -0.0259598689
        -0.0259321298
        -0.0259043907
        -0.0258766516
        -0.0258489125
        -0.0258211734
        -0.0257934343
        -0.0257656952
        -0.0257379560
        -0.0257102169
        -0.0256824778
        -0.0256547387
        -0.0256269996
        -0.0255992605
        -0.0255715214
        -0.0255437823
        -0.0255160431
        -0.0254883040
        -0.0254605649
        -0.0254328258
        -0.0254050867
        -0.0253773476
        -0.0253496085
        -0.0253218694
        -0.0252941303
        -0.0252663911
        -0.0252386520
        -0.0252109129
        -0.0251831738
        -0.0251554347
        -0.0251276956
        -0.0250999565
        -0.0250722174
        -0.0250444783
        -0.0250167391
        -0.0249890000
        -0.0249612609
        -0.0249335218
        -0.0249057827
        -0.0248780436
        -0.0248503045
        -0.0248225654
        -0.0247948263
        -0.0247670871
        -0.0247393480
        -0.0247116089
        -0.0246838698
        -0.0246561307
        -0.0246283916
        -0.0246006525
        -0.0245729134
        -0.0245451743
        -0.0245174351
        -0.0244896960
        -0.0244619569
        -0.0244342178
        -0.0244064787
        -0.0243787396
        -0.0243510005
        -0.0243232614
        -0.0242955223
        -0.0242677831
        -0.0242400440
        -0.0242123049
        -0.0241845658
        -0.0241568267
        -0.0241290876
        -0.0241013485
        -0.0240736094
        -0.0240458703
        -0.0240181311
        -0.0239903920
        -0.0239626529
        -0.0239349138
        -0.0239071747
        -0.0238794356
        -0.0238516965
        -0.0238239574
        -0.0237962182
        -0.0237684791
        -0.0237407400
        -0.0237130009
        -0.0236852618
        -0.0236575227
        -0.0236297836
        -0.0236020445
        -0.0235743054
        -0.0235465662
        -0.0235188271
        -0.0234910880
        -0.0234633489
        -0.0234356098
        -0.0234078707
        -0.0233801316
        -0.0233523925
        -0.0233246534
        -0.0232969142
        -0.0232691751
        -0.0232414360
        -0.0232136969
        -0.0231859578
        -0.0231582187
        -0.0231304796
        -0.0231027405
        -0.0230750014
        -0.0230472622
        -0.0230195231
        -0.0229917840
        -0.0229640449
        -0.0229363058
        -0.0229085667
        -0.0228808276
        -0.0228530885
        -0.0228253494
        -0.0227976102
        -0.0227698711
        -0.0227421320
        -0.0227143929
        -0.0226866538
        -0.0226589147
        -0.0226311756
        -0.0226034365
        -0.0225756974
        -0.0225479582
        -0.0225202191
        -0.0224924800
        -0.0224647409
        -0.0224370018
        -0.0224092627
        -0.0223815236
        -0.0223537845
        -0.0223260453
        -0.0222983062
        -0.0222705671
        -0.0222428280
        -0.0222150889
        -0.0221873498
        -0.0221596107
        -0.0221318716
        -0.0221041325
        -0.0220763933
        -0.0220486542
        -0.0220209151
        -0.0219931760
        -0.0219654369
        -0.0219376978
        -0.0219099587
        -0.0218822196
        -0.0218544805
        -0.0218267413
        -0.0217990022
        -0.0217712631
        -0.0217435240
        -0.0217157849
        -0.0216880458
        -0.0216603067
        -0.0216325676
        -0.0216048285
        -0.0215770893
        -0.0215493502
        -0.0215216111
        -0.0214938720
        -0.0214661329
        -0.0214383938
        -0.0214106547
        -0.0213829156
        -0.0213551765
        -0.0213274373
        -0.0212996982
        -0.0212719591
        -0.0212442200
        -0.0212164809
        -0.0211887418
        -0.0211610027
        -0.0211332636
        -0.0211055245
        -0.0210777853
        -0.0210500462
        -0.0210223071
        -0.0209945680
        -0.0209668289
        -0.0209390898
        -0.0209113507
        -0.0208836116
        -0.0208558725
        -0.0208281333
        -0.0208003942
        -0.0207726551
        -0.0207449160
        -0.0207171769
        -0.0206894378
        -0.0206616987
        -0.0206339596
        -0.0206062204
        -0.0205784813
        -0.0205507422
        -0.0205230031
        -0.0204952640
        -0.0204675249
        -0.0204397858
        -0.0204120467
        -0.0203843076
        -0.0203565684
        -0.0203288293
        -0.0203010902
        -0.0202733511
        -0.0202456120
        -0.0202178729
        -0.0201901338
        -0.0201623947
        -0.0201346556
        -0.0201069164
        -0.0200791773
        -0.0200514382
        -0.0200236991
        -0.0199959600
        -0.0199682209
        -0.0199404818
        -0.0199127427
        -0.0198850036
        -0.0198572644
        -0.0198295253
        -0.0198017862
        -0.0197740471
        -0.0197463080
        -0.0197185689
        -0.0196908298
        -0.0196630907
        -0.0196353516
        -0.0196076124
        -0.0195798733
        -0.0195521342
        -0.0195243951
        -0.0194966560
        -0.0194689169
        -0.0194411778
        -0.0194134387
        -0.0193856996
        -0.0193579604
        -0.0193302213
        -0.0193024822
        -0.0192747431
        -0.0192470040
        -0.0192192649
        -0.0191915258
        -0.0191637867
        -0.0191360475
        -0.0191083084
        -0.0190805693
        -0.0190528302
        -0.0190250911
        -0.0189973520
        -0.0189696129
        -0.0189418738
        -0.0189141347
        -0.0188863955
        -0.0188586564
        -0.0188309173
        -0.0188031782
        -0.0187754391
        -0.0187477000
        -0.0187199609
        -0.0186922218
        -0.0186644827
        -0.0186367435
        -0.0186090044
        -0.0185812653
        -0.0185535262
        -0.0185257871
        -0.0184980480
        -0.0184703089
        -0.0184425698
        -0.0184148307
        -0.0183870915
        -0.0183593524
        -0.0183316133
        -0.0183038742
        -0.0182761351
        -0.0182483960
        -0.0182206569
        -0.0181929178
        -0.0181651787
        -0.0181374395
        -0.0181097004
        -0.0180819613
        -0.0180542218
        -0.0180264392
        -0.0179985839
        -0.0179706558
        -0.0179426546
        -0.0179145801
        -0.0178864322
        -0.0178582107
        -0.0178299154
        -0.0178015461
        -0.0177731026
        -0.0177445846
        -0.0177159921
        -0.0176873248
        -0.0176585825
        -0.0176297650
        -0.0176008722
        -0.0175719038
        -0.0175428596
        -0.0175137394
        -0.0174845431
        -0.0174552704
        -0.0174259212
        -0.0173964952
        -0.0173669922
        -0.0173374120
        -0.0173077545
        -0.0172780194
        -0.0172482065
        -0.0172183157
        -0.0171883466
        -0.0171582992
        -0.0171281732
        -0.0170979684
        -0.0170676846
        -0.0170373215
        -0.0170068791
        -0.0169763570
        -0.0169457551
        -0.0169150731
        -0.0168843109
        -0.0168534683
        -0.0168225450
        -0.0167915407
        -0.0167604554
        -0.0167292888
        -0.0166980407
        -0.0166667108
        -0.0166352990
        -0.0166038050
        -0.0165722286
        -0.0165405697
        -0.0165088279
        -0.0164770031
        -0.0164450951
        -0.0164131036
        -0.0163810285
        -0.0163488694
        -0.0163166262
        -0.0162842987
        -0.0162518867
        -0.0162193898
        -0.0161868080
        -0.0161541409
        -0.0161213884
        -0.0160885503
        -0.0160556262
        -0.0160226160
        -0.0159895195
        -0.0159563364
        -0.0159230665
        -0.0158897096
        -0.0158562655
        -0.0158227338
        -0.0157891145
        -0.0157554072
        -0.0157216118
        -0.0156877280
        -0.0156537555
        -0.0156196942
        -0.0155855438
        -0.0155513040
        -0.0155169747
        -0.0154825557
        -0.0154480465
        -0.0154134472
        -0.0153787573
        -0.0153439767
        -0.0153091051
        -0.0152741423
        -0.0152390881
        -0.0152039421
        -0.0151687043
        -0.0151333743
        -0.0150979518
        -0.0150624367
        -0.0150268288
        -0.0149911276
        -0.0149553332
        -0.0149194450
        -0.0148834630
        -0.0148473869
        -0.0148112165
        -0.0147749514
        -0.0147385915
        -0.0147021364
        -0.0146655860
        -0.0146289401
        -0.0145921982
        -0.0145553603
        -0.0145184260
        -0.0144813951
        -0.0144442673
        -0.0144070425
        -0.0143697202
        -0.0143323004
        -0.0142947826
        -0.0142571668
        -0.0142194525
        -0.0141816396
        -0.0141437278
        -0.0141057168
        -0.0140676064
        -0.0140293964
        -0.0139910864
        -0.0139526761
        -0.0139141655
        -0.0138755541
        -0.0138368416
        -0.0137980280
        -0.0137591128
        -0.0137200958
        -0.0136809768
        -0.0136417555
        -0.0136024315
        -0.0135630047
        -0.0135234748
        -0.0134838415
        -0.0134441046
        -0.0134042636
        -0.0133643185
        -0.0133242689
        -0.0132841146
        -0.0132438552
        -0.0132034905
        -0.0131630202
        -0.0131224441
        -0.0130817619
        -0.0130409732
        -0.0130000779
        -0.0129590756
        -0.0129179660
        -0.0128767489
        -0.0128354240
        -0.0127939911
        -0.0127524497
        -0.0127107997
        -0.0126690407
        -0.0126271726
        -0.0125851949
        -0.0125431074
        -0.0125009098
        -0.0124586019
        -0.0124161833
        -0.0123736537
        -0.0123310129
        -0.0122882606
        -0.0122453965
        -0.0122024202
        -0.0121593315
        -0.0121161301
        -0.0120728158
        -0.0120293881
        -0.0119858468
        -0.0119421917
        -0.0118984224
        -0.0118545385
        -0.0118105399
        -0.0117664263
        -0.0117221972
        -0.0116778524
        -0.0116333917
        -0.0115888147
        -0.0115441210
        -0.0114993105
        -0.0114543828
        -0.0114093375
        -0.0113641745
        -0.0113188933
        -0.0112734936
        -0.0112279752
        -0.0111823378
        -0.0111365810
        -0.0110907045
        -0.0110447080
        -0.0109985912
        -0.0109523538
        -0.0109059954
        -0.0108595158
        -0.0108129146
        -0.0107661915
        -0.0107193462
        -0.0106723784
        -0.0106252877
        -0.0105780739
        -0.0105307365
        -0.0104832754
        -0.0104356901
        -0.0103879803
        -0.0103401458
        -0.0102921861
        -0.0102441010
        -0.0101958901
        -0.0101475532
        -0.0100990898
        -0.0100504996
        -0.0100017823
        -0.0099529376
        -0.0099039652
        -0.0098548646
        -0.0098056357
        -0.0097562779
        -0.0097067911
        -0.0096571748
        -0.0096074288
        -0.0095575526
        -0.0095075460
        -0.0094574086
        -0.0094071400
        -0.0093567400
        -0.0093062081
        -0.0092555440
        -0.0092047475
        -0.0091538181
        -0.0091027554
        -0.0090515592
        -0.0090002291
        -0.0089487648
        -0.0088971658
        -0.0088454318
        -0.0087935626
        -0.0087415577
        -0.0086894167
        -0.0086371394
        -0.0085847253
        -0.0085321742
        -0.0084794855
        -0.0084266591
        -0.0083736945
        -0.0083205914
        -0.0082673493
        -0.0082139680
        -0.0081604471
        -0.0081067862
        -0.0080529850
        -0.0079990430
        -0.0079449599
        -0.0078907353
        -0.0078363690
        -0.0077818604
        -0.0077272093
        -0.0076724152
        -0.0076174777
        -0.0075623966
        -0.0075071715
        -0.0074518018
        -0.0073962874
        -0.0073406277
        -0.0072848225
        -0.0072288713
        -0.0071727737
        -0.0071165295
        -0.0070601381
        -0.0070035992
        -0.0069469124
        -0.0068900774
        -0.0068330936
        -0.0067759609
        -0.0067186787
        -0.0066612467
        -0.0066036645
        -0.0065459316
        -0.0064880477
        -0.0064300125
        -0.0063718254
        -0.0063134862
        -0.0062549943
        -0.0061963495
        -0.0061375513
        -0.0060785993
        -0.0060194930
        -0.0059602322
        -0.0059008164
        -0.0058412452
        -0.0057815181
        -0.0057216349
        -0.0056615950
        -0.0056013980
        -0.0055410436
        -0.0054805314
        -0.0054198609
        -0.0053590316
        -0.0052980433
        -0.0052368955
        -0.0051755877
        -0.0051141195
        -0.0050524906
        -0.0049907005
        -0.0049287488
        -0.0048666350
        -0.0048043587
        -0.0047419196
        -0.0046793171
        -0.0046165509
        -0.0045536206
        -0.0044905256
        -0.0044272656
        -0.0043638401
        -0.0043002488
        -0.0042364911
        -0.0041725666
        -0.0041084750
        -0.0040442157
        -0.0039797883
        -0.0039151924
        -0.0038504275
        -0.0037854933
        -0.0037203892
        -0.0036551148
        -0.0035896697
        -0.0035240534
        -0.0034582655
        -0.0033923055
        -0.0033261730
        -0.0032598675
        -0.0031933886
        -0.0031267358
        -0.0030599086
        -0.0029929067
        -0.0029257295
        -0.0028583766
        -0.0027908475
        -0.0027231418
        -0.0026552590
        -0.0025871987
        -0.0025189603
        -0.0024505434
        -0.0023819476
        -0.0023131724
        -0.0022442173
        -0.0021750818
        -0.0021057655
        -0.0020362679
        -0.0019665885
        -0.0018967269
        -0.0018266825
        -0.0017564549
        -0.0016860436
        -0.0016154482
        -0.0015446681
        -0.0014737029
        -0.0014025521
        -0.0013312151
        -0.0012596916
        -0.0011879810
        -0.0011160828
        -0.0010439965
        -0.0009717218
        -0.0008992579
        -0.0008266046
        -0.0007537612
        -0.0006807272
        -0.0006075023
        -0.0005340858
        -0.0004604773
        -0.0003866762
        -0.0003126822
        -0.0002384945
        -0.0001641129
        -0.0000895366
        -0.0000147654
        0.0000602015
        0.0001353644
        0.0002107240
        0.0002862806
        0.0003620349
        0.0004379873
        0.0005141384
        0.0005904887
        0.0006670386
        0.0007437888
        0.0008207398
        0.0008978920
        0.0009752460
        0.0010528023
        0.0011305615
        0.0012085241
        0.0012866906
        0.0013650616
        0.0014436375
        0.0015224190
        0.0016014065
        0.0016806007
        0.0017600019
        0.0018396109
        0.0019194281
        0.0019994540
        0.0020796893
        0.0021601345
        0.0022407900
        0.0023216565
        0.0024027346
        0.0024840247
        0.0025655274
        0.0026472433
        0.0027291729
        0.0028113169
        0.0028936756
        0.0029762499
        0.0030590400
        0.0031420468
        0.0032252706
        0.0033087122
        0.0033923720
        0.0034762506
        0.0035603486
        0.0036446665
        0.0037292050
        0.0038139647
        0.0038989460
        0.0039841496
        0.0040695761
        0.0041552260
        0.0042410999
        0.0043271985
        0.0044135222
        0.0045000718
        0.0045868477
        0.0046738506
        0.0047610810
        0.0048485397
        0.0049362270
        0.0050241438
        0.0051122905
        0.0052006677
        0.0052892761
        0.0053781163
        0.0054671888
        0.0055564944
        0.0056460335
        0.0057358068
        0.0058258149
        0.0059160585
        0.0060065380
        0.0060972543
        0.0061882078
        0.0062793993
        0.0063708292
        0.0064624983
        0.0065544072
        0.0066465564
        0.0067389467
        0.0068315787
        0.0069244529
        0.0070175701
        0.0071109308
        0.0072045357
        0.0072983855
        0.0073924807
        0.0074868220
        0.0075814101
        0.0076762456
        0.0077713292
        0.0078666615
        0.0079622431
        0.0080580747
        0.0081541570
        0.0082504906
        0.0083470761
        0.0084439143
        0.0085410058
        0.0086383512
        0.0087359513
        0.0088338066
        0.0089319179
        0.0090302858
        0.0091289110
        0.0092277942
        0.0093269360
        0.0094263371
        0.0095259983
        0.0096259201
        0.0097261032
        0.0098265484
        0.0099272563
        0.0100282277
        0.0101294631
        0.0102309633
        0.0103327290
        0.0104347609
        0.0105370597
        0.0106396260
        0.0107424606
        0.0108455642
        0.0109489375
        0.0110525811
        0.0111564959
        0.0112606824
        0.0113651415
        0.0114698738
        0.0115748800
        0.0116801609
        0.0117857171
        0.0118915495
        0.0119976586
        0.0121040453
        0.0122107103
        0.0123176543
        0.0124248779
        0.0125323821
        0.0126401674
        0.0127482347
        0.0128565846
        0.0129652179
        0.0130741354
        0.0131833377
        0.0132928257
        0.0134026001
        0.0135126615
        0.0136230109
        0.0137336489
        0.0138445763
        0.0139557938
        0.0140673022
        0.0141791023
        0.0142911948
        0.0144035805
        0.0145162602
        0.0146292346
        0.0147425045
        0.0148560706
        0.0149699338
        0.0150840948
        0.0151985545
        0.0153133135
        0.0154283726
        0.0155437327
        0.0156593946
        0.0157753590
        0.0158916267
        0.0160081985
        0.0161250752
        0.0162422576
        0.0163597466
        0.0164775428
        0.0165956471
        0.0167140604
        0.0168327834
        0.0169518169
        0.0170711618
        0.0171908188
        0.0173107888
        0.0174310726
        0.0175516710
        0.0176725848
        0.0177938149
        0.0179153621
        0.0180372272
        0.0181594111
        0.0182819146
        0.0184047385
        0.0185278836
        0.0186513508
        0.0187751410
        0.0188992550
        0.0190236936
        0.0191484577
        0.0192735481
        0.0193989657
        0.0195247114
        0.0196507859
        0.0197771902
        0.0199039252
        0.0200309916
        0.0201583904
