OCIO/luts/ACES2_Output_v1.0.0/ACES2_Output v1.0.0 P3D65.cube
TITLE "Generated by Foundry::LUT"
LUT_3D_SIZE 9
0.000000 0.000000 0.000000
0.020424 0.000023 0.003408
0.082097 0.000000 0.013770
0.271564 0.000396 0.046393
0.661797 0.000804 0.113171
1.000000 0.321702 0.273114
1.000000 0.591542 0.513306
1.000000 0.840779 0.801300
1.000000 0.992357 0.990613
0.000030 0.023963 0.009199
0.031981 0.031542 0.000000
0.096176 0.044527 0.000034
0.285219 0.000000 0.000127
0.667254 0.000409 0.101856
1.000000 0.325546 0.272732
1.000000 0.592119 0.513519
1.000000 0.840919 0.801438
1.000000 0.992358 0.990614
0.000000 0.094397 0.036248
0.031169 0.103025 0.000000
0.119971 0.118339 0.000000
0.301955 0.147240 0.000000
0.686825 0.063203 0.000000
1.000000 0.339770 0.270846
1.000000 0.594401 0.514356
1.000000 0.841475 0.801988
1.000000 0.992364 0.990620
0.000000 0.289626 0.111336
0.000545 0.293713 0.098392
0.109954 0.304678 0.000000
0.328554 0.324159 0.000000
0.683633 0.334218 0.000000
1.000000 0.397727 0.264945
1.000000 0.604338 0.518033
1.000000 0.843921 0.804411
1.000000 0.992391 0.990648
0.000000 0.618870 0.236286
0.000000 0.620162 0.231018
0.001294 0.625129 0.203914
0.233403 0.639007 0.000000
0.641589 0.633170 0.000370
1.000000 0.587703 0.279818
1.000000 0.649695 0.539718
1.000000 0.854369 0.814817
1.000000 0.992508 0.990771
0.000630 0.936177 0.343968
0.001638 0.936666 0.342209
0.001852 0.938919 0.334397
0.001368 0.949542 0.292160
0.350365 0.973468 0.000000
0.918709 0.907015 0.000000
1.000000 0.809220 0.660132
1.000000 0.896341 0.859765
1.000000 0.993028 0.991317
0.695185 1.000000 0.678192
0.695415 1.000000 0.678199
0.696332 1.000000 0.678227
0.700371 1.000000 0.678332
0.717940 1.000000 0.678474
0.794796 1.000000 0.687382
1.000000 1.000000 0.631342
1.000000 0.965082 0.938118
0.999904 0.994850 0.993255
0.952002 1.000000 0.943095
0.952012 1.000000 0.943100
0.952048 1.000000 0.943112
0.952212 1.000000 0.943175
0.952954 1.000000 0.943464
0.956140 1.000000 0.944649
0.968706 1.000000 0.949722
0.999758 1.000000 0.948955
0.999876 0.998276 0.997114
0.999103 0.999951 0.998901
0.999103 0.999951 0.998901
0.999103 0.999951 0.998901
0.999106 0.999951 0.998904
0.999118 0.999951 0.998916
0.999167 0.999951 0.998969
0.999381 0.999954 0.999202
1.000000 1.000000 1.000000
1.000000 1.000000 1.000000
0.000000 0.004318 0.011798
0.025313 0.000035 0.023047
0.086173 0.000000 0.045515
0.273526 0.000370 0.092504
0.661406 0.000000 0.155420
1.000000 0.320433 0.286758
1.000000 0.593520 0.517640
1.000000 0.841494 0.802387
1.000000 0.992362 0.990621
0.000000 0.027602 0.027048
0.034101 0.034101 0.034101
0.107351 0.032420 0.043824
0.288490 0.030065 0.083418
0.666724 0.001083 0.147883
1.000000 0.324801 0.286663
1.000000 0.594100 0.517857
1.000000 0.841634 0.802526
1.000000 0.992363 0.990622
0.000149 0.096474 0.062091
0.022683 0.106053 0.056878
0.123366 0.120571 0.044231
0.318457 0.125603 0.049989
0.686292 0.084551 0.111392
1.000000 0.343725 0.287986
1.000000 0.596399 0.518713
1.000000 0.842191 0.803078
1.000000 0.992369 0.990629
0.000505 0.289525 0.138551
0.000000 0.294443 0.131117
0.056710 0.309037 0.063954
0.329673 0.323595 0.019136
0.693969 0.320874 0.037999
1.000000 0.398692 0.279864
1.000000 0.606245 0.522294
1.000000 0.844635 0.805497
1.000000 0.992395 0.990656
0.001074 0.618467 0.252662
0.000930 0.619761 0.248036
0.000000 0.624489 0.226483
0.208046 0.640788 0.000000
0.641547 0.632362 0.000000
1.000000 0.588347 0.292777
1.000000 0.650942 0.543062
1.000000 0.855023 0.815829
1.000000 0.992513 0.990779
0.001255 0.936001 0.350198
0.001873 0.936484 0.348504
0.000000 0.938690 0.342359
0.001214 0.949182 0.302376
0.344777 0.974729 0.000630
0.918973 0.907106 0.000000
1.000000 0.809927 0.662426
1.000000 0.896723 0.860407
1.000000 0.993032 0.991323
0.696105 1.000000 0.679625
0.696334 1.000000 0.679633
0.697250 1.000000 0.679662
0.701282 1.000000 0.679775
0.718809 1.000000 0.679948
0.795224 1.000000 0.688577
1.000000 1.000000 0.632217
1.000000 0.965129 0.938248
0.999903 0.994851 0.993259
0.952036 1.000000 0.943157
0.952046 1.000000 0.943161
0.952080 1.000000 0.943173
0.952243 1.000000 0.943234
0.952986 1.000000 0.943523
0.956168 1.000000 0.944707
0.968720 1.000000 0.949762
0.999758 1.000000 0.948971
0.999875 0.998276 0.997115
0.999103 0.999951 0.998901
0.999103 0.999951 0.998901
0.999103 0.999951 0.998902
0.999105 0.999951 0.998904
0.999117 0.999951 0.998916
0.999167 0.999951 0.998969
0.999381 0.999954 0.999202
1.000000 1.000000 1.000000
1.000000 1.000000 1.000000
0.000075 0.017829 0.048093
0.035810 0.000000 0.063608
0.099516 0.000000 0.090595
0.281089 0.000000 0.153125
0.661143 0.000936 0.229298
1.000000 0.316538 0.325784
1.000000 0.594669 0.526718
1.000000 0.844347 0.806693
1.000000 0.992381 0.990652
0.000097 0.040725 0.062755
0.030106 0.035049 0.087184
0.114030 0.031625 0.105772
0.294616 0.031342 0.152952
0.666401 0.000480 0.224557
1.000000 0.321069 0.325680
1.000000 0.595652 0.527361
1.000000 0.844478 0.806820
1.000000 0.992382 0.990653
0.000127 0.106074 0.103948
0.021894 0.113113 0.111089
0.125086 0.125086 0.125086
0.334597 0.105357 0.139604
0.685312 0.094723 0.204238
1.000000 0.340547 0.326782
1.000000 0.599566 0.529942
1.000000 0.844994 0.807321
1.000000 0.992389 0.990660
0.000564 0.291353 0.191606
0.000526 0.295842 0.189103
0.075466 0.312170 0.170339
0.332309 0.325504 0.138466
0.704507 0.306908 0.162703
1.000000 0.409728 0.330683
1.000000 0.613701 0.538233
1.000000 0.847393 0.809687
1.000000 0.992415 0.990687
0.001020 0.617299 0.298468
0.001214 0.618572 0.295042
0.000000 0.623119 0.280399
0.162117 0.642801 0.164445
0.641041 0.630269 0.129778
1.000000 0.590692 0.333719
1.000000 0.655913 0.555786
1.000000 0.857725 0.819954
1.000000 0.992532 0.990810
0.000000 0.935380 0.372834
0.000630 0.935922 0.371604
0.001585 0.938146 0.366209
0.001467 0.947954 0.337011
0.326275 0.978814 0.000000
0.919634 0.907301 0.000630
1.000000 0.812673 0.671164
1.000000 0.898209 0.862901
1.000000 0.993046 0.991348
0.699681 1.000000 0.685192
0.699909 1.000000 0.685201
0.700815 1.000000 0.685235
0.704806 1.000000 0.685368
0.722133 1.000000 0.685614
0.796912 1.000000 0.693250
1.000000 1.000000 0.635626
1.000000 0.965314 0.938752
0.999902 0.994859 0.993274
0.952168 1.000000 0.943399
0.952177 1.000000 0.943403
0.952214 1.000000 0.943417
0.952372 1.000000 0.943474
0.953110 1.000000 0.943759
0.956280 1.000000 0.944932
0.968773 1.000000 0.949924
0.999760 1.000000 0.949045
0.999876 0.998277 0.997119
0.999103 0.999951 0.998902
0.999103 0.999951 0.998902
0.999104 0.999951 0.998902
0.999106 0.999951 0.998905
0.999118 0.999951 0.998917
0.999167 0.999952 0.998969
0.999381 0.999954 0.999203
1.000000 1.000000 1.000000
1.000000 1.000000 1.000000
0.000217 0.063847 0.170340
0.017040 0.000000 0.196860
0.128785 0.000000 0.218772
0.305941 0.000370 0.278488
0.663720 0.000000 0.361543
1.000000 0.308311 0.417350
1.000000 0.593621 0.551586
1.000000 0.855966 0.823936
1.000000 0.992465 0.990787
0.000000 0.084119 0.180539
0.011359 0.069501 0.204647
0.129082 0.027782 0.238486
0.313526 0.029882 0.286772
0.668283 0.000000 0.360548
1.000000 0.313106 0.417321
1.000000 0.594632 0.552208
1.000000 0.856094 0.824060
1.000000 0.992467 0.990789
0.000000 0.142677 0.214312
0.013202 0.142914 0.229004
0.099451 0.114487 0.293508
0.336388 0.102729 0.312460
0.684865 0.096524 0.355494
1.000000 0.333477 0.418371
1.000000 0.598655 0.554703
1.000000 0.856603 0.824554
1.000000 0.992473 0.990795
0.000483 0.306047 0.299905
0.000483 0.308938 0.302887
0.072114 0.318975 0.313345
0.327888 0.327888 0.327888
0.702849 0.305232 0.343143
1.000000 0.408228 0.424569
1.000000 0.616307 0.566023
1.000000 0.858832 0.826720
1.000000 0.992498 0.990821
0.000823 0.615775 0.404403
0.000823 0.616931 0.402846
0.001332 0.621057 0.396116
0.205490 0.636612 0.358501
0.634077 0.626219 0.353685
1.000000 0.599846 0.440248
1.000000 0.680625 0.608262
1.000000 0.868301 0.835952
1.000000 0.992613 0.990941
0.000961 0.933640 0.443085
0.000000 0.934158 0.442191
0.000000 0.936231 0.438594
0.000630 0.945167 0.422254
0.382277 0.971182 0.331540
0.912732 0.903139 0.333242
1.000000 0.823533 0.703959
1.000000 0.904369 0.873080
1.000000 0.993108 0.991453
0.704859 1.000000 0.699260
0.705276 1.000000 0.699440
0.706934 1.000000 0.700159
0.714190 1.000000 0.703342
0.735312 1.000000 0.708024
0.803788 1.000000 0.712072
1.000000 1.000000 0.649524
1.000000 0.966084 0.940846
0.999896 0.994892 0.993339
0.952732 1.000000 0.944438
0.952742 1.000000 0.944442
0.952778 1.000000 0.944456
0.952936 1.000000 0.944515
0.953649 1.000000 0.944775
0.956764 1.000000 0.945906
0.969004 1.000000 0.950623
0.999766 1.000000 0.949356
0.999875 0.998281 0.997133
0.999104 0.999951 0.998905
0.999105 0.999951 0.998905
0.999105 0.999951 0.998906
0.999108 0.999951 0.998909
0.999119 0.999951 0.998920
0.999169 0.999952 0.998973
0.999382 0.999954 0.999206
1.000000 1.000000 1.000000
1.000000 1.000000 1.000000
0.000000 0.182951 0.485243
0.000823 0.169047 0.498632
0.083429 0.000687 0.548828
0.336510 0.000000 0.571919
0.673320 0.000000 0.612825
1.000000 0.303466 0.594114
1.000000 0.593967 0.614773
1.000000 0.861345 0.839618
1.000000 0.992801 0.991324
0.000000 0.195784 0.488455
0.000000 0.184667 0.501308
0.000823 0.000000 0.559476
0.335563 0.000564 0.580290
0.675418 0.000687 0.615412
1.000000 0.308586 0.594261
1.000000 0.595023 0.615347
1.000000 0.861591 0.839872
1.000000 0.992802 0.991325
0.000823 0.237028 0.500024
0.000823 0.231410 0.510952
0.055071 0.190523 0.558414
0.328821 0.086296 0.610955
0.682684 0.087468 0.624630
1.000000 0.329691 0.595393
1.000000 0.599223 0.617649
1.000000 0.862572 0.840887
1.000000 0.992808 0.991330
0.000823 0.358313 0.538058
0.000000 0.357667 0.543969
0.062892 0.353207 0.568123
0.283891 0.314770 0.648518
0.685843 0.299915 0.637026
1.000000 0.406024 0.601483
1.000000 0.617650 0.628087
1.000000 0.866853 0.845328
1.000000 0.992832 0.991354
0.000000 0.621461 0.608937
0.001255 0.622062 0.609597
0.001074 0.623991 0.611781
0.197987 0.630378 0.619460
0.618112 0.618112 0.618112
1.000000 0.618798 0.635572
1.000000 0.695670 0.678437
1.000000 0.884662 0.864018
1.000000 0.992936 0.991460
0.001402 0.927921 0.605692
0.000000 0.928347 0.605340
0.000000 0.930024 0.603925
0.001402 0.937150 0.597506
0.490581 0.936706 0.599898
0.883282 0.879771 0.650616
1.000000 0.855679 0.790561
1.000000 0.924970 0.905732
0.999961 0.993390 0.991921
0.714179 1.000000 0.739752
0.714623 1.000000 0.739942
0.716387 1.000000 0.740694
0.724078 1.000000 0.744007
0.755973 1.000000 0.758334
0.826625 1.000000 0.772413
1.000000 1.000000 0.696503
1.000000 0.968925 0.948380
0.999872 0.995032 0.993611
0.954798 1.000000 0.948377
0.954811 1.000000 0.948387
0.954868 1.000000 0.948424
0.955117 1.000000 0.948590
0.955791 1.000000 0.948826
0.958686 1.000000 0.949787
0.969933 1.000000 0.953462
0.999796 1.000000 0.950669
0.999872 0.998298 0.997196
0.999111 0.999952 0.998920
0.999112 0.999952 0.998921
0.999112 0.999952 0.998921
0.999115 0.999952 0.998924
0.999125 0.999952 0.998935
0.999176 0.999952 0.998987
0.999388 0.999955 0.999218
1.000000 1.000000 1.000000
1.000000 1.000000 1.000000
0.000000 0.350518 0.953679
0.001402 0.344764 0.959696
0.000000 0.318362 0.984682
0.271431 0.266855 1.000000
0.617970 0.243968 1.000000
1.000000 0.321441 0.923242
1.000000 0.615518 0.742150
1.000000 0.871086 0.870959
0.999954 0.993431 0.992456
0.001402 0.355879 0.952954
0.001402 0.350497 0.958763
0.000000 0.325512 0.983260
0.270182 0.275237 1.000000
0.617207 0.253448 1.000000
1.000000 0.326545 0.923213
1.000000 0.616561 0.742590
1.000000 0.871327 0.871174
0.999955 0.993433 0.992458
0.001402 0.375324 0.951408
0.001830 0.371030 0.956313
0.000000 0.351523 0.977961
0.267308 0.307070 1.000000
0.614542 0.289744 1.000000
1.000000 0.345686 0.923139
1.000000 0.620719 0.744355
1.000000 0.872278 0.872027
0.999953 0.993440 0.992465
0.000000 0.443766 0.948291
0.001402 0.441308 0.952383
0.000000 0.431703 0.968622
0.266970 0.410492 0.996879
0.604961 0.398356 0.995204
1.000000 0.414673 0.923294
1.000000 0.639009 0.752348
1.000000 0.876423 0.875753
0.999951 0.993469 0.992495
0.000000 0.623712 0.940070
0.000000 0.623391 0.942093
0.001402 0.622489 0.950375
0.173344 0.618236 0.982944
0.587940 0.625113 0.957218
0.981663 0.606513 0.917655
1.000000 0.716415 0.790122
1.000000 0.893466 0.891234
0.999938 0.993605 0.992633
0.001402 0.910001 0.891454
0.001830 0.910164 0.891641
0.001402 0.910794 0.892372
0.001830 0.913237 0.895291
0.457068 0.908441 0.894078
0.861095 0.861095 0.861095
1.000000 0.882416 0.883804
1.000000 0.939671 0.934373
0.999890 0.994159 0.993198
0.731666 1.000000 0.832625
0.732040 1.000000 0.832726
0.733534 1.000000 0.833130
0.740038 1.000000 0.834897
0.766971 1.000000 0.842385
0.848558 1.000000 0.864284
0.978576 0.978557 0.876810
1.000000 0.975553 0.965036
0.999798 0.995512 0.994504
0.956323 1.000000 0.955394
0.956337 1.000000 0.955402
0.956395 1.000000 0.955438
0.956648 1.000000 0.955594
0.957777 1.000000 0.956288
0.962382 1.000000 0.959098
0.972732 1.000000 0.962250
0.999900 1.000000 0.955084
0.999861 0.998368 0.997437
0.999143 0.999955 0.998986
0.999143 0.999955 0.998986
0.999143 0.999955 0.998987
0.999144 0.999955 0.998989
0.999156 0.999955 0.999000
0.999205 0.999955 0.999049
0.999415 0.999958 0.999272
1.000000 1.000000 1.000000
1.000000 1.000000 1.000000
0.546498 0.645792 1.000000
0.547336 0.645826 1.000000
0.550658 0.645969 1.000000
0.563810 0.645730 1.000000
0.616278 0.644325 1.000000
0.791959 0.667394 1.000000
1.000000 0.729232 0.955499
1.000000 0.902882 0.929163
0.999920 0.993887 0.993777
0.546970 0.646551 1.000000
0.547805 0.646587 1.000000
0.551121 0.646730 1.000000
0.564316 0.646549 1.000000
0.616614 0.645096 1.000000
0.792117 0.668188 1.000000
1.000000 0.729867 0.955588
1.000000 0.903046 0.929270
0.999920 0.993888 0.993778
0.548202 0.649101 1.000000
0.549287 0.649320 1.000000
0.552978 0.649755 1.000000
0.566362 0.649812 1.000000
0.617965 0.648161 1.000000
0.792753 0.671343 1.000000
1.000000 0.732388 0.955941
1.000000 0.903702 0.929696
0.999919 0.993894 0.993784
0.553461 0.660003 1.000000
0.554536 0.660222 1.000000
0.558806 0.661115 1.000000
0.575241 0.663749 1.000000
0.625120 0.662441 1.000000
0.795694 0.685059 1.000000
1.000000 0.743332 0.957487
1.000000 0.906541 0.931548
0.999918 0.993922 0.993809
0.577155 0.704426 1.000000
0.578163 0.704638 1.000000
0.582186 0.705501 1.000000
0.599504 0.709418 1.000000
0.661564 0.722671 1.000000
0.810350 0.740761 1.000000
1.000000 0.787149 0.963889
1.000000 0.918045 0.939104
0.999907 0.994045 0.993919
0.663883 0.833744 1.000000
0.664610 0.833874 1.000000
0.667507 0.834400 1.000000
0.680075 0.836747 1.000000
0.730982 0.847450 1.000000
0.859118 0.875929 0.999555
1.000000 0.885256 0.978932
1.000000 0.949556 0.960236
0.999868 0.994553 0.994377
0.723191 1.000000 0.989889
0.723419 1.000000 0.989893
0.724331 1.000000 0.989910
0.728335 1.000000 0.989984
0.745378 1.000000 0.990267
0.808345 0.998116 0.989184
0.966004 0.966004 0.966004
1.000000 0.978687 0.978705
0.999774 0.996156 0.995835
0.958377 1.000000 0.970774
0.958388 1.000000 0.970778
0.958434 1.000000 0.970796
0.958635 1.000000 0.970871
0.959536 1.000000 0.971208
0.963284 1.000000 0.972587
0.974570 1.000000 0.975906
0.996914 0.997126 0.977637
0.999825 0.998601 0.998098
0.999246 0.999964 0.999198
0.999246 0.999964 0.999198
0.999246 0.999964 0.999198
0.999249 0.999964 0.999201
0.999260 0.999964 0.999211
0.999309 0.999965 0.999257
0.999518 0.999968 0.999459
1.000000 1.000000 1.000000
1.000000 1.000000 1.000000
0.832509 0.870597 1.000000
0.832693 0.870697 1.000000
0.833423 0.871098 1.000000
0.836624 0.872860 1.000000
0.846130 0.877166 1.000000
0.871471 0.884932 1.000000
0.943615 0.913958 1.000000
1.000000 0.957352 0.989703
0.999862 0.995347 0.996329
0.832605 0.870699 1.000000
0.832789 0.870799 1.000000
0.833518 0.871199 1.000000
0.836718 0.872960 1.000000
0.846280 0.877312 1.000000
0.871583 0.885062 1.000000
0.943653 0.914046 1.000000
1.000000 0.957379 0.989709
0.999862 0.995348 0.996330
0.832989 0.871103 1.000000
0.833171 0.871204 1.000000
0.833901 0.871604 1.000000
0.837091 0.873359 1.000000
0.846871 0.877890 1.000000
0.872035 0.885576 1.000000
0.943808 0.914393 1.000000
1.000000 0.957488 0.989734
0.999861 0.995352 0.996332
0.834688 0.872896 1.000000
0.834867 0.872993 1.000000
0.835581 0.873382 1.000000
0.838742 0.875116 1.000000
0.849362 0.880339 1.000000
0.874116 0.887919 1.000000
0.944481 0.915910 1.000000
1.000000 0.957966 0.989846
0.999860 0.995371 0.996345
0.842129 0.880663 1.000000
0.842296 0.880753 1.000000
0.842966 0.881112 1.000000
0.845935 0.882710 1.000000
0.858658 0.889659 1.000000
0.883122 0.897920 1.000000
0.947336 0.922290 1.000000
1.000000 0.960017 0.990325
0.999856 0.995451 0.996401
0.869900 0.908709 1.000000
0.870028 0.908772 1.000000
0.870534 0.909020 1.000000
0.872784 0.910131 1.000000
0.882373 0.914907 1.000000
0.912584 0.929685 1.000000
0.956837 0.943004 1.000000
1.000000 0.967284 0.992048
0.999840 0.995789 0.996637
0.925654 0.962077 1.000000
0.925698 0.962090 1.000000
0.925878 0.962145 1.000000
0.926666 0.962384 1.000000
0.930115 0.963437 1.000000
0.943156 0.967469 1.000000
0.970586 0.974418 0.999962
1.000000 0.980655 0.995288
0.999799 0.996934 0.997446
0.958389 1.000000 0.997850
0.958395 1.000000 0.997851
0.958421 1.000000 0.997852
0.958526 1.000000 0.997859
0.959004 1.000000 0.997886
0.961058 1.000000 0.998002
0.968525 1.000000 0.998198
0.994738 0.994739 0.994738
0.999804 0.998935 0.998930
0.999658 0.999986 0.999746
0.999659 0.999986 0.999747
0.999660 0.999986 0.999747
0.999661 0.999986 0.999749
0.999671 0.999986 0.999755
0.999717 0.999987 0.999787
0.999906 0.999994 0.999926
1.000000 1.000000 1.000000
1.000000 1.000000 1.000000
0.980544 0.985244 1.000000
0.980547 0.985246 1.000000
0.980563 0.985254 1.000000
0.980636 0.985291 1.000000
0.980958 0.985456 1.000000
0.982337 0.986162 1.000000
0.985714 0.987453 1.000000
0.994175 0.991219 1.000000
0.999892 0.998616 0.999475
0.980546 0.985247 1.000000
0.980550 0.985248 1.000000
0.980566 0.985257 1.000000
0.980638 0.985293 1.000000
0.980961 0.985458 1.000000
0.982339 0.986164 1.000000
0.985715 0.987455 1.000000
0.994175 0.991220 1.000000
0.999892 0.998617 0.999475
0.980556 0.985257 1.000000
0.980560 0.985259 1.000000
0.980576 0.985267 1.000000
0.980649 0.985304 1.000000
0.980971 0.985468 1.000000
0.982349 0.986174 1.000000
0.985725 0.987466 1.000000
0.994177 0.991227 1.000000
0.999893 0.998617 0.999475
0.980602 0.985303 1.000000
0.980606 0.985305 1.000000
0.980622 0.985314 1.000000
0.980694 0.985350 1.000000
0.981014 0.985513 1.000000
0.982386 0.986215 1.000000
0.985765 0.987512 1.000000
0.994187 0.991252 1.000000
0.999893 0.998621 0.999477
0.980806 0.985510 1.000000
0.980810 0.985512 1.000000
0.980826 0.985520 1.000000
0.980896 0.985556 1.000000
0.981213 0.985716 1.000000
0.982560 0.986401 1.000000
0.985944 0.987717 1.000000
0.994233 0.991371 1.000000
0.999893 0.998641 0.999484
0.981689 0.986399 1.000000
0.981693 0.986401 1.000000
0.981708 0.986408 1.000000
0.981772 0.986440 1.000000
0.982064 0.986584 1.000000
0.983308 0.987199 1.000000
0.986701 0.988589 1.000000
0.994432 0.991882 1.000000
0.999896 0.998728 0.999516
0.984898 0.989561 1.000000
0.984902 0.989563 1.000000
0.984913 0.989566 1.000000
0.984960 0.989587 1.000000
0.985167 0.989679 1.000000
0.986068 0.990074 1.000000
0.989280 0.991505 1.000000
0.995182 0.993708 0.999993
0.999909 0.999073 0.999643
0.992025 0.995973 1.000000
0.992026 0.995973 1.000000
0.992029 0.995974 1.000000
0.992046 0.995978 1.000000
0.992120 0.995998 1.000000
0.992441 0.996085 1.000000
0.993728 0.996448 1.000000
0.996970 0.997376 0.999860
1.000000 1.000000 1.000000
1.000000 1.000000 1.000000
1.000000 1.000000 1.000000
1.000000 1.000000 1.000000
1.000000 1.000000 1.000000
1.000000 1.000000 1.000000
1.000000 1.000000 1.000000
1.000000 1.000000 1.000000
1.000000 1.000000 1.000000
1.000000 1.000000 1.000000
