OCIO/luts/ACES2_Output_v1.0.0/ACES2_Output v1.0.0 Rec2100 (P3D65 4000nit Limited).cube
TITLE "Generated by Foundry::LUT"
LUT_3D_SIZE 5
0.000001 0.000001 0.000001
0.081831 0.023307 0.001781
0.431871 0.208378 0.000001
0.784869 0.488646 0.312932
0.885454 0.815813 0.778659
0.054488 0.102462 0.018821
0.125724 0.125796 0.021461
0.437138 0.211924 0.000001
0.785576 0.489279 0.307159
0.885454 0.815882 0.778722
0.301764 0.436636 0.223246
0.304597 0.440503 0.200662
0.459450 0.459389 0.150290
0.800546 0.502773 0.000001
0.885613 0.817144 0.780008
0.610969 0.777317 0.524693
0.611102 0.777482 0.523637
0.613926 0.780957 0.496588
0.786843 0.787649 0.368968
0.888656 0.838695 0.803021
0.866275 0.900257 0.846580
0.866283 0.900257 0.846580
0.866405 0.900266 0.846576
0.868557 0.900359 0.846440
0.899931 0.901890 0.827129
0.013082 0.009301 0.054868
0.099959 0.032086 0.098977
0.429062 0.207137 0.209502
0.784765 0.488616 0.344983
0.885575 0.816709 0.780184
0.066813 0.114116 0.113735
0.133027 0.133027 0.133027
0.439746 0.214116 0.187045
0.785476 0.489244 0.340547
0.885583 0.816774 0.780250
0.302898 0.436604 0.270212
0.305648 0.440403 0.258422
0.459684 0.459596 0.159301
0.799479 0.501821 0.000001
0.885746 0.818026 0.781517
0.611027 0.777287 0.528868
0.611157 0.777449 0.527842
0.613906 0.780828 0.502750
0.786932 0.787656 0.368963
0.888740 0.839149 0.803895
0.866311 0.900257 0.846664
0.866320 0.900257 0.846664
0.866426 0.900266 0.846664
0.868586 0.900367 0.846524
0.899931 0.901881 0.827191
0.170300 0.149677 0.385005
0.189904 0.144851 0.392430
0.445962 0.227592 0.443675
0.784103 0.488996 0.509134
0.886818 0.825101 0.795544
0.185821 0.215606 0.385867
0.189507 0.183410 0.410181
0.448597 0.229553 0.447417
0.784788 0.489604 0.507986
0.886839 0.825280 0.795780
0.323245 0.444824 0.444322
0.325216 0.447088 0.446734
0.461299 0.461299 0.461299
0.796181 0.513829 0.491258
0.887344 0.828751 0.800282
0.612111 0.776841 0.583100
0.612242 0.777002 0.582490
0.614719 0.780096 0.569154
0.785494 0.786613 0.516591
0.890050 0.846548 0.817987
0.866928 0.900295 0.848140
0.866928 0.900295 0.848144
0.867083 0.900304 0.848200
0.869179 0.900397 0.848056
0.899957 0.901890 0.828408
0.460846 0.480946 0.752461
0.461091 0.477260 0.754212
0.478273 0.354527 0.798342
0.789433 0.507154 0.786491
0.887967 0.829345 0.824390
0.461899 0.484826 0.752546
0.462147 0.481261 0.754312
0.478525 0.354743 0.798609
0.789686 0.507399 0.786829
0.887996 0.829513 0.824549
0.481076 0.542416 0.754312
0.481286 0.541059 0.755590
0.486088 0.487630 0.786992
0.794026 0.511575 0.792606
0.888468 0.832700 0.827577
0.630102 0.777771 0.777339
0.630186 0.777856 0.777427
0.631752 0.779427 0.779173
0.781307 0.781307 0.781307
0.893286 0.861686 0.854607
0.868255 0.900423 0.857994
0.868259 0.900423 0.857994
0.868480 0.900431 0.858152
0.872184 0.900605 0.860397
0.898429 0.900524 0.860126
0.795026 0.813203 0.901589
0.795060 0.813195 0.901589
0.795675 0.813073 0.901580
0.805435 0.808645 0.901546
0.895647 0.866964 0.894746
0.795075 0.813261 0.901589
0.795109 0.813257 0.901589
0.795724 0.813134 0.901584
0.805454 0.808690 0.901546
0.895656 0.866976 0.894746
0.796020 0.814453 0.901601
0.796050 0.814446 0.901601
0.796673 0.814338 0.901593
0.806377 0.810102 0.901555
0.895727 0.867389 0.894826
0.812108 0.834058 0.901771
0.812142 0.834062 0.901763
0.814131 0.835096 0.901771
0.837597 0.846130 0.901864
0.896676 0.872853 0.895841
0.865683 0.900643 0.900295
0.865692 0.900643 0.900295
0.865826 0.900643 0.900279
0.869028 0.900414 0.899885
0.895841 0.895841 0.895841
