OCIO/luts/ACES2_Output_v1.0.0/ACES2_Output v1.0.0 Rec2100 (P3D65 4000nit Limited).cube
TITLE "Generated by Foundry::LUT"
LUT_3D_SIZE 65
0.000001 0.000001 0.000001
0.000001 0.000001 0.000001
0.000001 0.000001 0.000001
0.000001 0.000001 0.000001
0.000001 0.000001 0.000001
0.000799 0.000161 0.000001
0.005091 0.000994 0.000001
0.010311 0.002102 0.000001
0.015811 0.003364 0.000001
0.021373 0.004724 0.000001
0.026903 0.006149 0.000001
0.032968 0.007788 0.000001
0.040122 0.009814 0.000001
0.048484 0.012299 0.000001
0.058162 0.015321 0.000001
0.069251 0.018963 0.000930
0.081831 0.023307 0.001781
0.095948 0.028436 0.002780
0.111623 0.034423 0.003966
0.128834 0.041333 0.005347
0.147521 0.049209 0.006915
0.167580 0.058076 0.008642
0.188873 0.067934 0.010483
0.211228 0.078756 0.012369
0.234458 0.090492 0.014198
0.258368 0.103077 0.015824
0.282769 0.116427 0.017036
0.307489 0.130462 0.017499
0.332385 0.145096 0.016604
0.357340 0.160261 0.012868
0.382269 0.175892 0.000001
0.407128 0.191942 0.000001
0.431871 0.208378 0.000001
0.452164 0.222238 0.087638
0.475951 0.238813 0.100131
0.499523 0.255635 0.114027
0.522926 0.272724 0.128770
0.546187 0.290079 0.144138
0.569311 0.307694 0.160006
0.592278 0.325548 0.176273
0.615079 0.343619 0.192843
0.637610 0.361806 0.209425
0.659564 0.379849 0.225132
0.681270 0.397986 0.240627
0.702701 0.416188 0.255860
0.723816 0.434406 0.270776
0.744588 0.452600 0.285306
0.764955 0.470701 0.299384
0.784869 0.488646 0.312932
0.804267 0.506354 0.325875
0.823082 0.523749 0.338131
0.841238 0.540741 0.349616
0.858669 0.557230 0.360256
0.872098 0.570087 0.383517
0.872488 0.593416 0.450833
0.873342 0.633172 0.510792
0.874247 0.663649 0.555954
0.875211 0.688644 0.592757
0.876246 0.710351 0.624610
0.877368 0.729907 0.653247
0.878592 0.748066 0.679801
0.879970 0.765334 0.705030
0.881520 0.782029 0.729384
0.883323 0.798760 0.753800
0.885454 0.815813 0.778659
0.000001 0.000001 0.000001
0.000001 0.000001 0.000001
0.000001 0.000001 0.000001
0.000001 0.000001 0.000001
0.000001 0.000001 0.000001
0.000799 0.000161 0.000001
0.005091 0.000994 0.000001
0.010311 0.002102 0.000001
0.015811 0.003364 0.000001
0.021373 0.004724 0.000001
0.026903 0.006149 0.000001
0.032968 0.007788 0.000001
0.040122 0.009814 0.000001
0.048484 0.012299 0.000001
0.058162 0.015321 0.000001
0.069251 0.018963 0.000930
0.081831 0.023307 0.001781
0.095948 0.028436 0.002780
0.111623 0.034423 0.003966
0.128834 0.041333 0.005347
0.147521 0.049209 0.006915
0.167580 0.058076 0.008642
0.188873 0.067934 0.010483
0.211228 0.078756 0.012369
0.234458 0.090492 0.014198
0.258368 0.103077 0.015824
0.282769 0.116427 0.017036
0.307489 0.130462 0.017498
0.332385 0.145096 0.016604
0.357340 0.160261 0.012868
0.382269 0.175892 0.000001
0.407128 0.191942 0.000001
0.431867 0.208378 0.000001
0.452164 0.222238 0.087638
0.475951 0.238813 0.100131
0.499523 0.255635 0.114027
0.522926 0.272724 0.128769
0.546187 0.290079 0.144138
0.569311 0.307694 0.160006
0.592278 0.325548 0.176273
0.615079 0.343619 0.192843
0.637610 0.361806 0.209425
0.659564 0.379849 0.225131
0.681270 0.397986 0.240627
0.702701 0.416188 0.255860
0.723816 0.434410 0.270774
0.744584 0.452604 0.285306
0.764955 0.470701 0.299384
0.784869 0.488646 0.312932
0.804267 0.506354 0.325875
0.823082 0.523749 0.338131
0.841238 0.540741 0.349616
0.858669 0.557230 0.360254
0.872098 0.570087 0.383517
0.872488 0.593416 0.450833
0.873342 0.633172 0.510792
0.874247 0.663649 0.555954
0.875211 0.688644 0.592757
0.876246 0.710351 0.624610
0.877368 0.729907 0.653247
0.878592 0.748066 0.679801
0.879970 0.765334 0.705030
0.881520 0.782029 0.729384
0.883323 0.798763 0.753800
0.885446 0.815813 0.778655
0.000001 0.000001 0.000001
0.000001 0.000001 0.000001
0.000001 0.000001 0.000001
0.000001 0.000001 0.000001
0.000001 0.000001 0.000001
0.000799 0.000161 0.000001
0.005091 0.000994 0.000001
0.010311 0.002102 0.000001
0.015811 0.003364 0.000001
0.021373 0.004724 0.000001
0.026903 0.006149 0.000001
0.032968 0.007788 0.000001
0.040122 0.009814 0.000001
0.048484 0.012299 0.000001
0.058162 0.015321 0.000001
0.069251 0.018963 0.000930
0.081831 0.023307 0.001781
0.095948 0.028436 0.002780
0.111623 0.034423 0.003966
0.128834 0.041333 0.005347
0.147521 0.049209 0.006915
0.167580 0.058076 0.008642
0.188873 0.067934 0.010483
0.211228 0.078756 0.012369
0.234458 0.090492 0.014198
0.258368 0.103077 0.015824
0.282769 0.116427 0.017036
0.307489 0.130462 0.017498
0.332385 0.145096 0.016604
0.357340 0.160261 0.012868
0.382269 0.175892 0.000001
0.407128 0.191942 0.000001
0.431871 0.208378 0.000001
0.452164 0.222238 0.087638
0.475951 0.238813 0.100131
0.499523 0.255635 0.114027
0.522926 0.272724 0.128769
0.546187 0.290079 0.144138
0.569311 0.307694 0.160006
0.592278 0.325548 0.176272
0.615079 0.343619 0.192843
0.637610 0.361806 0.209425
0.659564 0.379849 0.225132
0.681270 0.397986 0.240627
0.702701 0.416188 0.255860
0.723816 0.434410 0.270774
0.744584 0.452604 0.285306
0.764955 0.470701 0.299384
0.784869 0.488646 0.312932
0.804267 0.506354 0.325875
0.823082 0.523749 0.338131
0.841238 0.540741 0.349616
0.858669 0.557230 0.360254
0.872098 0.570087 0.383517
0.872488 0.593416 0.450833
0.873342 0.633172 0.510792
0.874247 0.663649 0.555954
0.875211 0.688641 0.592754
0.876246 0.710351 0.624610
0.877368 0.729911 0.653247
0.878592 0.748066 0.679801
0.879970 0.765334 0.705030
0.881520 0.782029 0.729384
0.883323 0.798763 0.753800
0.885454 0.815813 0.778659
0.000001 0.000001 0.000001
0.000001 0.000001 0.000001
0.000001 0.000001 0.000001
0.000001 0.000001 0.000001
0.000001 0.000001 0.000001
0.000799 0.000161 0.000001
0.005091 0.000994 0.000001
0.010311 0.002102 0.000001
0.015811 0.003364 0.000001
0.021373 0.004724 0.000001
0.026903 0.006149 0.000001
0.032968 0.007788 0.000001
0.040122 0.009814 0.000001
0.048484 0.012299 0.000001
0.058162 0.015321 0.000001
0.069251 0.018963 0.000930
0.081831 0.023307 0.001781
0.095948 0.028435 0.002780
0.111623 0.034423 0.003966
0.128834 0.041333 0.005347
0.147521 0.049209 0.006915
0.167580 0.058076 0.008642
0.188873 0.067934 0.010483
0.211228 0.078756 0.012369
0.234458 0.090492 0.014198
0.258368 0.103077 0.015824
0.282769 0.116427 0.017036
0.307489 0.130462 0.017498
0.332385 0.145096 0.016604
0.357340 0.160261 0.012868
0.382269 0.175892 0.000001
0.407128 0.191942 0.000001
0.431867 0.208378 0.000001
0.452164 0.222238 0.087638
0.475951 0.238813 0.100131
0.499523 0.255635 0.114027
0.522926 0.272724 0.128770
0.546187 0.290079 0.144138
0.569311 0.307694 0.160006
0.592278 0.325548 0.176272
0.615079 0.343619 0.192843
0.637610 0.361806 0.209425
0.659564 0.379849 0.225131
0.681270 0.397986 0.240626
0.702701 0.416188 0.255860
0.723816 0.434410 0.270774
0.744584 0.452604 0.285306
0.764955 0.470701 0.299384
0.784869 0.488646 0.312932
0.804267 0.506354 0.325875
0.823082 0.523749 0.338131
0.841238 0.540741 0.349616
0.858669 0.557230 0.360256
0.872098 0.570087 0.383517
0.872488 0.593416 0.450833
0.873342 0.633172 0.510792
0.874247 0.663649 0.555954
0.875211 0.688644 0.592757
0.876246 0.710351 0.624610
0.877368 0.729911 0.653247
0.878592 0.748066 0.679801
0.879970 0.765334 0.705030
0.881520 0.782029 0.729384
0.883323 0.798763 0.753800
0.885454 0.815813 0.778659
0.000001 0.000001 0.000001
0.000001 0.000001 0.000001
0.000001 0.000001 0.000001
0.000001 0.000001 0.000001
0.000001 0.000001 0.000001
0.000799 0.000161 0.000001
0.005091 0.000994 0.000001
0.010311 0.002102 0.000001
0.015811 0.003364 0.000001
0.021373 0.004724 0.000001
0.026903 0.006149 0.000001
0.032968 0.007788 0.000001
0.040122 0.009814 0.000001
0.048484 0.012299 0.000001
0.058162 0.015321 0.000001
0.069251 0.018963 0.000930
0.081831 0.023307 0.001781
0.095948 0.028436 0.002780
0.111623 0.034423 0.003966
0.128834 0.041333 0.005347
0.147521 0.049209 0.006915
0.167580 0.058077 0.008642
0.188873 0.067934 0.010483
0.211228 0.078756 0.012369
0.234458 0.090492 0.014198
0.258368 0.103077 0.015824
0.282769 0.116427 0.017036
0.307489 0.130462 0.017498
0.332385 0.145096 0.016604
0.357340 0.160261 0.012868
0.382269 0.175892 0.000001
0.407128 0.191942 0.000001
0.431867 0.208378 0.000001
0.452164 0.222238 0.087638
0.475951 0.238813 0.100131
0.499523 0.255635 0.114027
0.522926 0.272724 0.128770
0.546187 0.290079 0.144138
0.569311 0.307694 0.160006
0.592278 0.325548 0.176272
0.615079 0.343619 0.192843
0.637610 0.361806 0.209425
0.659564 0.379849 0.225131
0.681270 0.397986 0.240627
0.702701 0.416188 0.255860
0.723816 0.434406 0.270776
0.744584 0.452604 0.285306
0.764955 0.470701 0.299384
0.784869 0.488646 0.312932
0.804267 0.506354 0.325875
0.823082 0.523749 0.338131
0.841238 0.540741 0.349616
0.858669 0.557230 0.360254
0.872098 0.570087 0.383517
0.872488 0.593416 0.450833
0.873342 0.633172 0.510792
0.874247 0.663649 0.555954
0.875211 0.688644 0.592757
0.876246 0.710351 0.624610
0.877368 0.729907 0.653247
0.878592 0.748066 0.679801
0.879970 0.765334 0.705030
0.881520 0.782029 0.729384
0.883323 0.798763 0.753800
0.885446 0.815813 0.778655
0.000485 0.001210 0.000125
0.000485 0.001210 0.000125
0.000485 0.001210 0.000125
0.000485 0.001210 0.000125
0.000485 0.001210 0.000125
0.001733 0.001732 0.000162
0.006719 0.003031 0.000185
0.012186 0.004140 0.000001
0.017814 0.005148 0.000001
0.023457 0.006088 0.000001
0.029048 0.006978 0.000001
0.035190 0.008406 0.000001
0.042439 0.010489 0.000001
0.050893 0.013036 0.000001
0.060603 0.016105 0.000001
0.071618 0.019760 0.000001
0.084092 0.024107 0.000001
0.098078 0.029226 0.000001
0.113598 0.035192 0.000001
0.130637 0.042069 0.000001
0.149139 0.049904 0.000001
0.169010 0.058720 0.000001
0.190119 0.068521 0.002501
0.212297 0.079282 0.005100
0.235364 0.090956 0.007179
0.259126 0.103479 0.008818
0.283394 0.116772 0.009783
0.308000 0.130753 0.009538
0.332797 0.145340 0.006524
0.357669 0.160462 0.000001
0.382535 0.176057 0.000001
0.407331 0.192075 0.000001
0.432033 0.208487 0.000001
0.452376 0.222383 0.085685
0.476122 0.238935 0.098539
0.499663 0.255734 0.112737
0.523040 0.272806 0.127722
0.546281 0.290148 0.143284
0.569383 0.307750 0.159309
0.592339 0.325596 0.175703
0.615129 0.343658 0.192377
0.637646 0.361843 0.209039
0.659599 0.379876 0.224810
0.681302 0.398011 0.240359
0.702724 0.416210 0.255637
0.723840 0.434428 0.270587
0.744605 0.452617 0.285148
0.764973 0.470716 0.299252
0.784887 0.488660 0.312820
0.804282 0.506368 0.325781
0.823090 0.523761 0.338049
0.841246 0.540749 0.349548
0.858669 0.557240 0.360198
0.872098 0.570087 0.383492
0.872488 0.593439 0.450837
0.873351 0.633189 0.510792
0.874247 0.663662 0.555957
0.875211 0.688650 0.592754
0.876237 0.710354 0.624613
0.877368 0.729911 0.653250
0.878600 0.748066 0.679804
0.879970 0.765337 0.705033
0.881524 0.782033 0.729391
0.883323 0.798763 0.753803
0.885446 0.815817 0.778659
0.003109 0.007528 0.000749
0.003109 0.007528 0.000749
0.003109 0.007528 0.000749
0.003109 0.007528 0.000749
0.003109 0.007528 0.000749
0.003690 0.008317 0.000831
0.010508 0.010506 0.000996
0.016689 0.012425 0.001106
0.022661 0.014163 0.001168
0.028466 0.015767 0.001183
0.034115 0.017265 0.001151
0.040230 0.018832 0.001052
0.047378 0.020608 0.000819
0.055678 0.022609 0.000074
0.065243 0.024853 0.000001
0.076175 0.027354 0.000001
0.088552 0.030131 0.000001
0.102436 0.033181 0.000001
0.117859 0.036880 0.000001
0.134882 0.043831 0.000001
0.153327 0.051723 0.000001
0.173108 0.060581 0.000001
0.193703 0.070219 0.000001
0.215388 0.080807 0.000001
0.237988 0.092304 0.000001
0.261324 0.104651 0.000001
0.285216 0.117779 0.000001
0.309492 0.131607 0.000001
0.334006 0.146056 0.000001
0.358641 0.161055 0.000001
0.383306 0.176544 0.000001
0.407944 0.192472 0.000001
0.432514 0.208805 0.000001
0.453019 0.222816 0.079366
0.476640 0.239293 0.093493
0.500080 0.256032 0.108708
0.523384 0.273053 0.124486
0.546560 0.290355 0.140670
0.569612 0.307922 0.157187
0.592522 0.325737 0.173972
0.615283 0.343777 0.190962
0.637773 0.361939 0.207871
0.659708 0.379958 0.223842
0.681395 0.398083 0.239553
0.702800 0.416277 0.254964
0.723908 0.434486 0.270025
0.744665 0.452668 0.284675
0.765024 0.470761 0.298851
0.784928 0.488695 0.312483
0.804316 0.506400 0.325494
0.823121 0.523789 0.337803
0.841278 0.540772 0.349338
0.858689 0.557259 0.360016
0.872098 0.570092 0.383410
0.872496 0.593509 0.450846
0.873351 0.633228 0.510804
0.874256 0.663684 0.555962
0.875211 0.688670 0.592766
0.876237 0.710371 0.624619
0.877368 0.729921 0.653256
0.878592 0.748076 0.679807
0.879978 0.765345 0.705033
0.881529 0.782033 0.729394
0.883315 0.798771 0.753807
0.885446 0.815817 0.778659
0.006408 0.014895 0.001580
0.006408 0.014895 0.001580
0.006408 0.014895 0.001580
0.006408 0.014895 0.001580
0.006408 0.014895 0.001580
0.006824 0.015792 0.001688
0.013526 0.018180 0.001921
0.020350 0.020352 0.002100
0.026654 0.022343 0.002241
0.032638 0.024190 0.002348
0.038381 0.025919 0.002422
0.044538 0.027728 0.002467
0.051679 0.029775 0.002471
0.059921 0.032079 0.002397
0.069374 0.034658 0.002183
0.080141 0.037525 0.001686
0.092309 0.040686 0.000001
0.105939 0.044149 0.000001
0.121064 0.047903 0.000001
0.137675 0.051953 0.000001
0.155738 0.056252 0.000001
0.175178 0.061531 0.000001
0.195963 0.071303 0.000001
0.217785 0.082005 0.000001
0.240485 0.093602 0.000001
0.263433 0.105789 0.000001
0.286967 0.118758 0.000001
0.310931 0.132439 0.000001
0.335177 0.146752 0.000001
0.359583 0.161632 0.000001
0.384063 0.177018 0.000001
0.408541 0.192859 0.000001
0.432982 0.209117 0.000001
0.453652 0.223247 0.072133
0.477151 0.239649 0.087953
0.500495 0.256327 0.104405
0.523717 0.273297 0.121092
0.546837 0.290557 0.137960
0.569836 0.308091 0.155006
0.592709 0.325882 0.172207
0.615434 0.343895 0.189525
0.637894 0.362037 0.206687
0.659811 0.380050 0.222863
0.681482 0.398164 0.238741
0.702883 0.416342 0.254287
0.723977 0.434546 0.269456
0.744721 0.452718 0.284199
0.765070 0.470803 0.298452
0.784969 0.488737 0.312142
0.804358 0.506431 0.325205
0.823160 0.523816 0.337558
0.841298 0.540800 0.349127
0.858717 0.557282 0.359835
0.872089 0.570087 0.383331
0.872496 0.593585 0.450850
0.873342 0.633270 0.510811
0.874256 0.663715 0.555970
0.875211 0.688690 0.592768
0.876246 0.710384 0.624619
0.877368 0.729935 0.653263
0.878600 0.748083 0.679811
0.879970 0.765352 0.705040
0.881520 0.782040 0.729394
0.883323 0.798775 0.753814
0.885454 0.815824 0.778670
0.009970 0.022426 0.002530
0.009970 0.022426 0.002530
0.009970 0.022426 0.002530
0.009970 0.022426 0.002530
0.009970 0.022426 0.002530
0.010443 0.023400 0.002660
0.016117 0.025799 0.002938
0.023508 0.028056 0.003159
0.030129 0.030137 0.003345
0.036293 0.032081 0.003502
0.042134 0.033909 0.003632
0.048343 0.035828 0.003745
0.055498 0.038004 0.003841
0.063711 0.040455 0.003899
0.073090 0.043199 0.003885
0.083737 0.046250 0.003742
0.095738 0.049615 0.003366
0.109162 0.053295 0.002508
0.124043 0.057285 0.000001
0.140385 0.061571 0.000001
0.158163 0.066115 0.000001
0.177289 0.070904 0.000001
0.197663 0.075873 0.000001
0.219171 0.082699 0.000001
0.241702 0.094236 0.000001
0.264924 0.106598 0.000001
0.288653 0.119705 0.000001
0.312321 0.133247 0.000001
0.336313 0.147436 0.000001
0.360502 0.162201 0.000001
0.384794 0.177486 0.000001
0.409126 0.193241 0.000001
0.433443 0.209425 0.000001
0.454279 0.223674 0.063567
0.477658 0.240000 0.081780
0.500908 0.256619 0.099775
0.524054 0.273542 0.117516
0.547109 0.290760 0.135148
0.570060 0.308260 0.152764
0.592892 0.326021 0.170405
0.615586 0.344015 0.188065
0.638017 0.362132 0.205490
0.659917 0.380131 0.221874
0.681572 0.398240 0.237921
0.702959 0.416408 0.253605
0.724041 0.434604 0.268887
0.744781 0.452767 0.283721
0.765121 0.470848 0.298047
0.785013 0.488771 0.311802
0.804388 0.506464 0.324915
0.823183 0.523848 0.337314
0.841326 0.540818 0.348918
0.858738 0.557301 0.359655
0.872089 0.570092 0.383254
0.872500 0.593655 0.450858
0.873342 0.633318 0.510821
0.874256 0.663743 0.555980
0.875219 0.688709 0.592774
0.876246 0.710398 0.624627
0.877368 0.729945 0.653263
0.878600 0.748094 0.679817
0.879970 0.765355 0.705046
0.881520 0.782047 0.729401
0.883323 0.798782 0.753818
0.885463 0.815828 0.778670
0.013638 0.029864 0.003556
0.013638 0.029864 0.003556
0.013638 0.029864 0.003556
0.013638 0.029864 0.003556
0.013638 0.029864 0.003556
0.014160 0.030902 0.003706
0.018418 0.033241 0.004017
0.026315 0.035506 0.004266
0.033225 0.037610 0.004483
0.039566 0.039581 0.004672
0.045511 0.041442 0.004837
0.051779 0.043403 0.004994
0.058956 0.045635 0.005147
0.067154 0.048154 0.005282
0.076481 0.050978 0.005374
0.087034 0.054119 0.005388
0.098900 0.057589 0.005260
0.112150 0.061384 0.004879
0.126820 0.065504 0.004018
0.142930 0.069924 0.001898
0.160450 0.074616 0.000001
0.179312 0.079552 0.000001
0.199420 0.084665 0.000001
0.220625 0.089929 0.000001
0.242779 0.095264 0.000001
0.265845 0.107097 0.000001
0.289468 0.120162 0.000001
0.313466 0.133912 0.000001
0.337410 0.148096 0.000001
0.361393 0.162755 0.000001
0.385513 0.177943 0.000001
0.409694 0.193615 0.000001
0.433896 0.209731 0.000001
0.454904 0.224096 0.052814
0.478162 0.240351 0.074757
0.501317 0.256910 0.094748
0.524389 0.273783 0.113737
0.547379 0.290963 0.132222
0.570287 0.308431 0.150457
0.593077 0.326163 0.168561
0.615737 0.344133 0.186579
0.638144 0.362230 0.204277
0.660019 0.380220 0.220875
0.681665 0.398310 0.237095
0.703039 0.416477 0.252917
0.724110 0.434660 0.268313
0.744837 0.452821 0.283240
0.765171 0.470891 0.297643
0.785054 0.488813 0.311461
0.804426 0.506498 0.324626
0.823214 0.523873 0.337067
0.841353 0.540846 0.348705
0.858758 0.557322 0.359473
0.872098 0.570087 0.383174
0.872500 0.593725 0.450865
0.873351 0.633363 0.510828
0.874256 0.663772 0.555983
0.875219 0.688729 0.592785
0.876237 0.710415 0.624633
0.877368 0.729959 0.653272
0.878600 0.748105 0.679823
0.879978 0.765363 0.705046
0.881520 0.782051 0.729408
0.883323 0.798786 0.753825
0.885463 0.815828 0.778677
0.017334 0.037117 0.004633
0.017334 0.037117 0.004633
0.017334 0.037117 0.004633
0.017334 0.037117 0.004633
0.017334 0.037117 0.004633
0.017891 0.038193 0.004799
0.020503 0.040459 0.005140
0.028858 0.042696 0.005407
0.036032 0.044785 0.005645
0.042537 0.046750 0.005858
0.048587 0.048609 0.006047
0.054921 0.050574 0.006233
0.062130 0.052816 0.006425
0.070323 0.055356 0.006613
0.079609 0.058210 0.006776
0.090085 0.061390 0.006888
0.101839 0.064905 0.006901
0.114939 0.068755 0.006743
0.129429 0.072938 0.006284
0.145329 0.077428 0.005257
0.162619 0.082202 0.002834
0.181236 0.087226 0.000001
0.201095 0.092435 0.000001
0.222068 0.097771 0.000001
0.243991 0.103194 0.000001
0.266702 0.108625 0.000001
0.290168 0.120558 0.000001
0.314061 0.134260 0.000001
0.338204 0.148573 0.000001
0.362263 0.163293 0.000001
0.386214 0.178390 0.000001
0.410259 0.193982 0.000001
0.434338 0.210028 0.000001
0.455520 0.224515 0.037482
0.478661 0.240697 0.066515
0.501723 0.257198 0.089233
0.524723 0.274024 0.109721
0.547653 0.291163 0.129170
0.570508 0.308597 0.148077
0.593256 0.326303 0.166677
0.615886 0.344249 0.185070
0.638259 0.362330 0.203048
0.660122 0.380301 0.219868
0.681756 0.398386 0.236262
0.703115 0.416538 0.252226
0.724178 0.434717 0.267737
0.744897 0.452866 0.282756
0.765222 0.470935 0.297237
0.785095 0.488850 0.311120
0.804464 0.506529 0.324336
0.823241 0.523898 0.336819
0.841377 0.540869 0.348494
0.858778 0.557343 0.359292
0.872098 0.570087 0.383100
0.872500 0.593793 0.450873
0.873351 0.633405 0.510833
0.874256 0.663800 0.555991
0.875211 0.688751 0.592788
0.876254 0.710435 0.624639
0.877368 0.729969 0.653278
0.878608 0.748112 0.679827
0.879978 0.765374 0.705053
0.881520 0.782055 0.729408
0.883323 0.798793 0.753825
0.885454 0.815836 0.778681
0.021433 0.044930 0.005873
0.021433 0.044930 0.005873
0.021433 0.044930 0.005873
0.021433 0.044930 0.005873
0.021433 0.044930 0.005873
0.022024 0.046039 0.006055
0.023197 0.048228 0.006420
0.031443 0.050397 0.006705
0.038886 0.052447 0.006959
0.045562 0.054382 0.007190
0.051721 0.056218 0.007399
0.058131 0.058161 0.007608
0.065384 0.060385 0.007830
0.073584 0.062912 0.008058
0.082835 0.065761 0.008278
0.093240 0.068944 0.008465
0.104887 0.072468 0.008585
0.117842 0.076334 0.008581
0.132156 0.080537 0.008364
0.147847 0.085061 0.007776
0.164906 0.089873 0.006495
0.183282 0.094933 0.003499
0.202883 0.100204 0.000001
0.223605 0.105603 0.000001
0.245294 0.111069 0.000001
0.267784 0.116558 0.000001
0.290908 0.121992 0.000001
0.314659 0.134607 0.000001
0.338709 0.148877 0.000001
0.362907 0.163695 0.000001
0.386968 0.178874 0.000001
0.410860 0.194381 0.000001
0.434817 0.210355 0.000001
0.456200 0.224978 0.000001
0.479211 0.241079 0.055003
0.502173 0.257518 0.082340
0.525086 0.274290 0.104919
0.547952 0.291386 0.125604
0.570754 0.308782 0.145337
0.593464 0.326460 0.164524
0.616055 0.344381 0.183356
0.638397 0.362437 0.201657
0.660244 0.380401 0.218730
0.681852 0.398473 0.235326
0.703202 0.416612 0.251450
0.724250 0.434781 0.267091
0.744960 0.452926 0.282217
0.765276 0.470984 0.296783
0.785146 0.488887 0.310736
0.804502 0.506568 0.324010
0.823280 0.523932 0.336540
0.841409 0.540898 0.348259
0.858798 0.557361 0.359090
0.872089 0.570092 0.383007
0.872492 0.593871 0.450886
0.873342 0.633456 0.510843
0.874256 0.663831 0.555999
0.875219 0.688771 0.592794
0.876246 0.710451 0.624645
0.877376 0.729983 0.653281
0.878608 0.748122 0.679836
0.879978 0.765377 0.705060
0.881529 0.782062 0.729411
0.883323 0.798797 0.753835
0.885446 0.815840 0.778681
0.026319 0.053985 0.007407
0.026319 0.053985 0.007407
0.026319 0.053985 0.007407
0.026319 0.053985 0.007407
0.026319 0.053985 0.007407
0.026929 0.055099 0.007603
0.028117 0.057256 0.007986
0.034284 0.059289 0.008295
0.042026 0.061273 0.008562
0.048892 0.063154 0.008807
0.055175 0.064945 0.009032
0.061672 0.066844 0.009261
0.068983 0.069023 0.009509
0.077205 0.071505 0.009771
0.086431 0.074314 0.010037
0.096767 0.077463 0.010288
0.108302 0.080959 0.010496
0.121107 0.084804 0.010617
0.135232 0.088990 0.010583
0.150703 0.093502 0.010286
0.167509 0.098318 0.009539
0.185615 0.103385 0.007950
0.204945 0.108662 0.004272
0.225382 0.114093 0.000001
0.246801 0.119597 0.000001
0.269045 0.125107 0.000001
0.291943 0.130576 0.000001
0.315343 0.135933 0.000001
0.339253 0.149205 0.000001
0.363367 0.163979 0.000001
0.387552 0.179247 0.000001
0.411574 0.194851 0.000001
0.435385 0.210737 0.000001
0.457010 0.225530 0.000001
0.479868 0.241538 0.033278
0.502709 0.257898 0.072518
0.525526 0.274610 0.098553
0.548315 0.291652 0.121030
0.571048 0.309008 0.141884
0.593706 0.326647 0.161845
0.616256 0.344538 0.181238
0.638563 0.362570 0.199951
0.660388 0.380509 0.217338
0.681975 0.398568 0.234181
0.703305 0.416701 0.250503
0.724342 0.434858 0.266305
0.745037 0.452991 0.281559
0.765345 0.471045 0.296232
0.785198 0.488941 0.310268
0.804551 0.506613 0.323617
0.823323 0.523970 0.336207
0.841444 0.540928 0.347973
0.858835 0.557393 0.358846
0.872089 0.570092 0.382903
0.872500 0.593967 0.450895
0.873359 0.633510 0.510857
0.874256 0.663872 0.556007
0.875219 0.688803 0.592802
0.876237 0.710465 0.624654
0.877368 0.730000 0.653287
0.878592 0.748136 0.679839
0.879978 0.765384 0.705063
0.881520 0.782069 0.729415
0.883323 0.798805 0.753843
0.885446 0.815847 0.778689
0.032082 0.064367 0.009289
0.032082 0.064367 0.009289
0.032082 0.064367 0.009289
0.032082 0.064367 0.009289
0.032082 0.064367 0.009289
0.032691 0.065447 0.009492
0.033907 0.067596 0.009899
0.037383 0.069463 0.010231
0.045452 0.071356 0.010506
0.052527 0.073159 0.010762
0.058950 0.074882 0.010999
0.065547 0.076715 0.011243
0.072929 0.078822 0.011511
0.081183 0.081230 0.011800
0.090400 0.083961 0.012102
0.100675 0.087036 0.012405
0.112097 0.090464 0.012685
0.124746 0.094246 0.012907
0.138673 0.098372 0.013019
0.153908 0.102834 0.012939
0.170450 0.107599 0.012538
0.188262 0.112635 0.011593
0.207289 0.117884 0.009639
0.227425 0.123292 0.005158
0.248541 0.128800 0.000001
0.270503 0.134319 0.000001
0.293148 0.139784 0.000001
0.316317 0.145155 0.000001
0.339871 0.150364 0.000001
0.363853 0.164284 0.000001
0.387961 0.179509 0.000001
0.412083 0.195187 0.000001
0.436047 0.211187 0.000001
0.457974 0.226191 0.000001
0.480650 0.242083 0.000001
0.503348 0.258356 0.056858
0.526052 0.274992 0.089778
0.548749 0.291973 0.115045
0.571405 0.309278 0.137485
0.593998 0.326873 0.158484
0.616495 0.344727 0.178608
0.638762 0.362724 0.197842
