OCIO/luts/ACES2_Output_v1.0.0/ACES2_Output v1.0.0 P3D65.cube
TITLE "Generated by Foundry::LUT"
LUT_3D_SIZE 65
0.000000 0.000000 0.000000
0.000000 0.000000 0.000000
0.000000 0.000000 0.000000
0.000000 0.000000 0.000000
0.000000 0.000000 0.000000
0.002687 0.000000 0.000442
0.009123 0.000008 0.001515
0.014931 0.000000 0.002488
0.020424 0.000023 0.003408
0.025701 0.000000 0.004294
0.030815 0.000029 0.005152
0.036354 0.000036 0.006082
0.042864 0.000042 0.007175
0.050503 0.000047 0.008458
0.059451 0.000066 0.009961
0.069908 0.000093 0.011719
0.082097 0.000000 0.013770
0.096257 0.000155 0.016156
0.112644 0.000075 0.018924
0.131521 0.000000 0.022123
0.153149 0.000000 0.025806
0.177775 0.000241 0.030026
0.205617 0.000228 0.034836
0.236845 0.000374 0.040281
0.271564 0.000396 0.046393
0.309801 0.000000 0.053181
0.351495 0.000000 0.060622
0.396500 0.000470 0.068653
0.444592 0.000369 0.077172
0.495490 0.000476 0.086041
0.548879 0.000000 0.095104
0.604427 0.000820 0.104198
0.661797 0.000804 0.113171
0.720644 0.000999 0.121887
0.780588 0.000941 0.130216
0.840420 0.000000 0.137556
0.900909 0.000000 0.144534
0.961595 0.000935 0.151120
1.000000 0.000949 0.174315
1.000000 0.243246 0.226789
1.000000 0.321702 0.273114
1.000000 0.376036 0.312691
1.000000 0.418643 0.347368
1.000000 0.454397 0.378622
1.000000 0.485656 0.407381
1.000000 0.513985 0.434495
1.000000 0.540514 0.460727
1.000000 0.566125 0.486779
1.000000 0.591542 0.513306
1.000000 0.617372 0.540915
1.000000 0.644136 0.570178
1.000000 0.672279 0.601619
1.000000 0.702168 0.635704
1.000000 0.734059 0.672790
1.000000 0.768031 0.713024
1.000000 0.803854 0.756168
1.000000 0.840779 0.801300
1.000000 0.876940 0.846037
1.000000 0.909754 0.886992
1.000000 0.936761 0.920874
1.000000 0.957011 0.946329
1.000000 0.971274 0.964247
1.000000 0.981073 0.976533
1.000000 0.987761 0.984891
1.000000 0.992357 0.990613
0.000000 0.000000 0.000000
0.000000 0.000000 0.000000
0.000000 0.000000 0.000000
0.000000 0.000000 0.000000
0.000000 0.000000 0.000000
0.002687 0.000002 0.000442
0.009123 0.000008 0.001515
0.014931 0.000000 0.002488
0.020424 0.000023 0.003408
0.025701 0.000000 0.004294
0.030815 0.000029 0.005152
0.036354 0.000000 0.006082
0.042864 0.000042 0.007175
0.050503 0.000047 0.008458
0.059451 0.000066 0.009961
0.069908 0.000093 0.011719
0.082097 0.000000 0.013770
0.096257 0.000155 0.016156
0.112644 0.000075 0.018924
0.131521 0.000000 0.022123
0.153149 0.000000 0.025806
0.177775 0.000241 0.030026
0.205617 0.000228 0.034836
0.236845 0.000374 0.040281
0.271564 0.000396 0.046393
0.309801 0.000000 0.053181
0.351495 0.000000 0.060622
0.396500 0.000468 0.068653
0.444592 0.000369 0.077172
0.495490 0.000481 0.086042
0.548879 0.000000 0.095104
0.604427 0.000820 0.104198
0.661797 0.000000 0.113171
0.720644 0.000999 0.121887
0.780588 0.000000 0.130216
0.840420 0.000000 0.137556
0.900909 0.000000 0.144534
0.961595 0.000935 0.151120
1.000000 0.000949 0.174315
1.000000 0.243246 0.226789
1.000000 0.321702 0.273114
1.000000 0.376036 0.312691
1.000000 0.418644 0.347368
1.000000 0.454397 0.378622
1.000000 0.485656 0.407381
1.000000 0.513986 0.434496
1.000000 0.540514 0.460727
1.000000 0.566125 0.486780
1.000000 0.591542 0.513306
1.000000 0.617372 0.540915
1.000000 0.644136 0.570178
1.000000 0.672279 0.601619
1.000000 0.702167 0.635704
1.000000 0.734059 0.672790
1.000000 0.768031 0.713025
1.000000 0.803854 0.756168
1.000000 0.840779 0.801300
1.000000 0.876940 0.846037
1.000000 0.909754 0.886992
1.000000 0.936761 0.920874
1.000000 0.957011 0.946329
1.000000 0.971274 0.964247
1.000000 0.981073 0.976533
1.000000 0.987761 0.984891
1.000000 0.992357 0.990613
0.000000 0.000000 0.000000
0.000000 0.000000 0.000000
0.000000 0.000000 0.000000
0.000000 0.000000 0.000000
0.000000 0.000000 0.000000
0.002687 0.000000 0.000442
0.009123 0.000008 0.001515
0.014931 0.000000 0.002488
0.020424 0.000023 0.003408
0.025701 0.000000 0.004294
0.030815 0.000029 0.005152
0.036354 0.000036 0.006082
0.042864 0.000042 0.007175
0.050503 0.000047 0.008458
0.059451 0.000066 0.009961
0.069908 0.000093 0.011719
0.082097 0.000000 0.013770
0.096257 0.000155 0.016156
0.112644 0.000075 0.018924
0.131521 0.000000 0.022123
0.153149 0.000000 0.025806
0.177775 0.000238 0.030026
0.205617 0.000228 0.034836
0.236845 0.000374 0.040281
0.271564 0.000396 0.046393
0.309801 0.000000 0.053181
0.351495 0.000000 0.060622
0.396500 0.000468 0.068653
0.444592 0.000369 0.077172
0.495490 0.000476 0.086041
0.548879 0.000000 0.095104
0.604427 0.000820 0.104198
0.661797 0.000804 0.113171
0.720644 0.000999 0.121887
0.780588 0.000000 0.130216
0.840420 0.000000 0.137556
0.900909 0.000000 0.144534
0.961595 0.000935 0.151120
1.000000 0.000949 0.174315
1.000000 0.243247 0.226789
1.000000 0.321702 0.273114
1.000000 0.376036 0.312691
1.000000 0.418643 0.347368
1.000000 0.454397 0.378622
1.000000 0.485656 0.407381
1.000000 0.513986 0.434496
1.000000 0.540514 0.460727
1.000000 0.566125 0.486780
1.000000 0.591542 0.513306
1.000000 0.617372 0.540915
1.000000 0.644136 0.570178
1.000000 0.672279 0.601619
1.000000 0.702167 0.635704
1.000000 0.734059 0.672790
1.000000 0.768031 0.713024
1.000000 0.803854 0.756168
1.000000 0.840779 0.801300
1.000000 0.876939 0.846036
1.000000 0.909754 0.886992
1.000000 0.936761 0.920875
1.000000 0.957011 0.946329
1.000000 0.971274 0.964248
1.000000 0.981074 0.976534
1.000000 0.987761 0.984891
1.000000 0.992357 0.990613
0.000000 0.000000 0.000000
0.000000 0.000000 0.000000
0.000000 0.000000 0.000000
0.000000 0.000000 0.000000
0.000000 0.000000 0.000000
0.002687 0.000000 0.000442
0.009123 0.000008 0.001515
0.014931 0.000000 0.002488
0.020424 0.000023 0.003408
0.025701 0.000000 0.004294
0.030815 0.000029 0.005152
0.036354 0.000036 0.006082
0.042864 0.000000 0.007175
0.050503 0.000047 0.008458
0.059451 0.000066 0.009961
0.069908 0.000093 0.011719
0.082097 0.000000 0.013770
0.096257 0.000114 0.016156
0.112644 0.000075 0.018924
0.131521 0.000000 0.022123
0.153149 0.000000 0.025806
0.177775 0.000238 0.030026
0.205617 0.000228 0.034836
0.236845 0.000374 0.040281
0.271564 0.000396 0.046393
0.309801 0.000000 0.053181
0.351495 0.000000 0.060622
0.396500 0.000468 0.068653
0.444592 0.000369 0.077172
0.495490 0.000476 0.086041
0.548879 0.000000 0.095104
0.604427 0.000820 0.104198
0.661797 0.000000 0.113171
0.720644 0.000999 0.121887
0.780588 0.000000 0.130216
0.840420 0.000000 0.137556
0.900909 0.000000 0.144534
0.961595 0.000935 0.151120
1.000000 0.000949 0.174315
1.000000 0.243247 0.226789
1.000000 0.321702 0.273114
1.000000 0.376036 0.312691
1.000000 0.418644 0.347368
1.000000 0.454398 0.378623
1.000000 0.485657 0.407381
1.000000 0.513986 0.434496
1.000000 0.540514 0.460727
1.000000 0.566125 0.486779
1.000000 0.591542 0.513306
1.000000 0.617372 0.540915
1.000000 0.644136 0.570178
1.000000 0.672279 0.601619
1.000000 0.702168 0.635704
1.000000 0.734059 0.672790
1.000000 0.768031 0.713024
1.000000 0.803854 0.756167
1.000000 0.840778 0.801299
1.000000 0.876940 0.846037
1.000000 0.909754 0.886992
1.000000 0.936761 0.920875
1.000000 0.957011 0.946329
1.000000 0.971274 0.964248
1.000000 0.981073 0.976533
1.000000 0.987761 0.984891
1.000000 0.992357 0.990613
0.000000 0.000000 0.000000
0.000000 0.000000 0.000000
0.000000 0.000000 0.000000
0.000000 0.000000 0.000000
0.000000 0.000000 0.000000
0.002687 0.000002 0.000442
0.009123 0.000008 0.001515
0.014931 0.000000 0.002488
0.020424 0.000023 0.003408
0.025701 0.000000 0.004294
0.030815 0.000029 0.005152
0.036354 0.000000 0.006082
0.042864 0.000042 0.007175
0.050503 0.000047 0.008458
0.059451 0.000066 0.009961
0.069908 0.000093 0.011719
0.082097 0.000000 0.013770
0.096257 0.000155 0.016156
0.112644 0.000075 0.018924
0.131521 0.000000 0.022123
0.153149 0.000000 0.025806
0.177775 0.000240 0.030026
0.205617 0.000228 0.034836
0.236845 0.000289 0.040281
0.271564 0.000396 0.046393
0.309801 0.000000 0.053181
0.351495 0.000000 0.060622
0.396500 0.000468 0.068653
0.444592 0.000355 0.077172
0.495490 0.000481 0.086042
0.548879 0.000000 0.095104
0.604427 0.000820 0.104198
0.661797 0.000000 0.113171
0.720644 0.000999 0.121887
0.780588 0.000941 0.130216
0.840420 0.000000 0.137556
0.900909 0.000000 0.144534
0.961595 0.000935 0.151120
1.000000 0.000949 0.174315
1.000000 0.243247 0.226789
1.000000 0.321702 0.273114
1.000000 0.376036 0.312691
1.000000 0.418644 0.347368
1.000000 0.454397 0.378622
1.000000 0.485656 0.407381
1.000000 0.513985 0.434495
1.000000 0.540514 0.460727
1.000000 0.566125 0.486779
1.000000 0.591542 0.513306
1.000000 0.617372 0.540915
1.000000 0.644136 0.570177
1.000000 0.672279 0.601619
1.000000 0.702167 0.635704
1.000000 0.734059 0.672790
1.000000 0.768031 0.713024
1.000000 0.803854 0.756167
1.000000 0.840778 0.801299
1.000000 0.876940 0.846037
1.000000 0.909754 0.886992
1.000000 0.936761 0.920874
1.000000 0.957011 0.946329
1.000000 0.971275 0.964249
1.000000 0.981073 0.976533
1.000000 0.987761 0.984891
1.000000 0.992357 0.990613
0.000000 0.003161 0.001206
0.000004 0.003161 0.001206
0.000004 0.003161 0.001206
0.000000 0.003161 0.001206
0.000004 0.003161 0.001206
0.004267 0.004207 0.000000
0.011207 0.005789 0.000000
0.017258 0.006609 0.000007
0.022962 0.006919 0.000006
0.028441 0.006733 0.000000
0.033746 0.005923 0.000012
0.039493 0.002982 0.000015
0.046062 0.000000 0.000000
0.053590 0.000000 0.003631
0.062420 0.000059 0.005994
0.072753 0.000000 0.008210
0.084813 0.000000 0.010573
0.098838 0.000000 0.013205
0.115087 0.000127 0.016178
0.133823 0.000114 0.019557
0.155311 0.000000 0.023407
0.179798 0.000155 0.027790
0.207504 0.000000 0.032760
0.238583 0.000000 0.038334
0.273141 0.000318 0.044559
0.311217 0.000434 0.051460
0.352753 0.000391 0.059014
0.397606 0.000608 0.067157
0.445557 0.000417 0.075786
0.496327 0.000559 0.084762
0.549603 0.000000 0.093928
0.605053 0.000936 0.103121
0.662339 0.000603 0.112190
0.721117 0.001200 0.120998
0.780996 0.001135 0.129408
0.840790 0.001082 0.136832
0.901246 0.000344 0.143887
0.961899 0.001246 0.150548
1.000000 0.024028 0.174108
1.000000 0.243964 0.226735
1.000000 0.322100 0.273082
1.000000 0.376310 0.312675
1.000000 0.418847 0.347365
1.000000 0.454556 0.378629
1.000000 0.485783 0.407394
1.000000 0.514088 0.434512
1.000000 0.540598 0.460747
1.000000 0.566195 0.486800
1.000000 0.591600 0.513327
1.000000 0.617421 0.540937
1.000000 0.644177 0.570198
1.000000 0.672314 0.601639
1.000000 0.702197 0.635724
1.000000 0.734083 0.672809
1.000000 0.768051 0.713041
1.000000 0.803872 0.756184
1.000000 0.840792 0.801312
1.000000 0.876949 0.846046
1.000000 0.909761 0.886999
1.000000 0.936765 0.920879
1.000000 0.957012 0.946331
1.000000 0.971276 0.964250
1.000000 0.981074 0.976534
1.000000 0.987761 0.984891
1.000000 0.992357 0.990613
0.000018 0.010728 0.004110
0.000014 0.010728 0.004110
0.000014 0.010728 0.004110
0.000014 0.010728 0.004110
0.000014 0.010728 0.004110
0.005046 0.012107 0.000000
0.014429 0.014230 0.000012
0.020920 0.015905 0.000000
0.026777 0.017292 0.000009
0.032303 0.018460 0.000000
0.037610 0.019452 0.000015
0.043334 0.020375 0.000012
0.050036 0.021277 0.000000
0.057876 0.022093 0.000000
0.067050 0.022697 0.000000
0.077753 0.022923 0.000000
0.090206 0.022458 0.000038
0.104647 0.020662 0.000015
0.121356 0.015165 0.000027
0.140419 0.000000 0.000057
0.161436 0.000151 0.008735
0.185427 0.000000 0.016833
0.212626 0.000000 0.023487
0.243210 0.000000 0.030195
0.277302 0.000000 0.037306
0.314948 0.000413 0.044957
0.356091 0.000235 0.053165
0.400591 0.000460 0.061896
0.448223 0.000550 0.071062
0.498705 0.000568 0.080534
0.551714 0.000876 0.090159
0.606909 0.000000 0.099780
0.663953 0.000343 0.109189
0.722527 0.000709 0.118287
0.782214 0.000000 0.126955
0.841894 0.000000 0.134635
0.902250 0.000000 0.141929
0.962804 0.001381 0.148824
1.000000 0.056281 0.173499
1.000000 0.246093 0.226571
1.000000 0.323288 0.272985
1.000000 0.377123 0.312629
1.000000 0.419456 0.347359
1.000000 0.455030 0.378648
1.000000 0.486162 0.407432
1.000000 0.514395 0.434562
1.000000 0.540850 0.460804
1.000000 0.566403 0.486862
1.000000 0.591773 0.513391
1.000000 0.617565 0.541000
1.000000 0.644299 0.570262
1.000000 0.672416 0.601700
1.000000 0.702283 0.635783
1.000000 0.734157 0.672865
1.000000 0.768112 0.713092
1.000000 0.803926 0.756234
1.000000 0.840833 0.801353
1.000000 0.876981 0.846080
1.000000 0.909781 0.887021
1.000000 0.936778 0.920894
1.000000 0.957019 0.946338
1.000000 0.971278 0.964252
1.000000 0.981076 0.976535
1.000000 0.987762 0.984892
1.000000 0.992358 0.990614
0.000015 0.017540 0.006729
0.000015 0.017540 0.006729
0.000015 0.017540 0.006729
0.000015 0.017540 0.006729
0.000015 0.017540 0.006729
0.000038 0.019099 0.001627
0.016284 0.021345 0.000000
0.023501 0.023178 0.000000
0.029686 0.024775 0.000000
0.035389 0.026194 0.000000
0.040799 0.027465 0.000000
0.046582 0.028732 0.000000
0.053314 0.030086 0.000000
0.061158 0.031498 0.000000
0.070302 0.032914 0.000030
0.080946 0.034268 0.000000
0.093306 0.035461 0.000000
0.107648 0.036271 0.000030
0.124207 0.036457 0.000000
0.143242 0.035536 0.000051
0.165009 0.032595 0.000000
0.189796 0.024240 0.000000
0.217572 0.000000 0.000000
0.247686 0.000000 0.015578
0.281307 0.000239 0.026942
0.318503 0.000362 0.036534
0.359226 0.000000 0.045967
0.403350 0.000000 0.055589
0.450669 0.000493 0.065479
0.500887 0.000785 0.075552
0.553680 0.000485 0.085694
0.608702 0.000000 0.095769
0.665602 0.000000 0.105639
0.724025 0.000363 0.115178
0.783534 0.000790 0.124229
0.843086 0.001227 0.132268
0.903303 0.000878 0.139879
0.963719 0.000395 0.147066
1.000000 0.072133 0.172903
1.000000 0.248169 0.226397
1.000000 0.324442 0.272872
1.000000 0.377910 0.312564
1.000000 0.420060 0.347348
1.000000 0.455502 0.378667
1.000000 0.486540 0.407470
1.000000 0.514702 0.434613
1.000000 0.541101 0.460862
1.000000 0.566611 0.486925
1.000000 0.591946 0.513455
1.000000 0.617710 0.541065
1.000000 0.644421 0.570325
1.000000 0.672519 0.601762
1.000000 0.702370 0.635842
1.000000 0.734230 0.672920
1.000000 0.768174 0.713144
1.000000 0.803979 0.756284
1.000000 0.840876 0.801395
1.000000 0.877011 0.846110
1.000000 0.909800 0.887041
1.000000 0.936790 0.920906
1.000000 0.957026 0.946346
1.000000 0.971281 0.964256
1.000000 0.981079 0.976539
1.000000 0.987763 0.984893
1.000000 0.992357 0.990613
0.000030 0.023963 0.009199
0.000030 0.023963 0.009199
0.000030 0.023963 0.009199
0.000030 0.023963 0.009199
0.000030 0.023963 0.009199
0.000000 0.025433 0.006215
0.017261 0.027986 0.000000
0.025378 0.029864 0.000000
0.031981 0.031542 0.000000
0.037924 0.033063 0.000000
0.043483 0.034456 0.000000
0.049373 0.035876 0.000020
0.056181 0.037434 0.000000
0.064072 0.039115 0.000000
0.073230 0.040891 0.000026
0.083857 0.042718 0.000000
0.096176 0.044527 0.000034
0.110434 0.046206 0.000000
0.126877 0.047613 0.000026
0.145787 0.048465 0.000000
0.167407 0.048434 0.000026
0.191989 0.046880 0.000044
0.219743 0.042666 0.000099
0.250919 0.031321 0.000000
0.285219 0.000000 0.000127
0.321990 0.000000 0.023499
0.362313 0.000522 0.036702
0.406089 0.000266 0.048153
0.453092 0.000721 0.059180
0.503047 0.000000 0.070077
0.555634 0.000640 0.080890
0.610490 0.000000 0.091516
0.667254 0.000409 0.101856
0.725567 0.000000 0.111805
0.784965 0.000935 0.121202
0.844474 0.001024 0.129563
0.904633 0.000000 0.137463
0.964961 0.001041 0.144938
1.000000 0.081423 0.172093
1.000000 0.250007 0.226131
1.000000 0.325546 0.272732
1.000000 0.378693 0.312498
1.000000 0.420661 0.347336
1.000000 0.455975 0.378685
1.000000 0.486918 0.407508
1.000000 0.515008 0.434663
1.000000 0.541353 0.460920
1.000000 0.566819 0.486986
1.000000 0.592119 0.513519
1.000000 0.617855 0.541129
1.000000 0.644542 0.570388
1.000000 0.672621 0.601824
1.000000 0.702456 0.635900
1.000000 0.734302 0.672975
1.000000 0.768234 0.713194
1.000000 0.804033 0.756334
1.000000 0.840919 0.801438
1.000000 0.877043 0.846143
1.000000 0.909822 0.887065
1.000000 0.936801 0.920918
1.000000 0.957034 0.946354
1.000000 0.971285 0.964260
1.000000 0.981080 0.976540
1.000000 0.987764 0.984894
1.000000 0.992358 0.990614
0.000050 0.030115 0.011565
0.000050 0.030115 0.011565
0.000050 0.030115 0.011565
0.000050 0.030115 0.011565
0.000050 0.030115 0.011565
0.000059 0.031518 0.009039
0.017480 0.034324 0.000000
0.026729 0.036204 0.000000
0.033805 0.037915 0.000000
0.040032 0.039485 0.000000
0.045775 0.040936 0.000000
0.051799 0.042437 0.000000
0.058714 0.044105 0.000000
0.066680 0.045938 0.000000
0.075883 0.047917 0.000026
0.086522 0.050015 0.000000
0.098824 0.052179 0.000034
0.113025 0.054340 0.000057
0.129390 0.056372 0.000000
0.148188 0.058094 0.000000
0.169655 0.059324 0.000090
0.194073 0.059632 0.000057
0.221654 0.058507 0.000078
0.252621 0.054740 0.000000
0.287087 0.045966 0.000000
0.325113 0.015583 0.000082
0.365361 0.000344 0.021235
0.408788 0.000615 0.038579
0.455496 0.000000 0.051810
0.505204 0.000374 0.063999
0.557579 0.000895 0.075676
0.612272 0.000000 0.086978
0.668905 0.000806 0.097874
0.727109 0.001028 0.108286
0.786400 0.000383 0.118067
0.845867 0.000000 0.126776
0.905968 0.000663 0.134985
0.966202 0.000000 0.142771
1.000000 0.089427 0.171292
1.000000 0.251823 0.225862
1.000000 0.326646 0.272593
1.000000 0.379475 0.312432
1.000000 0.421261 0.347324
1.000000 0.456445 0.378703
1.000000 0.487295 0.407546
1.000000 0.515314 0.434712
1.000000 0.541603 0.460977
1.000000 0.567025 0.487048
1.000000 0.592291 0.513582
1.000000 0.617999 0.541193
1.000000 0.644663 0.570452
1.000000 0.672724 0.601885
1.000000 0.702543 0.635959
1.000000 0.734375 0.673030
1.000000 0.768295 0.713245
1.000000 0.804085 0.756382
1.000000 0.840959 0.801478
1.000000 0.877072 0.846174
1.000000 0.909843 0.887087
1.000000 0.936813 0.920932
1.000000 0.957039 0.946360
1.000000 0.971288 0.964263
1.000000 0.981082 0.976541
1.000000 0.987765 0.984895
1.000000 0.992359 0.990615
0.000037 0.036056 0.013850
0.000037 0.036056 0.013850
0.000037 0.036056 0.013850
0.000037 0.036056 0.013850
0.000037 0.036056 0.013850
0.000034 0.037404 0.011567
0.016913 0.040434 0.000000
0.027632 0.042298 0.000000
0.035252 0.044015 0.000026
0.041788 0.045606 0.000000
0.047742 0.047089 0.000000
0.053925 0.048632 0.000000
0.060967 0.050363 0.000000
0.069031 0.052286 0.000000
0.078299 0.054391 0.000034
0.088973 0.056660 0.000000
0.101275 0.059056 0.000044
0.115453 0.061515 0.000000
0.131761 0.063943 0.000062
0.150459 0.066218 0.000000
0.171820 0.068136 0.000057
0.196086 0.069459 0.000000
0.223494 0.069805 0.000067
0.254259 0.068519 0.000057
0.288529 0.064508 0.000057
0.326372 0.055542 0.000062
0.367812 0.031176 0.000190
0.411461 0.000626 0.022699
0.457879 0.000000 0.042550
0.507343 0.000000 0.056988
0.559522 0.000000 0.069957
0.614050 0.000000 0.082114
0.670556 0.000000 0.093655
0.728654 0.000509 0.104603
0.787841 0.000000 0.114813
0.847264 0.000000 0.123901
0.907307 0.000000 0.132440
0.967442 0.001362 0.140563
1.000000 0.096564 0.170499
1.000000 0.253622 0.225593
1.000000 0.327740 0.272452
1.000000 0.380253 0.312366
1.000000 0.421859 0.347311
1.000000 0.456914 0.378721
1.000000 0.487670 0.407582
1.000000 0.515619 0.434762
1.000000 0.541854 0.461034
1.000000 0.567232 0.487109
1.000000 0.592463 0.513646
1.000000 0.618143 0.541256
1.000000 0.644784 0.570514
1.000000 0.672826 0.601946
1.000000 0.702629 0.636018
1.000000 0.734448 0.673086
1.000000 0.768355 0.713295
1.000000 0.804139 0.756433
1.000000 0.841002 0.801520
1.000000 0.877104 0.846207
1.000000 0.909862 0.887107
1.000000 0.936824 0.920943
1.000000 0.957045 0.946365
1.000000 0.971292 0.964267
1.000000 0.981084 0.976544
1.000000 0.987765 0.984896
1.000000 0.992359 0.990615
0.000067 0.042469 0.016315
0.000067 0.042469 0.016315
0.000067 0.042469 0.016315
0.000067 0.042469 0.016315
0.000067 0.042469 0.016315
0.000039 0.043764 0.014201
0.015089 0.047018 0.000000
0.028158 0.048854 0.000000
0.036480 0.050561 0.000000
0.043401 0.052158 0.000000
0.049604 0.053657 0.000000
0.055988 0.055223 0.000034
0.063194 0.056992 0.000044
0.071386 0.058974 0.000000
0.080748 0.061166 0.000034
0.091483 0.063557 0.000034
0.103811 0.066120 0.000000
0.117974 0.068809 0.000057
0.134232 0.071546 0.000000
0.152853 0.074217 0.000057
0.174095 0.076681 0.000081
0.198225 0.078708 0.000087
0.225464 0.080031 0.000057
0.256019 0.080234 0.000000
0.290068 0.078607 0.000000
0.327703 0.073982 0.000057
0.368937 0.064034 0.000166
0.413736 0.038639 0.000175
0.460512 0.000000 0.026159
0.509713 0.000000 0.047389
0.561673 0.000000 0.062699
0.616027 0.000000 0.076213
0.672390 0.000000 0.088658
0.730376 0.001210 0.100276
0.789452 0.000795 0.111030
0.848827 0.000000 0.120583
0.908805 0.001471 0.129519
0.968820 0.000000 0.138052
1.000000 0.103766 0.169626
1.000000 0.255604 0.225292
1.000000 0.328953 0.272296
1.000000 0.381119 0.312292
1.000000 0.422524 0.347296
1.000000 0.457437 0.378740
1.000000 0.488088 0.407624
1.000000 0.515958 0.434817
1.000000 0.542132 0.461097
1.000000 0.567463 0.487177
1.000000 0.592655 0.513716
1.000000 0.618304 0.541327
1.000000 0.644919 0.570584
1.000000 0.672940 0.602014
1.000000 0.702725 0.636083
1.000000 0.734529 0.673147
1.000000 0.768423 0.713353
1.000000 0.804200 0.756489
1.000000 0.841048 0.801566
1.000000 0.877136 0.846240
1.000000 0.909885 0.887131
1.000000 0.936839 0.920959
1.000000 0.957053 0.946374
1.000000 0.971295 0.964270
1.000000 0.981085 0.976545
1.000000 0.987767 0.984897
1.000000 0.992360 0.990616
0.000062 0.049972 0.019198
0.000062 0.049972 0.019198
0.000087 0.049972 0.019198
0.000087 0.049972 0.019198
0.000087 0.049972 0.019198
0.000090 0.051214 0.017227
0.009140 0.054714 0.000000
0.028139 0.056507 0.000000
0.037482 0.058191 0.000000
0.044930 0.059777 0.000000
0.051467 0.061277 0.000000
0.058107 0.062854 0.000034
0.065539 0.064645 0.000034
0.073912 0.066661 0.000034
0.083410 0.068911 0.000044
0.094239 0.071391 0.000000
0.106621 0.074083 0.000044
0.120796 0.076951 0.000000
0.137018 0.079938 0.000000
0.155561 0.082947 0.000000
0.176692 0.085844 0.000000
0.200664 0.088469 0.000000
0.227726 0.090562 0.000057
0.258071 0.091825 0.000075
0.291866 0.091809 0.000000
0.329239 0.089741 0.000000
0.370230 0.084366 0.000097
0.414791 0.073210 0.000000
0.462840 0.045926 0.000146
0.512557 0.000000 0.029137
0.564263 0.000637 0.051950
0.618409 0.000577 0.068090
0.674602 0.000840 0.082069
0.732450 0.000000 0.094718
0.791408 0.000000 0.106205
0.850724 0.000869 0.116392
0.910621 0.001063 0.125857
0.970481 0.001685 0.134941
1.000000 0.111697 0.168585
1.000000 0.257967 0.224926
1.000000 0.330411 0.272107
1.000000 0.382165 0.312206
1.000000 0.423323 0.347277
1.000000 0.458065 0.378763
1.000000 0.488593 0.407673
1.000000 0.516368 0.434883
1.000000 0.542468 0.461174
1.000000 0.567742 0.487260
1.000000 0.592887 0.513801
1.000000 0.618498 0.541413
1.000000 0.645083 0.570670
1.000000 0.673078 0.602097
1.000000 0.702841 0.636162
1.000000 0.734627 0.673221
1.000000 0.768505 0.713421
1.000000 0.804270 0.756554
1.000000 0.841105 0.801622
1.000000 0.877178 0.846284
1.000000 0.909911 0.887159
1.000000 0.936855 0.920977
1.000000 0.957062 0.946384
1.000000 0.971300 0.964276
1.000000 0.981087 0.976548
1.000000 0.987768 0.984898
1.000000 0.992360 0.990617
0.000000 0.058731 0.022563
0.000000 0.058731 0.022563
0.000000 0.058731 0.022563
0.000000 0.058731 0.022563
0.000000 0.058731 0.022563
0.000095 0.059919 0.020706
0.000097 0.063423 0.006276
0.027098 0.065423 0.000000
0.038042 0.067068 0.000000
0.046231 0.068629 0.000000
0.053226 0.070114 0.000000
0.060211 0.071685 0.000000
0.067930 0.073479 0.000000
0.076554 0.075510 0.000000
0.086248 0.077789 0.000000
0.097219 0.080324 0.000000
0.109692 0.083105 0.000000
0.123908 0.086106 0.000057
0.140121 0.089281 0.000000
0.158598 0.092557 0.000057
0.179615 0.095819 0.000000
0.203435 0.098910 0.000087
0.230294 0.101649 0.000000
0.260415 0.103745 0.000057
0.293953 0.104868 0.000114
0.331026 0.104531 0.000000
0.371713 0.101888 0.000000
0.415998 0.095566 0.000184
0.463778 0.082876 0.000000
0.514930 0.052647 0.000000
0.567375 0.000587 0.031163
0.621278 0.000000 0.055968
0.677275 0.000000 0.072944
0.734953 0.000000 0.087347
0.793762 0.000000 0.099987
0.853030 0.001265 0.111021
0.912828 0.000631 0.121215
0.972480 0.000763 0.131063
1.000000 0.120429 0.167345
1.000000 0.260781 0.224481
1.000000 0.332162 0.271877
1.000000 0.383425 0.312102
