OCIO/luts/ACES2_Output_v1.0.0/ACES2_Output v1.0.0 P3D65.cube
TITLE "Generated by Foundry::LUT"
LUT_3D_SIZE 5
0.000000 0.000000 0.000000
0.082097 0.000000 0.013770
0.661797 0.000804 0.113171
1.000000 0.591542 0.513306
1.000000 0.992357 0.990613
0.000000 0.094397 0.036248
0.119971 0.118339 0.000000
0.686825 0.063203 0.000000
1.000000 0.594401 0.514356
1.000000 0.992364 0.990620
0.000000 0.618870 0.236286
0.001294 0.625129 0.203914
0.641589 0.633170 0.000370
1.000000 0.649695 0.539718
1.000000 0.992508 0.990771
0.695185 1.000000 0.678192
0.696332 1.000000 0.678227
0.717940 1.000000 0.678474
1.000000 1.000000 0.631342
0.999904 0.994850 0.993255
0.999103 0.999951 0.998901
0.999103 0.999951 0.998901
0.999118 0.999951 0.998916
0.999381 0.999954 0.999202
1.000000 1.000000 1.000000
0.000075 0.017829 0.048093
0.099516 0.000000 0.090595
0.661143 0.000936 0.229298
1.000000 0.594669 0.526718
1.000000 0.992381 0.990652
0.000127 0.106074 0.103948
0.125086 0.125086 0.125086
0.685312 0.094723 0.204238
1.000000 0.599566 0.529942
1.000000 0.992389 0.990660
0.001020 0.617299 0.298468
0.000000 0.623119 0.280399
0.641041 0.630269 0.129778
1.000000 0.655913 0.555786
1.000000 0.992532 0.990810
0.699681 1.000000 0.685192
0.700815 1.000000 0.685235
0.722133 1.000000 0.685614
1.000000 1.000000 0.635626
0.999902 0.994859 0.993274
0.999103 0.999951 0.998902
0.999104 0.999951 0.998902
0.999118 0.999951 0.998917
0.999381 0.999954 0.999203
1.000000 1.000000 1.000000
0.000000 0.182951 0.485243
0.083429 0.000687 0.548828
0.673320 0.000000 0.612825
1.000000 0.593967 0.614773
1.000000 0.992801 0.991324
0.000823 0.237028 0.500024
0.055071 0.190523 0.558414
0.682684 0.087468 0.624630
1.000000 0.599223 0.617649
1.000000 0.992808 0.991330
0.000000 0.621461 0.608937
0.001074 0.623991 0.611781
0.618112 0.618112 0.618112
1.000000 0.695670 0.678437
1.000000 0.992936 0.991460
0.714179 1.000000 0.739752
0.716387 1.000000 0.740694
0.755973 1.000000 0.758334
1.000000 1.000000 0.696503
0.999872 0.995032 0.993611
0.999111 0.999952 0.998920
0.999112 0.999952 0.998921
0.999125 0.999952 0.998935
0.999388 0.999955 0.999218
1.000000 1.000000 1.000000
0.546498 0.645792 1.000000
0.550658 0.645969 1.000000
0.616278 0.644325 1.000000
1.000000 0.729232 0.955499
0.999920 0.993887 0.993777
0.548202 0.649101 1.000000
0.552978 0.649755 1.000000
0.617965 0.648161 1.000000
1.000000 0.732388 0.955941
0.999919 0.993894 0.993784
0.577155 0.704426 1.000000
0.582186 0.705501 1.000000
0.661564 0.722671 1.000000
1.000000 0.787149 0.963889
0.999907 0.994045 0.993919
0.723191 1.000000 0.989889
0.724331 1.000000 0.989910
0.745378 1.000000 0.990267
0.966004 0.966004 0.966004
0.999774 0.996156 0.995835
0.999246 0.999964 0.999198
0.999246 0.999964 0.999198
0.999260 0.999964 0.999211
0.999518 0.999968 0.999459
1.000000 1.000000 1.000000
0.980544 0.985244 1.000000
0.980563 0.985254 1.000000
0.980958 0.985456 1.000000
0.985714 0.987453 1.000000
0.999892 0.998616 0.999475
0.980556 0.985257 1.000000
0.980576 0.985267 1.000000
0.980971 0.985468 1.000000
0.985725 0.987466 1.000000
0.999893 0.998617 0.999475
0.980806 0.985510 1.000000
0.980826 0.985520 1.000000
0.981213 0.985716 1.000000
0.985944 0.987717 1.000000
0.999893 0.998641 0.999484
0.984898 0.989561 1.000000
0.984913 0.989566 1.000000
0.985167 0.989679 1.000000
0.989280 0.991505 1.000000
0.999909 0.999073 0.999643
1.000000 1.000000 1.000000
1.000000 1.000000 1.000000
1.000000 1.000000 1.000000
1.000000 1.000000 1.000000
1.000000 1.000000 1.000000
