OCIO/luts/ACES2_Output_v1.0.0/ACES2_Output v1.0.0 Rec2100 (P3D65 4000nit Limited).cube
TITLE "Generated by Foundry::LUT"
LUT_3D_SIZE 9
0.000001 0.000001 0.000001
0.015811 0.003364 0.000001
0.081831 0.023307 0.001781
0.234458 0.090492 0.014198
0.431871 0.208378 0.000001
0.615079 0.343619 0.192843
0.784869 0.488646 0.312932
0.874247 0.663649 0.555954
0.885454 0.815813 0.778659
0.009970 0.022426 0.002530
0.030129 0.030137 0.003345
0.095738 0.049615 0.003366
0.241702 0.094236 0.000001
0.433443 0.209425 0.000001
0.615586 0.344015 0.188065
0.785013 0.488771 0.311802
0.874256 0.663743 0.555980
0.885463 0.815828 0.778670
0.054488 0.102462 0.018821
0.058985 0.109811 0.018933
0.125724 0.125796 0.021461
0.255331 0.160929 0.019649
0.437138 0.211924 0.000001
0.617551 0.345557 0.165836
0.785576 0.489279 0.307159
0.874260 0.664126 0.556067
0.885454 0.815882 0.778722
0.159604 0.256804 0.096025
0.161980 0.260347 0.079836
0.169707 0.269803 0.068766
0.284527 0.284595 0.070841
0.444546 0.310515 0.055337
0.627196 0.353226 0.000001
0.788027 0.491465 0.283596
0.874321 0.665819 0.556449
0.885483 0.816113 0.778960
0.301764 0.436636 0.223246
0.302342 0.437426 0.219330
0.304597 0.440503 0.200662
0.313255 0.451454 0.152467
0.459450 0.459389 0.150290
0.630296 0.472540 0.112577
0.800546 0.502773 0.000001
0.874552 0.673114 0.558019
0.885613 0.817144 0.780008
0.458897 0.615947 0.375074
0.459019 0.616104 0.374161
0.459505 0.616725 0.370485
0.461664 0.619516 0.350435
0.480549 0.629697 0.261105
0.634370 0.634733 0.255793
0.797454 0.638738 0.203226
0.875635 0.701355 0.564497
0.886130 0.821107 0.783767
0.610969 0.777317 0.524693
0.610992 0.777350 0.524481
0.611102 0.777482 0.523637
0.611562 0.778050 0.519793
0.613926 0.780957 0.496588
0.640967 0.790449 0.381621
0.786843 0.787649 0.368968
0.880915 0.784322 0.615449
0.888656 0.838695 0.803021
0.722165 0.889958 0.625759
0.722168 0.889958 0.625712
0.722185 0.889979 0.625496
0.722281 0.890088 0.624444
0.722724 0.890629 0.619258
0.724732 0.893101 0.591189
0.756942 0.896541 0.472735
0.879349 0.880707 0.447642
0.894809 0.873330 0.841643
0.866275 0.900257 0.846580
0.866283 0.900257 0.846580
0.866283 0.900257 0.846580
0.866299 0.900257 0.846580
0.866405 0.900266 0.846576
0.866801 0.900279 0.846572
0.868557 0.900359 0.846440
0.876200 0.900715 0.846500
0.899931 0.901890 0.827129
0.001730 0.000787 0.009745
0.021153 0.005073 0.020900
0.086765 0.025477 0.044769
0.236418 0.091793 0.085941
0.428239 0.206121 0.137400
0.615042 0.343638 0.217357
0.784847 0.488637 0.320492
0.874256 0.663637 0.556623
0.885471 0.815997 0.778968
0.013223 0.026476 0.026319
0.033306 0.033306 0.033306
0.105094 0.042915 0.044337
0.244646 0.095999 0.077964
0.430863 0.207844 0.126828
0.615551 0.344036 0.213595
0.784991 0.488767 0.319427
0.874256 0.663734 0.556644
0.885479 0.816013 0.778979
0.057201 0.104979 0.060240
0.062713 0.114718 0.051946
0.128901 0.128353 0.047686
0.262604 0.151998 0.053819
0.438883 0.213153 0.072276
0.617522 0.345580 0.196975
0.785554 0.489268 0.315074
0.874276 0.664114 0.556731
0.885483 0.816059 0.779034
0.160640 0.257266 0.128496
0.162974 0.260782 0.120087
0.171062 0.272773 0.069922
0.285421 0.285154 0.071032
0.445988 0.308339 0.052677
0.625745 0.352059 0.000001
0.788009 0.491458 0.293239
0.874321 0.665800 0.557108
0.885517 0.816293 0.779269
0.301991 0.436602 0.236061
0.302569 0.437385 0.232711
0.304787 0.440428 0.217507
0.313685 0.451962 0.152741
0.459555 0.459444 0.150316
0.630439 0.472273 0.112122
0.800376 0.502619 0.000001
0.874552 0.673143 0.558725
0.885650 0.817321 0.780309
0.458938 0.615915 0.378644
0.459060 0.616075 0.377770
0.459548 0.616693 0.374165
0.461671 0.619440 0.355448
0.479163 0.629944 0.261314
0.634436 0.634721 0.255782
0.797725 0.638385 0.202415
0.875635 0.701262 0.564900
0.886155 0.821285 0.784070
0.610981 0.777317 0.525546
0.611007 0.777346 0.525337
0.611111 0.777471 0.524496
0.611576 0.778046 0.520681
0.613926 0.780931 0.497864
0.640688 0.790513 0.381681
0.786866 0.787649 0.368966
0.880915 0.784299 0.615708
0.888673 0.838785 0.803202
0.722168 0.889958 0.625975
0.722172 0.889950 0.625928
0.722192 0.889975 0.625706
0.722281 0.890080 0.624687
0.722721 0.890629 0.619510
0.724732 0.893101 0.591525
0.756903 0.896545 0.472733
0.879357 0.880707 0.447642
0.894817 0.873351 0.841686
0.866291 0.900257 0.846592
0.866291 0.900257 0.846592
0.866291 0.900257 0.846592
0.866311 0.900257 0.846592
0.866405 0.900266 0.846592
0.866813 0.900287 0.846592
0.868566 0.900359 0.846460
0.876208 0.900715 0.846516
0.899931 0.901890 0.827137
0.013082 0.009301 0.054868
0.034693 0.011115 0.067519
0.099959 0.032086 0.098977
0.242213 0.095830 0.152511
0.429062 0.207137 0.209502
0.614957 0.343750 0.270966
0.784765 0.488616 0.344983
0.874256 0.663584 0.559206
0.885575 0.816709 0.780184
0.025602 0.038704 0.074867
0.039026 0.038022 0.091904
0.112550 0.047602 0.112901
0.249558 0.099612 0.153030
0.431635 0.208808 0.204909
0.615469 0.344144 0.268600
0.784910 0.488744 0.344108
0.874264 0.663681 0.559228
0.885575 0.816720 0.780195
0.066813 0.114116 0.113735
0.071677 0.121351 0.121249
0.133027 0.133027 0.133027
0.270167 0.145698 0.148251
0.439746 0.214116 0.187045
0.617449 0.345685 0.258666
0.785476 0.489244 0.340547
0.874276 0.664063 0.559312
0.885583 0.816774 0.780250
0.164486 0.259496 0.182251
0.166676 0.262790 0.180030
0.174461 0.274719 0.164050
0.287677 0.287088 0.153751
0.449088 0.304181 0.169591
0.624725 0.351374 0.205035
0.787931 0.491437 0.323221
0.874334 0.665750 0.559670
0.885613 0.817005 0.780486
0.302898 0.436604 0.270212
0.303465 0.437383 0.268041
0.305648 0.440403 0.258422
0.314293 0.452559 0.168446
0.459684 0.459596 0.159301
0.629906 0.473195 0.138774
0.799479 0.501821 0.000001
0.874564 0.673098 0.561235
0.885746 0.818026 0.781517
0.459130 0.615819 0.391090
0.459254 0.615979 0.390311
0.459734 0.616597 0.387181
0.461792 0.619261 0.371631
0.473986 0.630823 0.262066
0.634655 0.634700 0.255739
0.798797 0.637131 0.199382
0.875627 0.701008 0.566713
0.886259 0.821978 0.785276
0.611027 0.777287 0.528868
0.611053 0.777317 0.528663
0.611157 0.777449 0.527842
0.611625 0.778024 0.524114
0.613906 0.780828 0.502750
0.639566 0.790755 0.381924
0.786932 0.787656 0.368963
0.880906 0.784207 0.616751
0.888740 0.839149 0.803895
0.722168 0.889941 0.626834
0.722178 0.889941 0.626778
0.722195 0.889966 0.626565
0.722274 0.890054 0.625612
0.722710 0.890608 0.620513
0.724715 0.893063 0.592850
0.756760 0.896537 0.472737
0.879349 0.880707 0.447642
0.894826 0.873400 0.841849
0.866311 0.900257 0.846664
0.866320 0.900257 0.846660
0.866320 0.900257 0.846664
0.866348 0.900257 0.846660
0.866426 0.900266 0.846664
0.866834 0.900287 0.846660
0.868586 0.900367 0.846524
0.876217 0.900715 0.846568
0.899931 0.901881 0.827191
0.061885 0.056444 0.181583
0.072754 0.056720 0.188505
0.133287 0.060181 0.210027
0.258354 0.108835 0.256492
0.432508 0.211218 0.307344
0.615050 0.344474 0.358846
0.784503 0.488588 0.407091
0.874284 0.663380 0.569478
0.885996 0.819693 0.785258
0.071209 0.075687 0.196017
0.073546 0.072964 0.203912
0.137025 0.077185 0.222031
0.262406 0.111172 0.261358
0.434777 0.212688 0.306797
0.615554 0.344862 0.357740
0.784647 0.488711 0.406546
0.874284 0.663477 0.569497
0.885996 0.819704 0.785269
0.101075 0.144252 0.217544
0.104045 0.143529 0.229658
0.139265 0.136282 0.257621
0.275024 0.151488 0.275595
0.442327 0.217590 0.304123
0.617522 0.346369 0.353229
0.785213 0.489217 0.404347
0.874297 0.663859 0.569564
0.886004 0.819754 0.785320
0.179481 0.269559 0.269051
0.181212 0.271770 0.271366
0.187386 0.279616 0.279638
0.289924 0.289924 0.289923
0.451591 0.303044 0.302706
0.624746 0.351943 0.332661
0.787675 0.491402 0.394058
0.874350 0.665549 0.569877
0.886025 0.819978 0.785543
0.306854 0.437578 0.338734
0.307382 0.438300 0.338083
0.309419 0.441110 0.335153
0.316870 0.451677 0.316216
0.460192 0.460122 0.311541
0.627484 0.477375 0.335855
0.796831 0.513270 0.356306
0.874581 0.672901 0.571192
0.886171 0.820968 0.786543
0.459985 0.615551 0.429211
0.460105 0.615708 0.428687
0.460577 0.616323 0.426587
0.462614 0.618980 0.416380
0.478159 0.629739 0.333058
0.634139 0.634418 0.317448
0.797977 0.639899 0.324196
0.875953 0.707056 0.587759
0.886689 0.824868 0.790270
0.611226 0.777181 0.542064
0.611252 0.777210 0.541882
0.611356 0.777339 0.541156
0.611822 0.777914 0.537870
0.613900 0.780482 0.520940
0.635901 0.791601 0.382753
0.787085 0.787645 0.368931
0.881047 0.785313 0.626541
0.889012 0.840723 0.806924
0.722192 0.889874 0.630531
0.722202 0.889891 0.630478
0.722219 0.889904 0.630269
0.722298 0.890004 0.629340
0.722686 0.890490 0.624811
0.724664 0.892916 0.599596
0.757071 0.896550 0.472731
0.879311 0.880695 0.447638
0.894889 0.873626 0.842555
0.866446 0.900266 0.846951
0.866438 0.900266 0.846951
0.866446 0.900266 0.846951
0.866466 0.900266 0.846951
0.866560 0.900274 0.846951
0.866956 0.900295 0.846947
0.868701 0.900367 0.846819
0.876274 0.900715 0.846799
0.899940 0.901881 0.827417
0.170300 0.149677 0.385005
0.170970 0.148471 0.386609
0.189904 0.144851 0.392430
0.289661 0.144114 0.410995
0.445962 0.227592 0.443675
0.616949 0.348381 0.475407
0.784103 0.488996 0.509134
0.874363 0.662794 0.601764
0.886818 0.825101 0.795544
0.173316 0.181192 0.378927
0.174500 0.156374 0.390897
0.188104 0.152874 0.396345
0.290083 0.147307 0.413735
0.446553 0.228031 0.444501
0.617393 0.348720 0.475260
0.784240 0.489119 0.508907
0.874371 0.662894 0.601772
0.886818 0.825140 0.795592
0.185821 0.215606 0.385867
0.186778 0.210723 0.391308
0.189507 0.183410 0.410181
0.291928 0.183097 0.423449
0.448597 0.229553 0.447417
0.619129 0.350041 0.474632
0.784788 0.489604 0.507986
0.874379 0.663276 0.601824
0.886839 0.825280 0.795780
0.227736 0.302594 0.404401
0.228562 0.302391 0.407411
0.231535 0.300374 0.419522
0.292418 0.290557 0.445884
0.454052 0.303968 0.454044
0.625517 0.354914 0.471454
0.787192 0.491715 0.503775
0.874445 0.664977 0.602023
0.886931 0.825930 0.796617
0.323245 0.444824 0.444322
0.323649 0.445289 0.444814
0.325216 0.447088 0.446734
0.331062 0.453764 0.453975
0.461299 0.461299 0.461299
0.624876 0.482314 0.479079
0.796181 0.513829 0.491258
0.874675 0.672358 0.602900
0.887344 0.828751 0.800282
0.463944 0.615693 0.506822
0.464056 0.615839 0.506659
0.464499 0.616413 0.505987
0.466414 0.618910 0.502697
0.489901 0.627317 0.485832
0.632726 0.633261 0.495647
0.787530 0.654161 0.532927
0.877129 0.726050 0.646987
0.888238 0.834738 0.807187
0.612111 0.776841 0.583100
0.612137 0.776873 0.582978
0.612242 0.777002 0.582490
0.612693 0.777566 0.580265
0.614719 0.780096 0.569154
0.647831 0.788715 0.515454
0.785494 0.786613 0.516591
0.881632 0.789920 0.661427
0.890050 0.846548 0.817987
0.722311 0.889690 0.645237
0.722322 0.889698 0.645191
0.722335 0.889715 0.645008
0.722417 0.889820 0.644192
0.722768 0.890256 0.640422
0.725543 0.892147 0.631080
0.763996 0.895719 0.556144
0.878608 0.880310 0.522812
0.895121 0.874515 0.845381
0.866928 0.900295 0.848140
0.866919 0.900295 0.848140
0.866928 0.900295 0.848144
0.866956 0.900295 0.848156
0.867083 0.900304 0.848200
0.867466 0.900321 0.848196
0.869179 0.900397 0.848056
0.876530 0.900732 0.847793
0.899957 0.901890 0.828408
0.309827 0.322079 0.572583
0.310016 0.319581 0.573912
0.311519 0.220934 0.597518
0.321801 0.217676 0.601306
0.461487 0.266484 0.612818
0.624344 0.363516 0.621531
0.784980 0.492594 0.637155
0.874712 0.662753 0.668356
0.887089 0.825933 0.804119
0.310724 0.324986 0.572916
0.310915 0.322471 0.574285
0.311570 0.313505 0.578792
0.320670 0.217761 0.601972
0.461417 0.266570 0.613221
0.624586 0.363718 0.621837
0.785095 0.492692 0.637146
0.874712 0.662850 0.668362
0.887098 0.825965 0.804157
0.314214 0.336407 0.573934
0.314413 0.334072 0.575367
0.315134 0.323966 0.580855
0.317131 0.228718 0.604499
0.461091 0.266869 0.614751
0.625535 0.364526 0.623056
0.785554 0.493097 0.637101
0.874733 0.663229 0.668394
0.887119 0.826109 0.804331
0.328394 0.377268 0.577145
0.328600 0.376109 0.578354
0.329383 0.371016 0.583180
0.332270 0.306246 0.613427
0.460096 0.301104 0.620117
0.629382 0.367813 0.628030
0.787571 0.494851 0.636866
0.874783 0.664901 0.668517
0.887202 0.826751 0.805082
0.376273 0.473761 0.589231
0.376449 0.473689 0.589876
0.377159 0.473336 0.592466
0.379918 0.470727 0.603834
0.466408 0.467198 0.620387
0.629067 0.481546 0.628098
0.794993 0.514756 0.637520
0.875001 0.672180 0.669041
0.887611 0.829536 0.808382
0.480857 0.621009 0.620554
0.480939 0.621103 0.620651
0.481279 0.621458 0.621038
0.482731 0.623002 0.622717
0.499336 0.628273 0.628472
0.633851 0.633851 0.633851
0.777958 0.664550 0.659761
0.877455 0.725632 0.698543
0.889217 0.839944 0.820690
0.615824 0.776339 0.664729
0.615845 0.776368 0.664691
0.615941 0.776485 0.664522
0.616352 0.776994 0.663778
0.618190 0.779313 0.660076
0.662644 0.783468 0.655030
0.781071 0.782269 0.683613
0.883202 0.800263 0.732540
0.892500 0.859053 0.841769
0.722789 0.888891 0.689972
0.722792 0.888899 0.689943
0.722813 0.888916 0.689819
0.722884 0.889012 0.689272
0.723225 0.889447 0.686738
0.729952 0.890830 0.685361
0.794532 0.884534 0.716290
0.873149 0.875932 0.722240
0.895740 0.876749 0.853135
0.868288 0.900376 0.851979
0.868279 0.900376 0.851979
0.868288 0.900376 0.851983
0.868316 0.900384 0.851991
0.868423 0.900384 0.852035
0.868934 0.900414 0.852232
0.870756 0.900495 0.852421
0.877368 0.900804 0.851406
0.900058 0.901920 0.832617
0.460846 0.480946 0.752461
0.460898 0.480219 0.752816
0.461091 0.477260 0.754212
0.461921 0.462454 0.760348
0.478273 0.354527 0.798342
0.634601 0.409270 0.801516
0.789433 0.507154 0.786491
0.876048 0.671904 0.765110
0.887967 0.829345 0.824390
0.461058 0.481731 0.752482
0.461106 0.481008 0.752834
0.461303 0.478071 0.754237
0.462131 0.463352 0.760384
0.478325 0.354573 0.798395
0.634553 0.409253 0.801539
0.789481 0.507202 0.786558
0.876056 0.671983 0.765114
0.887975 0.829380 0.824425
0.461899 0.484826 0.752546
0.461949 0.484127 0.752901
0.462147 0.481261 0.754312
0.462990 0.466952 0.760502
0.478525 0.354743 0.798609
0.634358 0.409190 0.801618
0.789686 0.507399 0.786829
0.876076 0.672320 0.765135
0.887996 0.829513 0.824549
0.465561 0.497793 0.752748
0.465614 0.497198 0.753096
0.465808 0.494776 0.754472
0.466700 0.482413 0.760710
0.479293 0.355416 0.799468
0.633483 0.408866 0.801924
0.790580 0.508254 0.787994
0.876114 0.673782 0.765226
0.888079 0.830107 0.825117
0.481076 0.542416 0.754312
0.481117 0.542147 0.754568
0.481286 0.541059 0.755590
0.482015 0.535717 0.760219
0.486088 0.487630 0.786992
0.629831 0.430567 0.802729
0.794026 0.511575 0.792606
0.876340 0.680173 0.765608
0.888468 0.832700 0.827577
0.532029 0.642581 0.762071
0.532065 0.642556 0.762208
0.532213 0.642468 0.762743
0.532867 0.642031 0.765143
0.535597 0.639720 0.775399
0.645368 0.648569 0.774219
0.782944 0.664854 0.780607
0.878695 0.729195 0.778931
0.889941 0.842265 0.836690
0.630102 0.777771 0.777339
0.630120 0.777790 0.777353
0.630186 0.777856 0.777427
0.630475 0.778142 0.777749
0.631752 0.779427 0.779173
0.665671 0.781841 0.781896
0.781307 0.781307 0.781307
0.870391 0.809674 0.805929
0.893286 0.861686 0.854607
0.724602 0.886334 0.774135
0.724609 0.886334 0.774124
0.724616 0.886351 0.774080
0.724681 0.886434 0.773887
0.724961 0.886810 0.772968
0.730507 0.887687 0.772516
0.811970 0.872940 0.803199
0.866503 0.867728 0.825548
0.896402 0.878496 0.864193
0.868255 0.900423 0.857994
0.868251 0.900423 0.857986
0.868259 0.900423 0.857994
0.868304 0.900414 0.858034
0.868480 0.900431 0.858152
0.869249 0.900469 0.858661
0.872184 0.900605 0.860397
0.879059 0.900944 0.860875
0.898429 0.900524 0.860126
0.600930 0.627039 0.900927
0.600893 0.626891 0.900927
0.600734 0.626298 0.900923
0.600047 0.623698 0.900923
0.597682 0.614356 0.900906
0.646922 0.604642 0.900889
0.771562 0.628365 0.900851
0.880724 0.708195 0.880649
0.890524 0.841706 0.858075
0.600984 0.627234 0.900931
0.600945 0.627086 0.900931
0.600785 0.626499 0.900927
0.600104 0.623901 0.900923
0.597735 0.614588 0.900914
0.646941 0.604857 0.900880
0.771559 0.628540 0.900859
0.880716 0.708238 0.880649
0.890524 0.841730 0.858091
0.601195 0.628018 0.900931
0.601152 0.627869 0.900931
0.600999 0.627282 0.900931
0.600320 0.624731 0.900923
0.597967 0.615504 0.900914
0.647008 0.605716 0.900889
0.771559 0.629233 0.900859
0.880728 0.708422 0.880662
0.890536 0.841817 0.858152
0.602122 0.631441 0.900935
0.602088 0.631295 0.900935
0.601934 0.630725 0.900935
0.601269 0.628300 0.900927
0.598958 0.619466 0.900914
0.647317 0.609474 0.900897
0.771541 0.632277 0.900868
0.880765 0.709232 0.880716
0.890599 0.842218 0.858394
0.606263 0.645795 0.900952
0.606232 0.645685 0.900961
0.606100 0.645255 0.900961
0.605504 0.643255 0.900952
0.603383 0.635940 0.900944
0.649505 0.626192 0.900914
0.771501 0.645091 0.900889
0.880935 0.712830 0.880952
0.890867 0.843953 0.859454
0.621708 0.690392 0.901054
0.621690 0.690350 0.901063
0.621620 0.690164 0.901063
0.621302 0.689356 0.901054
0.620263 0.686676 0.901046
0.669797 0.688803 0.901033
0.774708 0.698893 0.901016
0.882405 0.741734 0.880952
0.891908 0.850404 0.863445
0.665709 0.781432 0.898789
0.665715 0.781428 0.898814
0.665737 0.781402 0.898915
0.665838 0.781296 0.899334
0.666206 0.780787 0.901041
0.702505 0.783860 0.898454
0.795206 0.798985 0.868537
0.872759 0.812242 0.869314
0.894274 0.864189 0.871667
0.730751 0.879328 0.878807
0.730755 0.879345 0.878798
0.730762 0.879345 0.878815
0.730796 0.879374 0.878848
0.730903 0.879477 0.878989
0.736966 0.879262 0.878939
0.813556 0.869625 0.869318
0.866185 0.866193 0.866177
0.896642 0.880015 0.878798
0.867736 0.900495 0.872607
0.867736 0.900495 0.872611
0.867740 0.900495 0.872615
0.867777 0.900503 0.872615
0.867928 0.900503 0.872672
0.868586 0.900533 0.872882
0.871187 0.900660 0.873589
0.883227 0.897027 0.880397
0.895571 0.895968 0.887398
0.795026 0.813203 0.901589
0.795034 0.813203 0.901589
0.795060 0.813195 0.901589
0.795173 0.813173 0.901589
0.795675 0.813073 0.901580
0.797830 0.812537 0.901580
0.805435 0.808645 0.901546
0.856230 0.832276 0.901682
0.895647 0.866964 0.894746
0.795038 0.813215 0.901589
0.795041 0.813215 0.901589
0.795068 0.813207 0.901589
0.795180 0.813188 0.901589
0.795686 0.813084 0.901589
0.797842 0.812548 0.901580
0.805439 0.808652 0.901538
0.856238 0.832292 0.901682
0.895647 0.866964 0.894746
0.795075 0.813261 0.901589
0.795083 0.813261 0.901589
0.795109 0.813257 0.901589
0.795221 0.813234 0.901589
0.795724 0.813134 0.901584
0.797879 0.812598 0.901580
0.805454 0.808690 0.901546
0.856259 0.832355 0.901690
0.895656 0.866976 0.894746
0.795247 0.813475 0.901589
0.795251 0.813475 0.901589
0.795281 0.813471 0.901589
0.795390 0.813452 0.901597
0.795900 0.813356 0.901589
0.798052 0.812820 0.901589
0.805549 0.808873 0.901546
0.856380 0.832641 0.901690
0.895673 0.867054 0.894763
0.796020 0.814453 0.901601
0.796027 0.814453 0.901601
0.796050 0.814446 0.901601
0.796166 0.814426 0.901601
0.796673 0.814338 0.901593
0.798827 0.813839 0.901597
0.806377 0.810102 0.901555
0.856948 0.833916 0.901699
0.895727 0.867389 0.894826
0.799404 0.818670 0.901627
0.799407 0.818666 0.901627
0.799430 0.818666 0.901635
0.799547 0.818654 0.901627
0.800320 0.818801 0.901635
0.805989 0.821351 0.901644
0.815332 0.820523 0.901635
0.859227 0.839062 0.901746
0.895959 0.868750 0.895074
0.812108 0.834058 0.901771
0.812116 0.834058 0.901771
0.812142 0.834062 0.901763
0.812407 0.834176 0.901763
0.814131 0.835096 0.901771
0.821138 0.838821 0.901809
0.837597 0.846130 0.901864
0.865488 0.853626 0.901898
0.896676 0.872853 0.895841
0.842844 0.868374 0.902136
0.842852 0.868382 0.902136
0.842884 0.868394 0.902136
0.843027 0.868439 0.902136
0.843659 0.868643 0.902144
0.846309 0.869458 0.902144
0.854961 0.871761 0.902166
0.874317 0.875808 0.894716
0.897027 0.882542 0.895453
0.865683 0.900643 0.900295
0.865683 0.900643 0.900295
0.865692 0.900643 0.900295
0.865720 0.900643 0.900295
0.865826 0.900643 0.900279
0.866385 0.900668 0.900240
0.869028 0.900414 0.899885
0.885013 0.895968 0.895803
0.895841 0.895841 0.895841
