DaVinci Resolve/ACES Transforms/ODT/ACES2 Candidates rev003/ACES2 CandidateA rev003 Rec709.cube
TITLE "Generated by Foundry::LUT"
LUT_3D_SIZE 4
0.746790 0.746799 0.746740
0.746790 0.746799 0.746740
0.746790 0.746799 0.746740
0.746790 0.746799 0.746740
0.746790 0.746799 0.746740
0.746790 0.746799 0.746740
0.746790 0.746799 0.746740
0.746790 0.746799 0.746740
0.746790 0.746799 0.746740
0.746790 0.746799 0.746740
0.746790 0.746799 0.746740
0.746790 0.746799 0.746740
0.746790 0.746799 0.746740
0.746790 0.746799 0.746740
0.746790 0.746799 0.746740
0.746790 0.746799 0.746740
0.746790 0.746799 0.746740
0.746790 0.746799 0.746740
0.746790 0.746799 0.746740
0.746790 0.746799 0.746740
0.746790 0.746799 0.746740
0.746790 0.746799 0.746740
0.746790 0.746799 0.746740
0.746790 0.746799 0.746740
0.746790 0.746799 0.746740
0.746790 0.746799 0.746740
0.746790 0.746799 0.746740
0.746790 0.746799 0.746740
0.746790 0.746799 0.746740
0.746790 0.746799 0.746740
0.746790 0.746799 0.746740
0.746790 0.746799 0.746740
0.746790 0.746799 0.746740
0.746790 0.746799 0.746740
0.746790 0.746799 0.746740
0.746790 0.746799 0.746740
0.746790 0.746799 0.746740
0.746790 0.746799 0.746740
0.746790 0.746799 0.746740
0.746790 0.746799 0.746740
0.746790 0.746799 0.746740
0.746790 0.746799 0.746740
0.746790 0.746799 0.746740
0.746790 0.746799 0.746740
0.746790 0.746799 0.746740
0.746790 0.746799 0.746740
0.746790 0.746799 0.746740
0.746790 0.746799 0.746740
0.746790 0.746799 0.746740
0.746790 0.746799 0.746740
0.746790 0.746799 0.746740
0.746790 0.746799 0.746740
0.000043 0.000000 0.000000
0.000043 0.000000 0.000000
0.000043 0.000000 0.000000
0.000043 0.000000 0.000000
0.000043 0.000000 0.000000
0.000043 0.000000 0.000000
0.000043 0.000000 0.000000
0.000043 0.000000 0.000000
0.000043 0.000000 0.000000
0.000043 0.000000 0.000000
0.000043 0.000000 0.000000
0.000043 0.000000 0.000000
