DaVinci Resolve/ACES Transforms/ODT/ACES2 Candidates rev003/ACES2 CandidateA rev003 Rec2100.cube
TITLE "Generated by Foundry::LUT"
LUT_3D_SIZE 28
0.515586 0.515588 0.515571
0.515586 0.515588 0.515571
0.515586 0.515588 0.515571
0.515586 0.515588 0.515571
0.515586 0.515588 0.515571
0.515586 0.515588 0.515571
0.515586 0.515588 0.515571
0.515586 0.515588 0.515571
0.515586 0.515588 0.515571
0.515586 0.515588 0.515571
0.515586 0.515588 0.515571
0.515586 0.515588 0.515571
0.515586 0.515588 0.515571
0.515586 0.515588 0.515571
0.515586 0.515588 0.515571
0.515586 0.515588 0.515571
0.515586 0.515588 0.515571
0.515586 0.515588 0.515571
0.515586 0.515588 0.515571
0.515586 0.515588 0.515571
0.515586 0.515588 0.515571
0.515586 0.515588 0.515571
0.515586 0.515588 0.515571
0.515586 0.515588 0.515571
0.515586 0.515588 0.515571
0.515586 0.515588 0.515571
0.515586 0.515588 0.515571
0.515586 0.515588 0.515571
0.515586 0.515588 0.515571
0.515586 0.515588 0.515571
0.515586 0.515588 0.515571
0.515586 0.515588 0.515571
0.515586 0.515588 0.515571
0.515586 0.515588 0.515571
0.515586 0.515588 0.515571
0.515586 0.515588 0.515571
0.515586 0.515588 0.515571
0.515586 0.515588 0.515571
0.515586 0.515588 0.515571
0.515586 0.515588 0.515571
0.515586 0.515588 0.515571
0.515586 0.515588 0.515571
0.515586 0.515588 0.515571
0.515586 0.515588 0.515571
0.515586 0.515588 0.515571
0.515586 0.515588 0.515571
0.515586 0.515588 0.515571
0.515586 0.515588 0.515571
0.515586 0.515588 0.515571
0.515586 0.515588 0.515571
0.515586 0.515588 0.515571
0.515586 0.515588 0.515571
0.515586 0.515588 0.515571
0.515586 0.515588 0.515571
0.515586 0.515588 0.515571
0.515586 0.515588 0.515571
0.515586 0.515588 0.515571
0.515586 0.515588 0.515571
0.515586 0.515588 0.515571
0.515586 0.515588 0.515571
0.515586 0.515588 0.515571
0.515586 0.515588 0.515571
0.515586 0.515588 0.515571
0.515586 0.515588 0.515571
0.515586 0.515588 0.515571
0.515586 0.515588 0.515571
0.515586 0.515588 0.515571
0.515586 0.515588 0.515571
0.515586 0.515588 0.515571
0.515586 0.515588 0.515571
0.515586 0.515588 0.515571
0.515586 0.515588 0.515571
0.515586 0.515588 0.515571
0.515586 0.515588 0.515571
0.515586 0.515588 0.515571
0.515586 0.515588 0.515571
0.515586 0.515588 0.515571
0.515586 0.515588 0.515571
0.515586 0.515588 0.515571
0.515586 0.515588 0.515571
0.515586 0.515588 0.515571
0.515586 0.515588 0.515571
0.515586 0.515588 0.515571
0.515586 0.515588 0.515571
0.515586 0.515588 0.515571
0.515586 0.515588 0.515571
0.515586 0.515588 0.515571
0.515586 0.515588 0.515571
0.515586 0.515588 0.515571
0.515586 0.515588 0.515571
0.515586 0.515588 0.515571
0.515586 0.515588 0.515571
0.515586 0.515588 0.515571
0.515586 0.515588 0.515571
0.515586 0.515588 0.515571
0.515586 0.515588 0.515571
0.515586 0.515588 0.515571
0.515586 0.515588 0.515571
0.515586 0.515588 0.515571
0.515586 0.515588 0.515571
0.515586 0.515588 0.515571
0.515586 0.515588 0.515571
0.515586 0.515588 0.515571
0.515586 0.515588 0.515571
0.515586 0.515588 0.515571
0.515586 0.515588 0.515571
0.515586 0.515588 0.515571
0.515586 0.515588 0.515571
0.515586 0.515588 0.515571
0.515586 0.515588 0.515571
0.515586 0.515588 0.515571
0.515586 0.515588 0.515571
0.515586 0.515588 0.515571
0.515586 0.515588 0.515571
0.515586 0.515588 0.515571
0.515586 0.515588 0.515571
0.515586 0.515588 0.515571
0.515586 0.515588 0.515571
0.515586 0.515588 0.515571
0.515586 0.515588 0.515571
0.515586 0.515588 0.515571
0.515586 0.515588 0.515571
0.515586 0.515588 0.515571
0.515586 0.515588 0.515571
0.515586 0.515588 0.515571
0.515586 0.515588 0.515571
0.515586 0.515588 0.515571
0.515586 0.515588 0.515571
0.515586 0.515588 0.515571
0.515586 0.515588 0.515571
0.515586 0.515588 0.515571
0.515586 0.515588 0.515571
0.515586 0.515588 0.515571
0.515586 0.515588 0.515571
0.515586 0.515588 0.515571
0.515586 0.515588 0.515571
0.515586 0.515588 0.515571
0.515586 0.515588 0.515571
0.515586 0.515588 0.515571
0.515586 0.515588 0.515571
0.515586 0.515588 0.515571
0.515586 0.515588 0.515571
0.515586 0.515588 0.515571
0.515586 0.515588 0.515571
0.515586 0.515588 0.515571
0.515586 0.515588 0.515571
0.515586 0.515588 0.515571
0.515586 0.515588 0.515571
0.515586 0.515588 0.515571
0.515586 0.515588 0.515571
0.515586 0.515588 0.515571
0.515586 0.515588 0.515571
0.515586 0.515588 0.515571
0.515586 0.515588 0.515571
0.515586 0.515588 0.515571
0.515586 0.515588 0.515571
0.515586 0.515588 0.515571
0.515586 0.515588 0.515571
0.515586 0.515588 0.515571
0.515586 0.515588 0.515571
0.515586 0.515588 0.515571
0.515586 0.515588 0.515571
0.515586 0.515588 0.515571
0.515586 0.515588 0.515571
0.515586 0.515588 0.515571
0.515586 0.515588 0.515571
0.515586 0.515588 0.515571
0.515586 0.515588 0.515571
0.515586 0.515588 0.515571
0.515586 0.515588 0.515571
0.515586 0.515588 0.515571
0.515586 0.515588 0.515571
0.515586 0.515588 0.515571
0.515586 0.515588 0.515571
0.515586 0.515588 0.515571
0.515586 0.515588 0.515571
0.515586 0.515588 0.515571
0.515586 0.515588 0.515571
0.515586 0.515588 0.515571
0.515586 0.515588 0.515571
0.515586 0.515588 0.515571
0.515586 0.515588 0.515571
0.515586 0.515588 0.515571
0.515586 0.515588 0.515571
0.515586 0.515588 0.515571
0.515586 0.515588 0.515571
0.515586 0.515588 0.515571
0.515586 0.515588 0.515571
0.515586 0.515588 0.515571
0.515586 0.515588 0.515571
0.515586 0.515588 0.515571
0.515586 0.515588 0.515571
0.515586 0.515588 0.515571
0.515586 0.515588 0.515571
0.515586 0.515588 0.515571
0.515586 0.515588 0.515571
0.515586 0.515588 0.515571
0.515586 0.515588 0.515571
0.515586 0.515588 0.515571
0.515586 0.515588 0.515571
0.515586 0.515588 0.515571
0.515586 0.515588 0.515571
0.515586 0.515588 0.515571
0.515586 0.515588 0.515571
0.515586 0.515588 0.515571
0.515586 0.515588 0.515571
0.515586 0.515588 0.515571
0.515586 0.515588 0.515571
0.515586 0.515588 0.515571
0.515586 0.515588 0.515571
0.515586 0.515588 0.515571
0.515586 0.515588 0.515571
0.515586 0.515588 0.515571
0.515586 0.515588 0.515571
0.515586 0.515588 0.515571
0.515586 0.515588 0.515571
0.515586 0.515588 0.515571
0.515586 0.515588 0.515571
0.515586 0.515588 0.515571
0.515586 0.515588 0.515571
0.515586 0.515588 0.515571
0.515586 0.515588 0.515571
0.515586 0.515588 0.515571
0.515586 0.515588 0.515571
0.515586 0.515588 0.515571
0.515586 0.515588 0.515571
0.515586 0.515588 0.515571
0.515586 0.515588 0.515571
0.515586 0.515588 0.515571
0.515586 0.515588 0.515571
0.515586 0.515588 0.515571
0.515586 0.515588 0.515571
0.515586 0.515588 0.515571
0.515586 0.515588 0.515571
0.515586 0.515588 0.515571
0.515586 0.515588 0.515571
0.515586 0.515588 0.515571
0.515586 0.515588 0.515571
0.515586 0.515588 0.515571
0.515586 0.515588 0.515571
0.515586 0.515588 0.515571
0.515586 0.515588 0.515571
0.515586 0.515588 0.515571
0.515586 0.515588 0.515571
0.515586 0.515588 0.515571
0.515586 0.515588 0.515571
0.515586 0.515588 0.515571
0.515586 0.515588 0.515571
0.515586 0.515588 0.515571
0.515586 0.515588 0.515571
0.515586 0.515588 0.515571
0.515586 0.515588 0.515571
0.515586 0.515588 0.515571
0.515586 0.515588 0.515571
0.515586 0.515588 0.515571
0.515586 0.515588 0.515571
0.515586 0.515588 0.515571
0.515586 0.515588 0.515571
0.515586 0.515588 0.515571
0.515586 0.515588 0.515571
0.515586 0.515588 0.515571
0.515586 0.515588 0.515571
0.515586 0.515588 0.515571
0.515586 0.515588 0.515571
0.515586 0.515588 0.515571
0.515586 0.515588 0.515571
0.515586 0.515588 0.515571
0.515586 0.515588 0.515571
0.515586 0.515588 0.515571
0.515586 0.515588 0.515571
0.515586 0.515588 0.515571
0.515586 0.515588 0.515571
0.515586 0.515588 0.515571
0.515586 0.515588 0.515571
0.515586 0.515588 0.515571
0.515586 0.515588 0.515571
0.515586 0.515588 0.515571
0.515586 0.515588 0.515571
0.515586 0.515588 0.515571
0.515586 0.515588 0.515571
0.515586 0.515588 0.515571
0.515586 0.515588 0.515571
0.515586 0.515588 0.515571
0.515586 0.515588 0.515571
0.515586 0.515588 0.515571
0.515586 0.515588 0.515571
0.515586 0.515588 0.515571
0.515586 0.515588 0.515571
0.515586 0.515588 0.515571
0.515586 0.515588 0.515571
0.515586 0.515588 0.515571
0.515586 0.515588 0.515571
0.515586 0.515588 0.515571
0.515586 0.515588 0.515571
0.515586 0.515588 0.515571
0.515586 0.515588 0.515571
0.515586 0.515588 0.515571
0.515586 0.515588 0.515571
0.515586 0.515588 0.515571
0.515586 0.515588 0.515571
0.515586 0.515588 0.515571
0.515586 0.515588 0.515571
0.515586 0.515588 0.515571
0.515586 0.515588 0.515571
0.515586 0.515588 0.515571
0.515586 0.515588 0.515571
0.515586 0.515588 0.515571
0.515586 0.515588 0.515571
0.515586 0.515588 0.515571
0.515586 0.515588 0.515571
0.515586 0.515588 0.515571
0.515586 0.515588 0.515571
0.515586 0.515588 0.515571
0.515586 0.515588 0.515571
0.515586 0.515588 0.515571
0.515586 0.515588 0.515571
0.515586 0.515588 0.515571
0.515586 0.515588 0.515571
0.515586 0.515588 0.515571
0.515586 0.515588 0.515571
0.515586 0.515588 0.515571
0.515586 0.515588 0.515571
0.515586 0.515588 0.515571
0.515586 0.515588 0.515571
0.515586 0.515588 0.515571
0.515586 0.515588 0.515571
0.515586 0.515588 0.515571
0.515586 0.515588 0.515571
0.515586 0.515588 0.515571
0.515586 0.515588 0.515571
0.515586 0.515588 0.515571
0.515586 0.515588 0.515571
0.515586 0.515588 0.515571
0.515586 0.515588 0.515571
0.515586 0.515588 0.515571
0.515586 0.515588 0.515571
0.515586 0.515588 0.515571
0.515586 0.515588 0.515571
0.515586 0.515588 0.515571
0.515586 0.515588 0.515571
0.515586 0.515588 0.515571
0.515586 0.515588 0.515571
0.515586 0.515588 0.515571
0.515586 0.515588 0.515571
0.515586 0.515588 0.515571
0.515586 0.515588 0.515571
0.515586 0.515588 0.515571
0.515586 0.515588 0.515571
0.515586 0.515588 0.515571
0.515586 0.515588 0.515571
0.515586 0.515588 0.515571
0.515586 0.515588 0.515571
0.515586 0.515588 0.515571
0.515586 0.515588 0.515571
0.515586 0.515588 0.515571
0.515586 0.515588 0.515571
0.515586 0.515588 0.515571
0.515586 0.515588 0.515571
0.515586 0.515588 0.515571
0.515586 0.515588 0.515571
0.515586 0.515588 0.515571
0.515586 0.515588 0.515571
0.515586 0.515588 0.515571
0.515586 0.515588 0.515571
0.515586 0.515588 0.515571
0.515586 0.515588 0.515571
0.515586 0.515588 0.515571
0.515586 0.515588 0.515571
0.515586 0.515588 0.515571
0.515586 0.515588 0.515571
0.515586 0.515588 0.515571
0.515586 0.515588 0.515571
0.515586 0.515588 0.515571
0.515586 0.515588 0.515571
0.515586 0.515588 0.515571
0.515586 0.515588 0.515571
0.515586 0.515588 0.515571
0.515586 0.515588 0.515571
0.515586 0.515588 0.515571
0.515586 0.515588 0.515571
0.515586 0.515588 0.515571
0.515586 0.515588 0.515571
0.515586 0.515588 0.515571
0.515586 0.515588 0.515571
0.515586 0.515588 0.515571
0.515586 0.515588 0.515571
0.515586 0.515588 0.515571
0.515586 0.515588 0.515571
0.515586 0.515588 0.515571
0.515586 0.515588 0.515571
0.515586 0.515588 0.515571
0.515586 0.515588 0.515571
0.515586 0.515588 0.515571
0.515586 0.515588 0.515571
0.515586 0.515588 0.515571
0.515586 0.515588 0.515571
0.515586 0.515588 0.515571
0.515586 0.515588 0.515571
0.515586 0.515588 0.515571
0.515586 0.515588 0.515571
0.515586 0.515588 0.515571
0.515586 0.515588 0.515571
0.515586 0.515588 0.515571
0.515586 0.515588 0.515571
0.515586 0.515588 0.515571
0.515586 0.515588 0.515571
0.515586 0.515588 0.515571
0.515586 0.515588 0.515571
0.515586 0.515588 0.515571
0.515586 0.515588 0.515571
0.515586 0.515588 0.515571
0.515586 0.515588 0.515571
0.515586 0.515588 0.515571
0.515586 0.515588 0.515571
0.515586 0.515588 0.515571
0.515586 0.515588 0.515571
0.515586 0.515588 0.515571
0.515586 0.515588 0.515571
0.515586 0.515588 0.515571
0.515586 0.515588 0.515571
0.515586 0.515588 0.515571
0.515586 0.515588 0.515571
0.515586 0.515588 0.515571
0.515586 0.515588 0.515571
0.515586 0.515588 0.515571
0.515586 0.515588 0.515571
0.515586 0.515588 0.515571
0.515586 0.515588 0.515571
0.515586 0.515588 0.515571
0.515586 0.515588 0.515571
0.515586 0.515588 0.515571
0.515586 0.515588 0.515571
0.515586 0.515588 0.515571
0.515586 0.515588 0.515571
0.515586 0.515588 0.515571
0.515586 0.515588 0.515571
0.515586 0.515588 0.515571
0.515586 0.515588 0.515571
0.515586 0.515588 0.515571
0.515586 0.515588 0.515571
0.515586 0.515588 0.515571
0.515586 0.515588 0.515571
0.515586 0.515588 0.515571
0.515586 0.515588 0.515571
0.515586 0.515588 0.515571
0.515586 0.515588 0.515571
0.515586 0.515588 0.515571
0.515586 0.515588 0.515571
0.515586 0.515588 0.515571
0.515586 0.515588 0.515571
0.515586 0.515588 0.515571
0.515586 0.515588 0.515571
0.515586 0.515588 0.515571
0.515586 0.515588 0.515571
0.515586 0.515588 0.515571
0.515586 0.515588 0.515571
0.515586 0.515588 0.515571
0.515586 0.515588 0.515571
0.515586 0.515588 0.515571
0.515586 0.515588 0.515571
0.515586 0.515588 0.515571
0.515586 0.515588 0.515571
0.515586 0.515588 0.515571
0.515586 0.515588 0.515571
0.515586 0.515588 0.515571
0.515586 0.515588 0.515571
0.515586 0.515588 0.515571
0.515586 0.515588 0.515571
0.515586 0.515588 0.515571
0.515586 0.515588 0.515571
0.515586 0.515588 0.515571
0.515586 0.515588 0.515571
0.515586 0.515588 0.515571
0.515586 0.515588 0.515571
0.515586 0.515588 0.515571
0.515586 0.515588 0.515571
0.515586 0.515588 0.515571
0.515586 0.515588 0.515571
0.515586 0.515588 0.515571
0.515586 0.515588 0.515571
0.515586 0.515588 0.515571
0.515586 0.515588 0.515571
0.515586 0.515588 0.515571
0.515586 0.515588 0.515571
0.515586 0.515588 0.515571
0.515586 0.515588 0.515571
0.515586 0.515588 0.515571
0.515586 0.515588 0.515571
0.515586 0.515588 0.515571
0.515586 0.515588 0.515571
0.515586 0.515588 0.515571
0.515586 0.515588 0.515571
0.515586 0.515588 0.515571
0.515586 0.515588 0.515571
0.515586 0.515588 0.515571
0.515586 0.515588 0.515571
0.515586 0.515588 0.515571
0.515586 0.515588 0.515571
0.515586 0.515588 0.515571
0.515586 0.515588 0.515571
0.515586 0.515588 0.515571
0.515586 0.515588 0.515571
0.515586 0.515588 0.515571
0.515586 0.515588 0.515571
0.515586 0.515588 0.515571
0.515586 0.515588 0.515571
0.515586 0.515588 0.515571
0.515586 0.515588 0.515571
0.515586 0.515588 0.515571
0.515586 0.515588 0.515571
0.515586 0.515588 0.515571
0.515586 0.515588 0.515571
0.515586 0.515588 0.515571
0.515586 0.515588 0.515571
0.515586 0.515588 0.515571
0.515586 0.515588 0.515571
0.515586 0.515588 0.515571
0.515586 0.515588 0.515571
0.515586 0.515588 0.515571
0.515586 0.515588 0.515571
0.515586 0.515588 0.515571
0.515586 0.515588 0.515571
0.515586 0.515588 0.515571
0.515586 0.515588 0.515571
0.515586 0.515588 0.515571
0.515586 0.515588 0.515571
0.515586 0.515588 0.515571
0.515586 0.515588 0.515571
0.515586 0.515588 0.515571
0.515586 0.515588 0.515571
0.515586 0.515588 0.515571
0.515586 0.515588 0.515571
0.515586 0.515588 0.515571
0.515586 0.515588 0.515571
0.515586 0.515588 0.515571
0.515586 0.515588 0.515571
0.515586 0.515588 0.515571
0.515586 0.515588 0.515571
0.515586 0.515588 0.515571
0.515586 0.515588 0.515571
0.515586 0.515588 0.515571
0.515586 0.515588 0.515571
0.515586 0.515588 0.515571
0.515586 0.515588 0.515571
0.515586 0.515588 0.515571
0.515586 0.515588 0.515571
0.515586 0.515588 0.515571
0.515586 0.515588 0.515571
0.515586 0.515588 0.515571
0.515586 0.515588 0.515571
0.515586 0.515588 0.515571
0.515586 0.515588 0.515571
0.515586 0.515588 0.515571
0.515586 0.515588 0.515571
0.515586 0.515588 0.515571
0.515586 0.515588 0.515571
0.515586 0.515588 0.515571
0.515586 0.515588 0.515571
0.515586 0.515588 0.515571
0.515586 0.515588 0.515571
0.515586 0.515588 0.515571
0.515586 0.515588 0.515571
0.515586 0.515588 0.515571
0.515586 0.515588 0.515571
0.515586 0.515588 0.515571
0.515586 0.515588 0.515571
0.515586 0.515588 0.515571
0.515586 0.515588 0.515571
0.515586 0.515588 0.515571
0.515586 0.515588 0.515571
0.515586 0.515588 0.515571
0.515586 0.515588 0.515571
0.515586 0.515588 0.515571
0.515586 0.515588 0.515571
0.515586 0.515588 0.515571
0.515586 0.515588 0.515571
0.515586 0.515588 0.515571
0.515586 0.515588 0.515571
0.515586 0.515588 0.515571
0.515586 0.515588 0.515571
0.515586 0.515588 0.515571
0.515586 0.515588 0.515571
0.515586 0.515588 0.515571
0.515586 0.515588 0.515571
0.515586 0.515588 0.515571
0.515586 0.515588 0.515571
0.515586 0.515588 0.515571
0.515586 0.515588 0.515571
0.515586 0.515588 0.515571
0.515586 0.515588 0.515571
0.515586 0.515588 0.515571
0.515586 0.515588 0.515571
0.515586 0.515588 0.515571
0.515586 0.515588 0.515571
0.515586 0.515588 0.515571
0.515586 0.515588 0.515571
0.515586 0.515588 0.515571
0.515586 0.515588 0.515571
0.515586 0.515588 0.515571
0.515586 0.515588 0.515571
0.515586 0.515588 0.515571
0.515586 0.515588 0.515571
0.515586 0.515588 0.515571
0.515586 0.515588 0.515571
0.515586 0.515588 0.515571
0.515586 0.515588 0.515571
0.515586 0.515588 0.515571
0.515586 0.515588 0.515571
0.515586 0.515588 0.515571
0.515586 0.515588 0.515571
0.515586 0.515588 0.515571
0.515586 0.515588 0.515571
0.515586 0.515588 0.515571
0.515586 0.515588 0.515571
0.515586 0.515588 0.515571
0.515586 0.515588 0.515571
0.515586 0.515588 0.515571
0.515586 0.515588 0.515571
0.515586 0.515588 0.515571
0.515586 0.515588 0.515571
0.515586 0.515588 0.515571
0.515586 0.515588 0.515571
0.515586 0.515588 0.515571
0.515586 0.515588 0.515571
0.515586 0.515588 0.515571
0.515586 0.515588 0.515571
0.515586 0.515588 0.515571
0.515586 0.515588 0.515571
0.515586 0.515588 0.515571
0.515586 0.515588 0.515571
0.515586 0.515588 0.515571
0.515586 0.515588 0.515571
0.515586 0.515588 0.515571
0.515586 0.515588 0.515571
0.515586 0.515588 0.515571
0.515586 0.515588 0.515571
0.515586 0.515588 0.515571
0.515586 0.515588 0.515571
0.515586 0.515588 0.515571
0.515586 0.515588 0.515571
0.515586 0.515588 0.515571
0.515586 0.515588 0.515571
0.515586 0.515588 0.515571
0.515586 0.515588 0.515571
0.515586 0.515588 0.515571
0.515586 0.515588 0.515571
0.515586 0.515588 0.515571
0.515586 0.515588 0.515571
0.515586 0.515588 0.515571
0.515586 0.515588 0.515571
0.515586 0.515588 0.515571
0.515586 0.515588 0.515571
0.515586 0.515588 0.515571
0.515586 0.515588 0.515571
0.515586 0.515588 0.515571
0.515586 0.515588 0.515571
0.515586 0.515588 0.515571
0.515586 0.515588 0.515571
0.515586 0.515588 0.515571
0.515586 0.515588 0.515571
0.515586 0.515588 0.515571
0.515586 0.515588 0.515571
0.515586 0.515588 0.515571
0.515586 0.515588 0.515571
0.515586 0.515588 0.515571
0.515586 0.515588 0.515571
0.515586 0.515588 0.515571
0.515586 0.515588 0.515571
0.515586 0.515588 0.515571
0.515586 0.515588 0.515571
0.515586 0.515588 0.515571
0.515586 0.515588 0.515571
0.515586 0.515588 0.515571
0.515586 0.515588 0.515571
0.515586 0.515588 0.515571
0.515586 0.515588 0.515571
0.515586 0.515588 0.515571
0.515586 0.515588 0.515571
0.515586 0.515588 0.515571
0.515586 0.515588 0.515571
0.515586 0.515588 0.515571
0.515586 0.515588 0.515571
0.515586 0.515588 0.515571
0.515586 0.515588 0.515571
0.515586 0.515588 0.515571
0.515586 0.515588 0.515571
0.515586 0.515588 0.515571
0.515586 0.515588 0.515571
0.515586 0.515588 0.515571
0.515586 0.515588 0.515571
0.515586 0.515588 0.515571
0.515586 0.515588 0.515571
0.515586 0.515588 0.515571
0.515586 0.515588 0.515571
0.515586 0.515588 0.515571
0.515586 0.515588 0.515571
0.515586 0.515588 0.515571
0.515586 0.515588 0.515571
0.515586 0.515588 0.515571
0.515586 0.515588 0.515571
0.515586 0.515588 0.515571
0.515586 0.515588 0.515571
0.515586 0.515588 0.515571
0.515586 0.515588 0.515571
0.515586 0.515588 0.515571
0.515586 0.515588 0.515571
0.515586 0.515588 0.515571
0.515586 0.515588 0.515571
0.515586 0.515588 0.515571
0.515586 0.515588 0.515571
0.515586 0.515588 0.515571
0.515586 0.515588 0.515571
0.515586 0.515588 0.515571
0.515586 0.515588 0.515571
0.515586 0.515588 0.515571
0.515586 0.515588 0.515571
0.515586 0.515588 0.515571
0.515586 0.515588 0.515571
0.515586 0.515588 0.515571
0.515586 0.515588 0.515571
0.515586 0.515588 0.515571
0.515586 0.515588 0.515571
0.515586 0.515588 0.515571
0.515586 0.515588 0.515571
0.515586 0.515588 0.515571
0.515586 0.515588 0.515571
0.515586 0.515588 0.515571
0.515586 0.515588 0.515571
0.515586 0.515588 0.515571
0.515586 0.515588 0.515571
0.515586 0.515588 0.515571
0.515586 0.515588 0.515571
0.515586 0.515588 0.515571
0.515586 0.515588 0.515571
0.515586 0.515588 0.515571
0.515586 0.515588 0.515571
0.515586 0.515588 0.515571
0.515586 0.515588 0.515571
0.515586 0.515588 0.515571
0.515586 0.515588 0.515571
0.515586 0.515588 0.515571
0.515586 0.515588 0.515571
0.515586 0.515588 0.515571
0.515586 0.515588 0.515571
0.515586 0.515588 0.515571
0.515586 0.515588 0.515571
0.515586 0.515588 0.515571
0.515586 0.515588 0.515571
0.515586 0.515588 0.515571
0.515586 0.515588 0.515571
0.515586 0.515588 0.515571
0.515586 0.515588 0.515571
0.515586 0.515588 0.515571
0.515586 0.515588 0.515571
0.515586 0.515588 0.515571
0.515586 0.515588 0.515571
0.515586 0.515588 0.515571
0.515586 0.515588 0.515571
0.515586 0.515588 0.515571
0.515586 0.515588 0.515571
0.515586 0.515588 0.515571
0.515586 0.515588 0.515571
0.515586 0.515588 0.515571
0.515586 0.515588 0.515571
0.515586 0.515588 0.515571
0.515586 0.515588 0.515571
0.515586 0.515588 0.515571
0.515586 0.515588 0.515571
0.515586 0.515588 0.515571
0.515586 0.515588 0.515571
0.515586 0.515588 0.515571
0.515586 0.515588 0.515571
0.515586 0.515588 0.515571
0.515586 0.515588 0.515571
0.515586 0.515588 0.515571
0.515586 0.515588 0.515571
0.515586 0.515588 0.515571
0.515586 0.515588 0.515571
0.515586 0.515588 0.515571
0.515586 0.515588 0.515571
0.515586 0.515588 0.515571
0.515586 0.515588 0.515571
0.515586 0.515588 0.515571
0.515586 0.515588 0.515571
0.515586 0.515588 0.515571
0.515586 0.515588 0.515571
0.515586 0.515588 0.515571
0.515586 0.515588 0.515571
0.515586 0.515588 0.515571
0.515586 0.515588 0.515571
0.515586 0.515588 0.515571
0.515586 0.515588 0.515571
0.515586 0.515588 0.515571
0.515586 0.515588 0.515571
0.515586 0.515588 0.515571
0.515586 0.515588 0.515571
0.515586 0.515588 0.515571
0.515586 0.515588 0.515571
0.515586 0.515588 0.515571
0.515586 0.515588 0.515571
0.515586 0.515588 0.515571
0.515586 0.515588 0.515571
0.515586 0.515588 0.515571
0.515586 0.515588 0.515571
0.515586 0.515588 0.515571
0.515586 0.515588 0.515571
0.515586 0.515588 0.515571
0.515586 0.515588 0.515571
0.515586 0.515588 0.515571
0.515586 0.515588 0.515571
0.515586 0.515588 0.515571
0.515586 0.515588 0.515571
0.515586 0.515588 0.515571
0.515586 0.515588 0.515571
0.515586 0.515588 0.515571
0.515586 0.515588 0.515571
0.515586 0.515588 0.515571
0.515586 0.515588 0.515571
0.515586 0.515588 0.515571
0.515586 0.515588 0.515571
0.515586 0.515588 0.515571
0.515586 0.515588 0.515571
0.515586 0.515588 0.515571
0.515586 0.515588 0.515571
0.515586 0.515588 0.515571
0.515586 0.515588 0.515571
0.515586 0.515588 0.515571
0.515586 0.515588 0.515571
0.515586 0.515588 0.515571
0.515586 0.515588 0.515571
0.515586 0.515588 0.515571
0.515586 0.515588 0.515571
0.515586 0.515588 0.515571
0.515586 0.515588 0.515571
0.515586 0.515588 0.515571
0.515586 0.515588 0.515571
0.515586 0.515588 0.515571
0.515586 0.515588 0.515571
0.515586 0.515588 0.515571
0.515586 0.515588 0.515571
0.515586 0.515588 0.515571
0.515586 0.515588 0.515571
0.515586 0.515588 0.515571
0.515586 0.515588 0.515571
0.515586 0.515588 0.515571
0.515586 0.515588 0.515571
0.515586 0.515588 0.515571
0.515586 0.515588 0.515571
0.515586 0.515588 0.515571
0.515586 0.515588 0.515571
0.515586 0.515588 0.515571
0.515586 0.515588 0.515571
0.515586 0.515588 0.515571
0.515586 0.515588 0.515571
0.515586 0.515588 0.515571
0.515586 0.515588 0.515571
0.515586 0.515588 0.515571
0.515586 0.515588 0.515571
0.515586 0.515588 0.515571
0.515586 0.515588 0.515571
0.515586 0.515588 0.515571
0.515586 0.515588 0.515571
0.515586 0.515588 0.515571
0.515586 0.515588 0.515571
0.515586 0.515588 0.515571
0.515586 0.515588 0.515571
0.515586 0.515588 0.515571
0.515586 0.515588 0.515571
0.515586 0.515588 0.515571
0.515586 0.515588 0.515571
0.515586 0.515588 0.515571
0.515586 0.515588 0.515571
0.515586 0.515588 0.515571
0.515586 0.515588 0.515571
0.515586 0.515588 0.515571
0.515586 0.515588 0.515571
0.515586 0.515588 0.515571
0.515586 0.515588 0.515571
0.515586 0.515588 0.515571
0.515586 0.515588 0.515571
0.515586 0.515588 0.515571
0.515586 0.515588 0.515571
0.515586 0.515588 0.515571
0.515586 0.515588 0.515571
0.515586 0.515588 0.515571
0.515586 0.515588 0.515571
0.515586 0.515588 0.515571
