DaVinci Resolve/ACES Transforms/ODT/ACES2 Candidates rev003/ACES2 CandidateC rev003 Rec709.cube
TITLE "Generated by Foundry::LUT"
LUT_3D_SIZE 7
DOMAIN_MIN 0.000000 0.000000 0.000000
DOMAIN_MAX 0.888889 0.888889 0.888889
0.738535 0.738512 0.738458
0.738535 0.738512 0.738458
0.738535 0.738512 0.738458
0.738535 0.738512 0.738458
0.738535 0.738512 0.738458
0.738535 0.738512 0.738458
0.738535 0.738512 0.738458
0.738535 0.738512 0.738458
0.738535 0.738512 0.738458
0.738535 0.738512 0.738458
0.738535 0.738512 0.738458
0.738535 0.738512 0.738458
0.738535 0.738512 0.738458
0.738535 0.738512 0.738458
0.738535 0.738512 0.738458
0.738535 0.738512 0.738458
0.738535 0.738512 0.738458
0.738535 0.738512 0.738458
0.738535 0.738512 0.738458
0.738535 0.738512 0.738458
0.738535 0.738512 0.738458
0.738535 0.738512 0.738458
0.738535 0.738512 0.738458
0.738535 0.738512 0.738458
0.738535 0.738512 0.738458
0.738535 0.738512 0.738458
0.738535 0.738512 0.738458
0.738535 0.738512 0.738458
0.738535 0.738512 0.738458
0.738535 0.738512 0.738458
0.738535 0.738512 0.738458
0.738535 0.738512 0.738458
0.738535 0.738512 0.738458
0.738535 0.738512 0.738458
0.738535 0.738512 0.738458
0.738535 0.738512 0.738458
0.738535 0.738512 0.738458
0.738535 0.738512 0.738458
0.738535 0.738512 0.738458
0.738535 0.738512 0.738458
0.738535 0.738512 0.738458
0.738535 0.738512 0.738458
0.738535 0.738512 0.738458
0.738535 0.738512 0.738458
0.738535 0.738512 0.738458
0.738535 0.738512 0.738458
0.738535 0.738512 0.738458
0.738535 0.738512 0.738458
0.738535 0.738512 0.738458
0.738535 0.738512 0.738458
0.738535 0.738512 0.738458
0.738535 0.738512 0.738458
0.738535 0.738512 0.738458
0.738535 0.738512 0.738458
0.738535 0.738512 0.738458
0.738535 0.738512 0.738458
0.738535 0.738512 0.738458
0.738535 0.738512 0.738458
0.738535 0.738512 0.738458
0.738535 0.738512 0.738458
0.738535 0.738512 0.738458
0.738535 0.738512 0.738458
0.738535 0.738512 0.738458
0.738535 0.738512 0.738458
0.738535 0.738512 0.738458
0.738535 0.738512 0.738458
0.738535 0.738512 0.738458
0.738535 0.738512 0.738458
0.738535 0.738512 0.738458
0.738535 0.738512 0.738458
0.738535 0.738512 0.738458
0.738535 0.738512 0.738458
0.738535 0.738512 0.738458
0.738535 0.738512 0.738458
0.738535 0.738512 0.738458
0.738535 0.738512 0.738458
0.738535 0.738512 0.738458
0.738535 0.738512 0.738458
0.738535 0.738512 0.738458
0.738535 0.738512 0.738458
0.738535 0.738512 0.738458
0.738535 0.738512 0.738458
0.738535 0.738512 0.738458
0.738535 0.738512 0.738458
0.738535 0.738512 0.738458
0.738535 0.738512 0.738458
0.738535 0.738512 0.738458
0.738535 0.738512 0.738458
0.738535 0.738512 0.738458
0.738535 0.738512 0.738458
0.738535 0.738512 0.738458
0.738535 0.738512 0.738458
0.738535 0.738512 0.738458
0.738535 0.738512 0.738458
0.738535 0.738512 0.738458
0.738535 0.738512 0.738458
0.738535 0.738512 0.738458
0.738535 0.738512 0.738458
0.738535 0.738512 0.738458
0.738535 0.738512 0.738458
0.738535 0.738512 0.738458
0.738535 0.738512 0.738458
0.738535 0.738512 0.738458
0.738535 0.738512 0.738458
0.738535 0.738512 0.738458
0.738535 0.738512 0.738458
0.738535 0.738512 0.738458
0.738535 0.738512 0.738458
0.738535 0.738512 0.738458
0.738535 0.738512 0.738458
0.738535 0.738512 0.738458
0.738535 0.738512 0.738458
0.738535 0.738512 0.738458
0.738535 0.738512 0.738458
0.738535 0.738512 0.738458
0.738535 0.738512 0.738458
0.738535 0.738512 0.738458
0.738535 0.738512 0.738458
0.738535 0.738512 0.738458
0.738535 0.738512 0.738458
0.738535 0.738512 0.738458
0.738535 0.738512 0.738458
0.738535 0.738512 0.738458
0.738535 0.738512 0.738458
0.738535 0.738512 0.738458
0.738535 0.738512 0.738458
0.738535 0.738512 0.738458
0.738535 0.738512 0.738458
0.738535 0.738512 0.738458
0.738535 0.738512 0.738458
0.738535 0.738512 0.738458
0.738535 0.738512 0.738458
0.738535 0.738512 0.738458
0.738535 0.738512 0.738458
0.738535 0.738512 0.738458
0.738535 0.738512 0.738458
0.738535 0.738512 0.738458
0.738535 0.738512 0.738458
0.738535 0.738512 0.738458
0.738535 0.738512 0.738458
0.738535 0.738512 0.738458
0.738535 0.738512 0.738458
0.738535 0.738512 0.738458
0.738535 0.738512 0.738458
0.738535 0.738512 0.738458
0.738535 0.738512 0.738458
0.738535 0.738512 0.738458
0.738535 0.738512 0.738458
0.738535 0.738512 0.738458
0.738535 0.738512 0.738458
0.738535 0.738512 0.738458
0.738535 0.738512 0.738458
0.738535 0.738512 0.738458
0.738535 0.738512 0.738458
0.738535 0.738512 0.738458
0.738535 0.738512 0.738458
0.738535 0.738512 0.738458
0.738535 0.738512 0.738458
0.738535 0.738512 0.738458
0.738535 0.738512 0.738458
0.738535 0.738512 0.738458
0.738535 0.738512 0.738458
0.738535 0.738512 0.738458
0.738535 0.738512 0.738458
0.738535 0.738512 0.738458
0.738535 0.738512 0.738458
0.738535 0.738512 0.738458
0.738535 0.738512 0.738458
0.738535 0.738512 0.738458
0.738535 0.738512 0.738458
0.738535 0.738512 0.738458
0.738535 0.738512 0.738458
0.738535 0.738512 0.738458
0.738535 0.738512 0.738458
0.738535 0.738512 0.738458
0.738535 0.738512 0.738458
0.738535 0.738512 0.738458
0.738535 0.738512 0.738458
0.738535 0.738512 0.738458
0.738535 0.738512 0.738458
0.738535 0.738512 0.738458
0.738535 0.738512 0.738458
0.738535 0.738512 0.738458
0.738535 0.738512 0.738458
0.738535 0.738512 0.738458
0.738535 0.738512 0.738458
0.738535 0.738512 0.738458
0.738535 0.738512 0.738458
0.738535 0.738512 0.738458
0.738535 0.738512 0.738458
0.738535 0.738512 0.738458
0.738535 0.738512 0.738458
0.738535 0.738512 0.738458
0.738535 0.738512 0.738458
0.738535 0.738512 0.738458
0.738535 0.738512 0.738458
0.738535 0.738512 0.738458
0.738535 0.738512 0.738458
0.738535 0.738512 0.738458
0.738535 0.738512 0.738458
0.738535 0.738512 0.738458
0.738535 0.738512 0.738458
0.738535 0.738512 0.738458
0.738535 0.738512 0.738458
0.738535 0.738512 0.738458
0.738535 0.738512 0.738458
0.738535 0.738512 0.738458
0.738535 0.738512 0.738458
0.738535 0.738512 0.738458
0.738535 0.738512 0.738458
0.738535 0.738512 0.738458
0.738535 0.738512 0.738458
0.738535 0.738512 0.738458
0.738535 0.738512 0.738458
0.738535 0.738512 0.738458
0.738535 0.738512 0.738458
0.738535 0.738512 0.738458
0.738535 0.738512 0.738458
0.738535 0.738512 0.738458
0.738535 0.738512 0.738458
0.738535 0.738512 0.738458
0.738535 0.738512 0.738458
0.738535 0.738512 0.738458
0.738535 0.738512 0.738458
0.738535 0.738512 0.738458
0.738535 0.738512 0.738458
0.738535 0.738512 0.738458
0.738535 0.738512 0.738458
0.738535 0.738512 0.738458
0.738535 0.738512 0.738458
0.738535 0.738512 0.738458
0.738535 0.738512 0.738458
0.738535 0.738512 0.738458
0.738535 0.738512 0.738458
0.738535 0.738512 0.738458
0.738535 0.738512 0.738458
0.738535 0.738512 0.738458
0.738535 0.738512 0.738458
0.738535 0.738512 0.738458
0.738535 0.738512 0.738458
0.738535 0.738512 0.738458
0.738535 0.738512 0.738458
0.738535 0.738512 0.738458
0.738535 0.738512 0.738458
0.738535 0.738512 0.738458
0.738535 0.738512 0.738458
0.738535 0.738512 0.738458
0.738535 0.738512 0.738458
0.738535 0.738512 0.738458
0.738535 0.738512 0.738458
0.738535 0.738512 0.738458
0.738535 0.738512 0.738458
0.738535 0.738512 0.738458
0.738535 0.738512 0.738458
0.738535 0.738512 0.738458
0.738535 0.738512 0.738458
0.738535 0.738512 0.738458
0.738535 0.738512 0.738458
0.738535 0.738512 0.738458
0.738535 0.738512 0.738458
0.738535 0.738512 0.738458
0.738535 0.738512 0.738458
0.738535 0.738512 0.738458
0.738535 0.738512 0.738458
0.738535 0.738512 0.738458
0.738535 0.738512 0.738458
0.738535 0.738512 0.738458
0.738535 0.738512 0.738458
0.738535 0.738512 0.738458
0.738535 0.738512 0.738458
0.738535 0.738512 0.738458
0.738535 0.738512 0.738458
0.738535 0.738512 0.738458
0.738535 0.738512 0.738458
0.738535 0.738512 0.738458
0.738535 0.738512 0.738458
0.738535 0.738512 0.738458
0.738535 0.738512 0.738458
0.738535 0.738512 0.738458
0.738535 0.738512 0.738458
0.738535 0.738512 0.738458
0.738535 0.738512 0.738458
0.738535 0.738512 0.738458
0.738535 0.738512 0.738458
0.738535 0.738512 0.738458
0.738535 0.738512 0.738458
0.738535 0.738512 0.738458
0.738535 0.738512 0.738458
0.738535 0.738512 0.738458
0.738535 0.738512 0.738458
0.738535 0.738512 0.738458
0.738535 0.738512 0.738458
0.738535 0.738512 0.738458
0.738535 0.738512 0.738458
0.738535 0.738512 0.738458
0.738535 0.738512 0.738458
0.738535 0.738512 0.738458
0.738535 0.738512 0.738458
0.738535 0.738512 0.738458
0.738535 0.738512 0.738458
0.738535 0.738512 0.738458
0.738535 0.738512 0.738458
0.738535 0.738512 0.738458
0.738535 0.738512 0.738458
0.738535 0.738512 0.738458
0.738535 0.738512 0.738458
0.738535 0.738512 0.738458
0.738535 0.738512 0.738458
0.738535 0.738512 0.738458
0.738535 0.738512 0.738458
0.738535 0.738512 0.738458
0.738535 0.738512 0.738458
0.738535 0.738512 0.738458
0.738535 0.738512 0.738458
0.738535 0.738512 0.738458
0.738535 0.738512 0.738458
0.738535 0.738512 0.738458
0.738535 0.738512 0.738458
0.738535 0.738512 0.738458
0.738535 0.738512 0.738458
0.738535 0.738512 0.738458
0.738535 0.738512 0.738458
0.738535 0.738512 0.738458
0.738535 0.738512 0.738458
0.738535 0.738512 0.738458
0.738535 0.738512 0.738458
0.738535 0.738512 0.738458
0.738535 0.738512 0.738458
0.738535 0.738512 0.738458
0.738535 0.738512 0.738458
0.738535 0.738512 0.738458
0.738535 0.738512 0.738458
0.738535 0.738512 0.738458
0.738535 0.738512 0.738458
0.738535 0.738512 0.738458
0.738535 0.738512 0.738458
0.738535 0.738512 0.738458
0.738535 0.738512 0.738458
0.738535 0.738512 0.738458
0.738535 0.738512 0.738458
0.738535 0.738512 0.738458
0.738535 0.738512 0.738458
0.738535 0.738512 0.738458
