DaVinci Resolve/ACES Transforms/ODT/ACES2 Candidates rev003/ACES2 CandidateC rev003 Rec2100.cube
TITLE "Generated by Foundry::LUT"
LUT_3D_SIZE 7
DOMAIN_MIN 0.000000 0.000000 0.000000
DOMAIN_MAX 0.888889 0.888889 0.888889
0.487609 0.487646 0.487635
0.487609 0.487646 0.487635
0.487609 0.487646 0.487635
0.487609 0.487646 0.487635
0.487609 0.487646 0.487635
0.487609 0.487646 0.487635
0.487609 0.487646 0.487635
0.487609 0.487646 0.487635
0.487609 0.487646 0.487635
0.487609 0.487646 0.487635
0.487609 0.487646 0.487635
0.487609 0.487646 0.487635
0.487609 0.487646 0.487635
0.487609 0.487646 0.487635
0.487609 0.487646 0.487635
0.487609 0.487646 0.487635
0.487609 0.487646 0.487635
0.487609 0.487646 0.487635
0.487609 0.487646 0.487635
0.487609 0.487646 0.487635
0.487609 0.487646 0.487635
0.487609 0.487646 0.487635
0.487609 0.487646 0.487635
0.487609 0.487646 0.487635
0.487609 0.487646 0.487635
0.487609 0.487646 0.487635
0.487609 0.487646 0.487635
0.487609 0.487646 0.487635
0.487609 0.487646 0.487635
0.487609 0.487646 0.487635
0.487609 0.487646 0.487635
0.487609 0.487646 0.487635
0.487609 0.487646 0.487635
0.487609 0.487646 0.487635
0.487609 0.487646 0.487635
0.487609 0.487646 0.487635
0.487609 0.487646 0.487635
0.487609 0.487646 0.487635
0.487609 0.487646 0.487635
0.487609 0.487646 0.487635
0.487609 0.487646 0.487635
0.487609 0.487646 0.487635
0.487609 0.487646 0.487635
0.487609 0.487646 0.487635
0.487609 0.487646 0.487635
0.487609 0.487646 0.487635
0.487609 0.487646 0.487635
0.487609 0.487646 0.487635
0.487609 0.487646 0.487635
0.487609 0.487646 0.487635
0.487609 0.487646 0.487635
0.487609 0.487646 0.487635
0.487609 0.487646 0.487635
0.487609 0.487646 0.487635
0.487609 0.487646 0.487635
0.487609 0.487646 0.487635
0.487609 0.487646 0.487635
0.487609 0.487646 0.487635
0.487609 0.487646 0.487635
0.487609 0.487646 0.487635
0.487609 0.487646 0.487635
0.487609 0.487646 0.487635
0.487609 0.487646 0.487635
0.487609 0.487646 0.487635
0.487609 0.487646 0.487635
0.487609 0.487646 0.487635
0.487609 0.487646 0.487635
0.487609 0.487646 0.487635
0.487609 0.487646 0.487635
0.487609 0.487646 0.487635
0.487609 0.487646 0.487635
0.487609 0.487646 0.487635
0.487609 0.487646 0.487635
0.487609 0.487646 0.487635
0.487609 0.487646 0.487635
0.487609 0.487646 0.487635
0.487609 0.487646 0.487635
0.487609 0.487646 0.487635
0.487609 0.487646 0.487635
0.487609 0.487646 0.487635
0.487609 0.487646 0.487635
0.487609 0.487646 0.487635
0.487609 0.487646 0.487635
0.487609 0.487646 0.487635
0.487609 0.487646 0.487635
0.487609 0.487646 0.487635
0.487609 0.487646 0.487635
0.487609 0.487646 0.487635
0.487609 0.487646 0.487635
0.487609 0.487646 0.487635
0.487609 0.487646 0.487635
0.487609 0.487646 0.487635
0.487609 0.487646 0.487635
0.487609 0.487646 0.487635
0.487609 0.487646 0.487635
0.487609 0.487646 0.487635
0.487609 0.487646 0.487635
0.487609 0.487646 0.487635
0.487609 0.487646 0.487635
0.487609 0.487646 0.487635
0.487609 0.487646 0.487635
0.487609 0.487646 0.487635
0.487609 0.487646 0.487635
0.487609 0.487646 0.487635
0.487609 0.487646 0.487635
0.487609 0.487646 0.487635
0.487609 0.487646 0.487635
0.487609 0.487646 0.487635
0.487609 0.487646 0.487635
0.487609 0.487646 0.487635
0.487609 0.487646 0.487635
0.487609 0.487646 0.487635
0.487609 0.487646 0.487635
0.487609 0.487646 0.487635
0.487609 0.487646 0.487635
0.487609 0.487646 0.487635
0.487609 0.487646 0.487635
0.487609 0.487646 0.487635
0.487609 0.487646 0.487635
0.487609 0.487646 0.487635
0.487609 0.487646 0.487635
0.487609 0.487646 0.487635
0.487609 0.487646 0.487635
0.487609 0.487646 0.487635
0.487609 0.487646 0.487635
0.487609 0.487646 0.487635
0.487609 0.487646 0.487635
0.487609 0.487646 0.487635
0.487609 0.487646 0.487635
0.487609 0.487646 0.487635
0.487609 0.487646 0.487635
0.487609 0.487646 0.487635
0.487609 0.487646 0.487635
0.487609 0.487646 0.487635
0.487609 0.487646 0.487635
0.487609 0.487646 0.487635
0.487609 0.487646 0.487635
0.487609 0.487646 0.487635
0.487609 0.487646 0.487635
0.487609 0.487646 0.487635
0.487609 0.487646 0.487635
0.487609 0.487646 0.487635
0.487609 0.487646 0.487635
0.487609 0.487646 0.487635
0.487609 0.487646 0.487635
0.487609 0.487646 0.487635
0.487609 0.487646 0.487635
0.487609 0.487646 0.487635
0.487609 0.487646 0.487635
0.487609 0.487646 0.487635
0.487609 0.487646 0.487635
0.487609 0.487646 0.487635
0.487609 0.487646 0.487635
0.487609 0.487646 0.487635
0.487609 0.487646 0.487635
0.487609 0.487646 0.487635
0.487609 0.487646 0.487635
0.487609 0.487646 0.487635
0.487609 0.487646 0.487635
0.487609 0.487646 0.487635
0.487609 0.487646 0.487635
0.487609 0.487646 0.487635
0.487609 0.487646 0.487635
0.487609 0.487646 0.487635
0.487609 0.487646 0.487635
0.487609 0.487646 0.487635
0.487609 0.487646 0.487635
0.487609 0.487646 0.487635
0.487609 0.487646 0.487635
0.487609 0.487646 0.487635
0.487609 0.487646 0.487635
0.487609 0.487646 0.487635
0.487609 0.487646 0.487635
0.487609 0.487646 0.487635
0.487609 0.487646 0.487635
0.487609 0.487646 0.487635
0.487609 0.487646 0.487635
0.487609 0.487646 0.487635
0.487609 0.487646 0.487635
0.487609 0.487646 0.487635
0.487609 0.487646 0.487635
0.487609 0.487646 0.487635
0.487609 0.487646 0.487635
0.487609 0.487646 0.487635
0.487609 0.487646 0.487635
0.487609 0.487646 0.487635
0.487609 0.487646 0.487635
0.487609 0.487646 0.487635
0.487609 0.487646 0.487635
0.487609 0.487646 0.487635
0.487609 0.487646 0.487635
0.487609 0.487646 0.487635
0.487609 0.487646 0.487635
0.487609 0.487646 0.487635
0.487609 0.487646 0.487635
0.487609 0.487646 0.487635
0.487609 0.487646 0.487635
0.487609 0.487646 0.487635
0.487609 0.487646 0.487635
0.487609 0.487646 0.487635
0.487609 0.487646 0.487635
0.487609 0.487646 0.487635
0.487609 0.487646 0.487635
0.487609 0.487646 0.487635
0.487609 0.487646 0.487635
0.487609 0.487646 0.487635
0.487609 0.487646 0.487635
0.487609 0.487646 0.487635
0.487609 0.487646 0.487635
0.487609 0.487646 0.487635
0.487609 0.487646 0.487635
0.487609 0.487646 0.487635
0.487609 0.487646 0.487635
0.487609 0.487646 0.487635
0.487609 0.487646 0.487635
0.487609 0.487646 0.487635
0.487609 0.487646 0.487635
0.487609 0.487646 0.487635
0.487609 0.487646 0.487635
0.487609 0.487646 0.487635
0.487609 0.487646 0.487635
0.487609 0.487646 0.487635
0.487609 0.487646 0.487635
0.487609 0.487646 0.487635
0.487609 0.487646 0.487635
0.487609 0.487646 0.487635
0.487609 0.487646 0.487635
0.487609 0.487646 0.487635
0.487609 0.487646 0.487635
0.487609 0.487646 0.487635
0.487609 0.487646 0.487635
0.487609 0.487646 0.487635
0.487609 0.487646 0.487635
0.487609 0.487646 0.487635
0.487609 0.487646 0.487635
0.487609 0.487646 0.487635
0.487609 0.487646 0.487635
0.487609 0.487646 0.487635
0.487609 0.487646 0.487635
0.487609 0.487646 0.487635
0.487609 0.487646 0.487635
0.487609 0.487646 0.487635
0.487609 0.487646 0.487635
0.487609 0.487646 0.487635
0.487609 0.487646 0.487635
0.487609 0.487646 0.487635
0.487609 0.487646 0.487635
0.487609 0.487646 0.487635
0.487609 0.487646 0.487635
0.487609 0.487646 0.487635
0.487609 0.487646 0.487635
0.487609 0.487646 0.487635
0.487609 0.487646 0.487635
0.487609 0.487646 0.487635
0.487609 0.487646 0.487635
0.487609 0.487646 0.487635
0.487609 0.487646 0.487635
0.487609 0.487646 0.487635
0.487609 0.487646 0.487635
0.487609 0.487646 0.487635
0.487609 0.487646 0.487635
0.487609 0.487646 0.487635
0.487609 0.487646 0.487635
0.487609 0.487646 0.487635
0.487609 0.487646 0.487635
0.487609 0.487646 0.487635
0.487609 0.487646 0.487635
0.487609 0.487646 0.487635
0.487609 0.487646 0.487635
0.487609 0.487646 0.487635
0.487609 0.487646 0.487635
0.487609 0.487646 0.487635
0.487609 0.487646 0.487635
0.487609 0.487646 0.487635
0.487609 0.487646 0.487635
0.487609 0.487646 0.487635
0.487609 0.487646 0.487635
0.487609 0.487646 0.487635
0.487609 0.487646 0.487635
0.487609 0.487646 0.487635
0.487609 0.487646 0.487635
0.487609 0.487646 0.487635
0.487609 0.487646 0.487635
0.487609 0.487646 0.487635
0.487609 0.487646 0.487635
0.487609 0.487646 0.487635
0.487609 0.487646 0.487635
0.487609 0.487646 0.487635
0.487609 0.487646 0.487635
0.487609 0.487646 0.487635
0.487609 0.487646 0.487635
0.487609 0.487646 0.487635
0.487609 0.487646 0.487635
0.487609 0.487646 0.487635
0.487609 0.487646 0.487635
0.487609 0.487646 0.487635
0.487609 0.487646 0.487635
0.487609 0.487646 0.487635
0.487609 0.487646 0.487635
0.487609 0.487646 0.487635
0.487609 0.487646 0.487635
0.487609 0.487646 0.487635
0.487609 0.487646 0.487635
0.487609 0.487646 0.487635
0.487609 0.487646 0.487635
0.487609 0.487646 0.487635
0.487609 0.487646 0.487635
0.487609 0.487646 0.487635
0.487609 0.487646 0.487635
0.487609 0.487646 0.487635
0.487609 0.487646 0.487635
0.487609 0.487646 0.487635
0.487609 0.487646 0.487635
0.487609 0.487646 0.487635
0.487609 0.487646 0.487635
0.487609 0.487646 0.487635
0.487609 0.487646 0.487635
0.487609 0.487646 0.487635
0.487609 0.487646 0.487635
0.487609 0.487646 0.487635
0.487609 0.487646 0.487635
0.487609 0.487646 0.487635
0.487609 0.487646 0.487635
0.487609 0.487646 0.487635
0.487609 0.487646 0.487635
0.487609 0.487646 0.487635
0.487609 0.487646 0.487635
0.487609 0.487646 0.487635
0.487609 0.487646 0.487635
0.487609 0.487646 0.487635
0.487609 0.487646 0.487635
0.487609 0.487646 0.487635
0.487609 0.487646 0.487635
0.487609 0.487646 0.487635
0.487609 0.487646 0.487635
0.487609 0.487646 0.487635
0.487609 0.487646 0.487635
0.487609 0.487646 0.487635
0.487609 0.487646 0.487635
0.487609 0.487646 0.487635
0.487609 0.487646 0.487635
0.487609 0.487646 0.487635
0.487609 0.487646 0.487635
