DaVinci Resolve/ACES Transforms/ODT/ACES2 Candidates rev003/ACES2 CandidateB rev003 Rec709.cube
TITLE "Generated by Foundry::LUT"
LUT_3D_SIZE 28
0.749679 0.749674 0.749653
0.749679 0.749674 0.749653
0.749679 0.749674 0.749653
0.749679 0.749674 0.749653
0.749679 0.749674 0.749653
0.749679 0.749674 0.749653
0.749679 0.749674 0.749653
0.749679 0.749674 0.749653
0.749679 0.749674 0.749653
0.749679 0.749674 0.749653
0.749679 0.749674 0.749653
0.749679 0.749674 0.749653
0.749679 0.749674 0.749653
0.749679 0.749674 0.749653
0.749679 0.749674 0.749653
0.749679 0.749674 0.749653
0.749679 0.749674 0.749653
0.749679 0.749674 0.749653
0.749679 0.749674 0.749653
0.749679 0.749674 0.749653
0.749679 0.749674 0.749653
0.749679 0.749674 0.749653
0.749679 0.749674 0.749653
0.749679 0.749674 0.749653
0.749679 0.749674 0.749653
0.749679 0.749674 0.749653
0.749679 0.749674 0.749653
0.749679 0.749674 0.749653
0.749679 0.749674 0.749653
0.749679 0.749674 0.749653
0.749679 0.749674 0.749653
0.749679 0.749674 0.749653
0.749679 0.749674 0.749653
0.749679 0.749674 0.749653
0.749679 0.749674 0.749653
0.749679 0.749674 0.749653
0.749679 0.749674 0.749653
0.749679 0.749674 0.749653
0.749679 0.749674 0.749653
0.749679 0.749674 0.749653
0.749679 0.749674 0.749653
0.749679 0.749674 0.749653
0.749679 0.749674 0.749653
0.749679 0.749674 0.749653
0.749679 0.749674 0.749653
0.749679 0.749674 0.749653
0.749679 0.749674 0.749653
0.749679 0.749674 0.749653
0.749679 0.749674 0.749653
0.749679 0.749674 0.749653
0.749679 0.749674 0.749653
0.749679 0.749674 0.749653
0.749679 0.749674 0.749653
0.749679 0.749674 0.749653
0.749679 0.749674 0.749653
0.749679 0.749674 0.749653
0.749679 0.749674 0.749653
0.749679 0.749674 0.749653
0.749679 0.749674 0.749653
0.749679 0.749674 0.749653
0.749679 0.749674 0.749653
0.749679 0.749674 0.749653
0.749679 0.749674 0.749653
0.749679 0.749674 0.749653
0.749679 0.749674 0.749653
0.749679 0.749674 0.749653
0.749679 0.749674 0.749653
0.749679 0.749674 0.749653
0.749679 0.749674 0.749653
0.749679 0.749674 0.749653
0.749679 0.749674 0.749653
0.749679 0.749674 0.749653
0.749679 0.749674 0.749653
0.749679 0.749674 0.749653
0.749679 0.749674 0.749653
0.749679 0.749674 0.749653
0.749679 0.749674 0.749653
0.749679 0.749674 0.749653
0.749679 0.749674 0.749653
0.749679 0.749674 0.749653
0.749679 0.749674 0.749653
0.749679 0.749674 0.749653
0.749679 0.749674 0.749653
0.749679 0.749674 0.749653
0.749679 0.749674 0.749653
0.749679 0.749674 0.749653
0.749679 0.749674 0.749653
0.749679 0.749674 0.749653
0.749679 0.749674 0.749653
0.749679 0.749674 0.749653
0.749679 0.749674 0.749653
0.749679 0.749674 0.749653
0.749679 0.749674 0.749653
0.749679 0.749674 0.749653
0.749679 0.749674 0.749653
0.749679 0.749674 0.749653
0.749679 0.749674 0.749653
0.749679 0.749674 0.749653
0.749679 0.749674 0.749653
0.749679 0.749674 0.749653
0.749679 0.749674 0.749653
0.749679 0.749674 0.749653
0.749679 0.749674 0.749653
0.749679 0.749674 0.749653
0.749679 0.749674 0.749653
0.749679 0.749674 0.749653
0.749679 0.749674 0.749653
0.749679 0.749674 0.749653
0.749679 0.749674 0.749653
0.749679 0.749674 0.749653
0.749679 0.749674 0.749653
0.749679 0.749674 0.749653
0.749679 0.749674 0.749653
0.749679 0.749674 0.749653
0.749679 0.749674 0.749653
0.749679 0.749674 0.749653
0.749679 0.749674 0.749653
0.749679 0.749674 0.749653
0.749679 0.749674 0.749653
0.749679 0.749674 0.749653
0.749679 0.749674 0.749653
0.749679 0.749674 0.749653
0.749679 0.749674 0.749653
0.749679 0.749674 0.749653
0.749679 0.749674 0.749653
0.749679 0.749674 0.749653
0.749679 0.749674 0.749653
0.749679 0.749674 0.749653
0.749679 0.749674 0.749653
0.749679 0.749674 0.749653
0.749679 0.749674 0.749653
0.749679 0.749674 0.749653
0.749679 0.749674 0.749653
0.749679 0.749674 0.749653
0.749679 0.749674 0.749653
0.749679 0.749674 0.749653
0.749679 0.749674 0.749653
0.749679 0.749674 0.749653
0.749679 0.749674 0.749653
0.749679 0.749674 0.749653
0.749679 0.749674 0.749653
0.749679 0.749674 0.749653
0.749679 0.749674 0.749653
0.749679 0.749674 0.749653
0.749679 0.749674 0.749653
0.749679 0.749674 0.749653
0.749679 0.749674 0.749653
0.749679 0.749674 0.749653
0.749679 0.749674 0.749653
0.749679 0.749674 0.749653
0.749679 0.749674 0.749653
0.749679 0.749674 0.749653
0.749679 0.749674 0.749653
0.749679 0.749674 0.749653
0.749679 0.749674 0.749653
0.749679 0.749674 0.749653
0.749679 0.749674 0.749653
0.749679 0.749674 0.749653
0.749679 0.749674 0.749653
0.749679 0.749674 0.749653
0.749679 0.749674 0.749653
0.749679 0.749674 0.749653
0.749679 0.749674 0.749653
0.749679 0.749674 0.749653
0.749679 0.749674 0.749653
0.749679 0.749674 0.749653
0.749679 0.749674 0.749653
0.749679 0.749674 0.749653
0.749679 0.749674 0.749653
0.749679 0.749674 0.749653
0.749679 0.749674 0.749653
0.749679 0.749674 0.749653
0.749679 0.749674 0.749653
0.749679 0.749674 0.749653
0.749679 0.749674 0.749653
0.749679 0.749674 0.749653
0.749679 0.749674 0.749653
0.749679 0.749674 0.749653
0.749679 0.749674 0.749653
0.749679 0.749674 0.749653
0.749679 0.749674 0.749653
0.749679 0.749674 0.749653
0.749679 0.749674 0.749653
0.749679 0.749674 0.749653
0.749679 0.749674 0.749653
0.749679 0.749674 0.749653
0.749679 0.749674 0.749653
0.749679 0.749674 0.749653
0.749679 0.749674 0.749653
0.749679 0.749674 0.749653
0.749679 0.749674 0.749653
0.749679 0.749674 0.749653
0.749679 0.749674 0.749653
0.749679 0.749674 0.749653
0.749679 0.749674 0.749653
0.749679 0.749674 0.749653
0.749679 0.749674 0.749653
0.749679 0.749674 0.749653
0.749679 0.749674 0.749653
0.749679 0.749674 0.749653
0.749679 0.749674 0.749653
0.749679 0.749674 0.749653
0.749679 0.749674 0.749653
0.749679 0.749674 0.749653
0.749679 0.749674 0.749653
0.749679 0.749674 0.749653
0.749679 0.749674 0.749653
0.749679 0.749674 0.749653
0.749679 0.749674 0.749653
0.749679 0.749674 0.749653
0.749679 0.749674 0.749653
0.749679 0.749674 0.749653
0.749679 0.749674 0.749653
0.749679 0.749674 0.749653
0.749679 0.749674 0.749653
0.749679 0.749674 0.749653
0.749679 0.749674 0.749653
0.749679 0.749674 0.749653
0.749679 0.749674 0.749653
0.749679 0.749674 0.749653
0.749679 0.749674 0.749653
0.749679 0.749674 0.749653
0.749679 0.749674 0.749653
0.749679 0.749674 0.749653
0.749679 0.749674 0.749653
0.749679 0.749674 0.749653
0.749679 0.749674 0.749653
0.749679 0.749674 0.749653
0.749679 0.749674 0.749653
0.749679 0.749674 0.749653
0.749679 0.749674 0.749653
0.749679 0.749674 0.749653
0.749679 0.749674 0.749653
0.749679 0.749674 0.749653
0.749679 0.749674 0.749653
0.749679 0.749674 0.749653
0.749679 0.749674 0.749653
0.749679 0.749674 0.749653
0.749679 0.749674 0.749653
0.749679 0.749674 0.749653
0.749679 0.749674 0.749653
0.749679 0.749674 0.749653
0.749679 0.749674 0.749653
0.749679 0.749674 0.749653
0.749679 0.749674 0.749653
0.749679 0.749674 0.749653
0.749679 0.749674 0.749653
0.749679 0.749674 0.749653
0.749679 0.749674 0.749653
0.749679 0.749674 0.749653
0.749679 0.749674 0.749653
0.749679 0.749674 0.749653
0.749679 0.749674 0.749653
0.749679 0.749674 0.749653
0.749679 0.749674 0.749653
0.749679 0.749674 0.749653
0.749679 0.749674 0.749653
0.749679 0.749674 0.749653
0.749679 0.749674 0.749653
0.749679 0.749674 0.749653
0.749679 0.749674 0.749653
0.749679 0.749674 0.749653
0.749679 0.749674 0.749653
0.749679 0.749674 0.749653
0.749679 0.749674 0.749653
0.749679 0.749674 0.749653
0.749679 0.749674 0.749653
0.749679 0.749674 0.749653
0.749679 0.749674 0.749653
0.749679 0.749674 0.749653
0.749679 0.749674 0.749653
0.749679 0.749674 0.749653
0.749679 0.749674 0.749653
0.749679 0.749674 0.749653
0.749679 0.749674 0.749653
0.749679 0.749674 0.749653
0.749679 0.749674 0.749653
0.749679 0.749674 0.749653
0.749679 0.749674 0.749653
0.749679 0.749674 0.749653
0.749679 0.749674 0.749653
0.749679 0.749674 0.749653
0.749679 0.749674 0.749653
0.749679 0.749674 0.749653
0.749679 0.749674 0.749653
0.749679 0.749674 0.749653
0.749679 0.749674 0.749653
0.749679 0.749674 0.749653
0.749679 0.749674 0.749653
0.749679 0.749674 0.749653
0.749679 0.749674 0.749653
0.749679 0.749674 0.749653
0.749679 0.749674 0.749653
0.749679 0.749674 0.749653
0.749679 0.749674 0.749653
0.749679 0.749674 0.749653
0.749679 0.749674 0.749653
0.749679 0.749674 0.749653
0.749679 0.749674 0.749653
0.749679 0.749674 0.749653
0.749679 0.749674 0.749653
0.749679 0.749674 0.749653
0.749679 0.749674 0.749653
0.749679 0.749674 0.749653
0.749679 0.749674 0.749653
0.749679 0.749674 0.749653
0.749679 0.749674 0.749653
0.749679 0.749674 0.749653
0.749679 0.749674 0.749653
0.749679 0.749674 0.749653
0.749679 0.749674 0.749653
0.749679 0.749674 0.749653
0.749679 0.749674 0.749653
0.749679 0.749674 0.749653
0.749679 0.749674 0.749653
0.749679 0.749674 0.749653
0.749679 0.749674 0.749653
0.749679 0.749674 0.749653
0.749679 0.749674 0.749653
0.749679 0.749674 0.749653
0.749679 0.749674 0.749653
0.749679 0.749674 0.749653
0.749679 0.749674 0.749653
0.749679 0.749674 0.749653
0.749679 0.749674 0.749653
0.749679 0.749674 0.749653
0.749679 0.749674 0.749653
0.749679 0.749674 0.749653
0.749679 0.749674 0.749653
0.749679 0.749674 0.749653
0.749679 0.749674 0.749653
0.749679 0.749674 0.749653
0.749679 0.749674 0.749653
0.749679 0.749674 0.749653
0.749679 0.749674 0.749653
0.749679 0.749674 0.749653
0.749679 0.749674 0.749653
0.749679 0.749674 0.749653
0.749679 0.749674 0.749653
0.749679 0.749674 0.749653
0.749679 0.749674 0.749653
0.749679 0.749674 0.749653
0.749679 0.749674 0.749653
0.749679 0.749674 0.749653
0.749679 0.749674 0.749653
0.749679 0.749674 0.749653
0.749679 0.749674 0.749653
0.749679 0.749674 0.749653
0.749679 0.749674 0.749653
0.749679 0.749674 0.749653
0.749679 0.749674 0.749653
0.749679 0.749674 0.749653
0.749679 0.749674 0.749653
0.749679 0.749674 0.749653
0.749679 0.749674 0.749653
0.749679 0.749674 0.749653
0.749679 0.749674 0.749653
0.749679 0.749674 0.749653
0.749679 0.749674 0.749653
0.749679 0.749674 0.749653
0.749679 0.749674 0.749653
0.749679 0.749674 0.749653
0.749679 0.749674 0.749653
0.749679 0.749674 0.749653
0.749679 0.749674 0.749653
0.749679 0.749674 0.749653
0.749679 0.749674 0.749653
0.749679 0.749674 0.749653
0.749679 0.749674 0.749653
0.749679 0.749674 0.749653
0.749679 0.749674 0.749653
0.749679 0.749674 0.749653
0.749679 0.749674 0.749653
0.749679 0.749674 0.749653
0.749679 0.749674 0.749653
0.749679 0.749674 0.749653
0.749679 0.749674 0.749653
0.749679 0.749674 0.749653
0.749679 0.749674 0.749653
0.749679 0.749674 0.749653
0.749679 0.749674 0.749653
0.749679 0.749674 0.749653
0.749679 0.749674 0.749653
0.749679 0.749674 0.749653
0.749679 0.749674 0.749653
0.749679 0.749674 0.749653
0.749679 0.749674 0.749653
0.749679 0.749674 0.749653
0.749679 0.749674 0.749653
0.749679 0.749674 0.749653
0.749679 0.749674 0.749653
0.749679 0.749674 0.749653
0.749679 0.749674 0.749653
0.749679 0.749674 0.749653
0.749679 0.749674 0.749653
0.749679 0.749674 0.749653
0.749679 0.749674 0.749653
0.749679 0.749674 0.749653
0.749679 0.749674 0.749653
0.749679 0.749674 0.749653
0.749679 0.749674 0.749653
0.749679 0.749674 0.749653
0.749679 0.749674 0.749653
0.749679 0.749674 0.749653
0.749679 0.749674 0.749653
0.749679 0.749674 0.749653
0.749679 0.749674 0.749653
0.749679 0.749674 0.749653
0.749679 0.749674 0.749653
0.749679 0.749674 0.749653
0.749679 0.749674 0.749653
0.749679 0.749674 0.749653
0.749679 0.749674 0.749653
0.749679 0.749674 0.749653
0.749679 0.749674 0.749653
0.749679 0.749674 0.749653
0.749679 0.749674 0.749653
0.749679 0.749674 0.749653
0.749679 0.749674 0.749653
0.749679 0.749674 0.749653
0.749679 0.749674 0.749653
0.749679 0.749674 0.749653
0.749679 0.749674 0.749653
0.749679 0.749674 0.749653
0.749679 0.749674 0.749653
0.749679 0.749674 0.749653
0.749679 0.749674 0.749653
0.749679 0.749674 0.749653
0.749679 0.749674 0.749653
0.749679 0.749674 0.749653
0.749679 0.749674 0.749653
0.749679 0.749674 0.749653
0.749679 0.749674 0.749653
0.749679 0.749674 0.749653
0.749679 0.749674 0.749653
0.749679 0.749674 0.749653
0.749679 0.749674 0.749653
0.749679 0.749674 0.749653
0.749679 0.749674 0.749653
0.749679 0.749674 0.749653
0.749679 0.749674 0.749653
0.749679 0.749674 0.749653
0.749679 0.749674 0.749653
0.749679 0.749674 0.749653
0.749679 0.749674 0.749653
0.749679 0.749674 0.749653
0.749679 0.749674 0.749653
0.749679 0.749674 0.749653
0.749679 0.749674 0.749653
0.749679 0.749674 0.749653
0.749679 0.749674 0.749653
0.749679 0.749674 0.749653
0.749679 0.749674 0.749653
0.749679 0.749674 0.749653
0.749679 0.749674 0.749653
0.749679 0.749674 0.749653
0.749679 0.749674 0.749653
0.749679 0.749674 0.749653
0.749679 0.749674 0.749653
0.749679 0.749674 0.749653
0.749679 0.749674 0.749653
0.749679 0.749674 0.749653
0.749679 0.749674 0.749653
0.749679 0.749674 0.749653
0.749679 0.749674 0.749653
0.749679 0.749674 0.749653
0.749679 0.749674 0.749653
0.749679 0.749674 0.749653
0.749679 0.749674 0.749653
0.749679 0.749674 0.749653
0.749679 0.749674 0.749653
0.749679 0.749674 0.749653
0.749679 0.749674 0.749653
0.749679 0.749674 0.749653
0.749679 0.749674 0.749653
0.749679 0.749674 0.749653
0.749679 0.749674 0.749653
0.749679 0.749674 0.749653
0.749679 0.749674 0.749653
0.749679 0.749674 0.749653
0.749679 0.749674 0.749653
0.749679 0.749674 0.749653
0.749679 0.749674 0.749653
0.749679 0.749674 0.749653
0.749679 0.749674 0.749653
0.749679 0.749674 0.749653
0.749679 0.749674 0.749653
0.749679 0.749674 0.749653
0.749679 0.749674 0.749653
0.749679 0.749674 0.749653
0.749679 0.749674 0.749653
0.749679 0.749674 0.749653
0.749679 0.749674 0.749653
0.749679 0.749674 0.749653
0.749679 0.749674 0.749653
0.749679 0.749674 0.749653
0.749679 0.749674 0.749653
0.749679 0.749674 0.749653
0.749679 0.749674 0.749653
0.749679 0.749674 0.749653
0.749679 0.749674 0.749653
0.749679 0.749674 0.749653
0.749679 0.749674 0.749653
0.749679 0.749674 0.749653
0.749679 0.749674 0.749653
0.749679 0.749674 0.749653
0.749679 0.749674 0.749653
0.749679 0.749674 0.749653
0.749679 0.749674 0.749653
0.749679 0.749674 0.749653
0.749679 0.749674 0.749653
0.749679 0.749674 0.749653
0.749679 0.749674 0.749653
0.749679 0.749674 0.749653
0.749679 0.749674 0.749653
0.749679 0.749674 0.749653
0.749679 0.749674 0.749653
0.749679 0.749674 0.749653
0.749679 0.749674 0.749653
0.749679 0.749674 0.749653
0.749679 0.749674 0.749653
0.749679 0.749674 0.749653
0.749679 0.749674 0.749653
0.749679 0.749674 0.749653
0.749679 0.749674 0.749653
0.749679 0.749674 0.749653
0.749679 0.749674 0.749653
0.749679 0.749674 0.749653
0.749679 0.749674 0.749653
0.749679 0.749674 0.749653
0.749679 0.749674 0.749653
0.749679 0.749674 0.749653
0.749679 0.749674 0.749653
0.749679 0.749674 0.749653
0.749679 0.749674 0.749653
0.749679 0.749674 0.749653
0.749679 0.749674 0.749653
0.749679 0.749674 0.749653
0.749679 0.749674 0.749653
0.749679 0.749674 0.749653
0.749679 0.749674 0.749653
0.749679 0.749674 0.749653
0.749679 0.749674 0.749653
0.749679 0.749674 0.749653
0.749679 0.749674 0.749653
0.749679 0.749674 0.749653
0.749679 0.749674 0.749653
0.749679 0.749674 0.749653
0.749679 0.749674 0.749653
0.749679 0.749674 0.749653
0.749679 0.749674 0.749653
0.749679 0.749674 0.749653
0.749679 0.749674 0.749653
0.749679 0.749674 0.749653
0.749679 0.749674 0.749653
0.749679 0.749674 0.749653
0.749679 0.749674 0.749653
0.749679 0.749674 0.749653
0.749679 0.749674 0.749653
0.749679 0.749674 0.749653
0.749679 0.749674 0.749653
0.749679 0.749674 0.749653
0.749679 0.749674 0.749653
0.749679 0.749674 0.749653
0.749679 0.749674 0.749653
0.749679 0.749674 0.749653
0.749679 0.749674 0.749653
0.749679 0.749674 0.749653
0.749679 0.749674 0.749653
0.749679 0.749674 0.749653
0.749679 0.749674 0.749653
0.749679 0.749674 0.749653
0.749679 0.749674 0.749653
0.749679 0.749674 0.749653
0.749679 0.749674 0.749653
0.749679 0.749674 0.749653
0.749679 0.749674 0.749653
0.749679 0.749674 0.749653
0.749679 0.749674 0.749653
0.749679 0.749674 0.749653
0.749679 0.749674 0.749653
0.749679 0.749674 0.749653
0.749679 0.749674 0.749653
0.749679 0.749674 0.749653
0.749679 0.749674 0.749653
0.749679 0.749674 0.749653
0.749679 0.749674 0.749653
0.749679 0.749674 0.749653
0.749679 0.749674 0.749653
0.749679 0.749674 0.749653
0.749679 0.749674 0.749653
0.749679 0.749674 0.749653
0.749679 0.749674 0.749653
0.749679 0.749674 0.749653
0.749679 0.749674 0.749653
0.749679 0.749674 0.749653
0.749679 0.749674 0.749653
0.749679 0.749674 0.749653
0.749679 0.749674 0.749653
0.749679 0.749674 0.749653
0.749679 0.749674 0.749653
0.749679 0.749674 0.749653
0.749679 0.749674 0.749653
0.749679 0.749674 0.749653
0.749679 0.749674 0.749653
0.749679 0.749674 0.749653
0.749679 0.749674 0.749653
0.749679 0.749674 0.749653
0.749679 0.749674 0.749653
0.749679 0.749674 0.749653
0.749679 0.749674 0.749653
0.749679 0.749674 0.749653
0.749679 0.749674 0.749653
0.749679 0.749674 0.749653
0.749679 0.749674 0.749653
0.749679 0.749674 0.749653
0.749679 0.749674 0.749653
0.749679 0.749674 0.749653
0.749679 0.749674 0.749653
0.749679 0.749674 0.749653
0.749679 0.749674 0.749653
0.749679 0.749674 0.749653
0.749679 0.749674 0.749653
0.749679 0.749674 0.749653
0.749679 0.749674 0.749653
0.749679 0.749674 0.749653
0.749679 0.749674 0.749653
0.749679 0.749674 0.749653
0.749679 0.749674 0.749653
0.749679 0.749674 0.749653
0.749679 0.749674 0.749653
0.749679 0.749674 0.749653
0.749679 0.749674 0.749653
0.749679 0.749674 0.749653
0.749679 0.749674 0.749653
0.749679 0.749674 0.749653
0.749679 0.749674 0.749653
0.749679 0.749674 0.749653
0.749679 0.749674 0.749653
0.749679 0.749674 0.749653
0.749679 0.749674 0.749653
0.749679 0.749674 0.749653
0.749679 0.749674 0.749653
0.749679 0.749674 0.749653
0.749679 0.749674 0.749653
0.749679 0.749674 0.749653
0.749679 0.749674 0.749653
0.749679 0.749674 0.749653
0.749679 0.749674 0.749653
0.749679 0.749674 0.749653
0.749679 0.749674 0.749653
0.749679 0.749674 0.749653
0.749679 0.749674 0.749653
0.749679 0.749674 0.749653
0.749679 0.749674 0.749653
0.749679 0.749674 0.749653
0.749679 0.749674 0.749653
0.749679 0.749674 0.749653
0.749679 0.749674 0.749653
0.749679 0.749674 0.749653
0.749679 0.749674 0.749653
0.749679 0.749674 0.749653
0.749679 0.749674 0.749653
0.749679 0.749674 0.749653
0.749679 0.749674 0.749653
0.749679 0.749674 0.749653
0.749679 0.749674 0.749653
0.749679 0.749674 0.749653
0.749679 0.749674 0.749653
0.749679 0.749674 0.749653
0.749679 0.749674 0.749653
0.749679 0.749674 0.749653
0.749679 0.749674 0.749653
0.749679 0.749674 0.749653
0.749679 0.749674 0.749653
0.749679 0.749674 0.749653
0.749679 0.749674 0.749653
0.749679 0.749674 0.749653
0.749679 0.749674 0.749653
0.749679 0.749674 0.749653
0.749679 0.749674 0.749653
0.749679 0.749674 0.749653
0.749679 0.749674 0.749653
0.749679 0.749674 0.749653
0.749679 0.749674 0.749653
0.749679 0.749674 0.749653
0.749679 0.749674 0.749653
0.749679 0.749674 0.749653
0.749679 0.749674 0.749653
0.749679 0.749674 0.749653
0.749679 0.749674 0.749653
0.749679 0.749674 0.749653
0.749679 0.749674 0.749653
0.749679 0.749674 0.749653
0.749679 0.749674 0.749653
0.749679 0.749674 0.749653
0.749679 0.749674 0.749653
0.749679 0.749674 0.749653
0.749679 0.749674 0.749653
0.749679 0.749674 0.749653
0.749679 0.749674 0.749653
0.749679 0.749674 0.749653
0.749679 0.749674 0.749653
0.749679 0.749674 0.749653
0.749679 0.749674 0.749653
0.749679 0.749674 0.749653
0.749679 0.749674 0.749653
0.749679 0.749674 0.749653
0.749679 0.749674 0.749653
0.749679 0.749674 0.749653
0.749679 0.749674 0.749653
0.749679 0.749674 0.749653
0.749679 0.749674 0.749653
0.749679 0.749674 0.749653
0.749679 0.749674 0.749653
0.749679 0.749674 0.749653
0.749679 0.749674 0.749653
0.749679 0.749674 0.749653
0.749679 0.749674 0.749653
0.749679 0.749674 0.749653
0.749679 0.749674 0.749653
0.749679 0.749674 0.749653
0.749679 0.749674 0.749653
0.749679 0.749674 0.749653
0.749679 0.749674 0.749653
0.749679 0.749674 0.749653
0.749679 0.749674 0.749653
0.749679 0.749674 0.749653
0.749679 0.749674 0.749653
0.749679 0.749674 0.749653
0.749679 0.749674 0.749653
0.749679 0.749674 0.749653
0.749679 0.749674 0.749653
0.749679 0.749674 0.749653
0.749679 0.749674 0.749653
0.749679 0.749674 0.749653
0.749679 0.749674 0.749653
0.749679 0.749674 0.749653
0.749679 0.749674 0.749653
0.749679 0.749674 0.749653
0.749679 0.749674 0.749653
0.749679 0.749674 0.749653
0.749679 0.749674 0.749653
0.749679 0.749674 0.749653
0.749679 0.749674 0.749653
0.749679 0.749674 0.749653
0.749679 0.749674 0.749653
0.749679 0.749674 0.749653
0.749679 0.749674 0.749653
0.749679 0.749674 0.749653
0.749679 0.749674 0.749653
0.749679 0.749674 0.749653
0.749679 0.749674 0.749653
0.749679 0.749674 0.749653
0.749679 0.749674 0.749653
0.749679 0.749674 0.749653
0.749679 0.749674 0.749653
0.749679 0.749674 0.749653
0.749679 0.749674 0.749653
0.749679 0.749674 0.749653
0.749679 0.749674 0.749653
0.749679 0.749674 0.749653
0.749679 0.749674 0.749653
0.749679 0.749674 0.749653
0.749679 0.749674 0.749653
0.749679 0.749674 0.749653
0.749679 0.749674 0.749653
0.749679 0.749674 0.749653
0.749679 0.749674 0.749653
0.749679 0.749674 0.749653
0.749679 0.749674 0.749653
0.749679 0.749674 0.749653
0.749679 0.749674 0.749653
0.749679 0.749674 0.749653
0.749679 0.749674 0.749653
0.749679 0.749674 0.749653
0.749679 0.749674 0.749653
0.749679 0.749674 0.749653
0.749679 0.749674 0.749653
0.749679 0.749674 0.749653
0.749679 0.749674 0.749653
0.749679 0.749674 0.749653
0.749679 0.749674 0.749653
0.749679 0.749674 0.749653
0.749679 0.749674 0.749653
0.749679 0.749674 0.749653
0.749679 0.749674 0.749653
0.749679 0.749674 0.749653
0.749679 0.749674 0.749653
0.749679 0.749674 0.749653
0.749679 0.749674 0.749653
0.749679 0.749674 0.749653
0.749679 0.749674 0.749653
0.749679 0.749674 0.749653
0.749679 0.749674 0.749653
0.749679 0.749674 0.749653
0.749679 0.749674 0.749653
0.749679 0.749674 0.749653
0.749679 0.749674 0.749653
0.749679 0.749674 0.749653
0.749679 0.749674 0.749653
0.749679 0.749674 0.749653
0.749679 0.749674 0.749653
0.749679 0.749674 0.749653
0.749679 0.749674 0.749653
0.749679 0.749674 0.749653
0.749679 0.749674 0.749653
0.749679 0.749674 0.749653
0.749679 0.749674 0.749653
0.749679 0.749674 0.749653
0.749679 0.749674 0.749653
0.749679 0.749674 0.749653
0.749679 0.749674 0.749653
0.749679 0.749674 0.749653
0.749679 0.749674 0.749653
0.749679 0.749674 0.749653
0.749679 0.749674 0.749653
0.749679 0.749674 0.749653
0.749679 0.749674 0.749653
0.749679 0.749674 0.749653
0.749679 0.749674 0.749653
0.749679 0.749674 0.749653
0.749679 0.749674 0.749653
0.749679 0.749674 0.749653
0.749679 0.749674 0.749653
0.749679 0.749674 0.749653
0.749679 0.749674 0.749653
0.749679 0.749674 0.749653
0.749679 0.749674 0.749653
0.749679 0.749674 0.749653
0.749679 0.749674 0.749653
0.749679 0.749674 0.749653
0.749679 0.749674 0.749653
0.749679 0.749674 0.749653
0.749679 0.749674 0.749653
0.749679 0.749674 0.749653
0.749679 0.749674 0.749653
0.749679 0.749674 0.749653
0.749679 0.749674 0.749653
0.749679 0.749674 0.749653
0.749679 0.749674 0.749653
0.749679 0.749674 0.749653
0.749679 0.749674 0.749653
0.749679 0.749674 0.749653
0.749679 0.749674 0.749653
0.749679 0.749674 0.749653
0.749679 0.749674 0.749653
0.749679 0.749674 0.749653
0.749679 0.749674 0.749653
0.749679 0.749674 0.749653
0.749679 0.749674 0.749653
0.749679 0.749674 0.749653
0.749679 0.749674 0.749653
0.749679 0.749674 0.749653
0.749679 0.749674 0.749653
0.749679 0.749674 0.749653
0.749679 0.749674 0.749653
0.749679 0.749674 0.749653
0.749679 0.749674 0.749653
0.749679 0.749674 0.749653
0.749679 0.749674 0.749653
0.749679 0.749674 0.749653
0.749679 0.749674 0.749653
0.749679 0.749674 0.749653
0.749679 0.749674 0.749653
0.749679 0.749674 0.749653
0.749679 0.749674 0.749653
0.749679 0.749674 0.749653
0.749679 0.749674 0.749653
0.749679 0.749674 0.749653
0.749679 0.749674 0.749653
0.749679 0.749674 0.749653
0.749679 0.749674 0.749653
0.749679 0.749674 0.749653
0.749679 0.749674 0.749653
0.749679 0.749674 0.749653
0.749679 0.749674 0.749653
0.749679 0.749674 0.749653
0.749679 0.749674 0.749653
0.749679 0.749674 0.749653
0.749679 0.749674 0.749653
0.749679 0.749674 0.749653
0.749679 0.749674 0.749653
0.749679 0.749674 0.749653
0.749679 0.749674 0.749653
0.749679 0.749674 0.749653
0.749679 0.749674 0.749653
