OCIO/luts/ACES2_Candidates_rev060/ACES2 Candidate CAMDRT rev060 Rec2020 HLG (P3D65 1000nit Limited).cube
TITLE "Generated by Foundry::LUT"
LUT_3D_SIZE 5
0.000000 0.000000 0.000000
0.047923 0.012397 0.005873
0.476183 0.122210 0.057314
0.992915 0.451754 0.216868
0.994547 0.956941 0.938508
0.026954 0.056500 0.019506
0.073111 0.073515 0.009452
0.501327 0.130570 0.000000
0.992828 0.459319 0.216878
0.994552 0.956976 0.938542
0.219037 0.465416 0.157018
0.223247 0.473362 0.138591
0.503891 0.506552 0.065136
0.991529 0.566908 0.202268
0.994616 0.957651 0.939277
0.656471 0.953802 0.470172
0.656698 0.954059 0.467237
0.661334 0.959201 0.401341
0.941402 0.943532 0.191012
0.995928 0.970602 0.954393
0.983660 0.999880 0.974488
0.983669 0.999879 0.974488
0.983718 0.999877 0.974496
0.984764 0.999884 0.974662
0.998979 1.000019 0.971199
0.008280 0.009793 0.032007
0.059452 0.016673 0.058575
0.476920 0.122309 0.139692
0.992925 0.451095 0.247488
0.994611 0.957595 0.939565
0.033561 0.064410 0.064319
0.078335 0.078335 0.078335
0.499838 0.135902 0.120364
0.992845 0.458766 0.247453
0.994625 0.957630 0.939599
0.220271 0.464678 0.200749
0.225667 0.472377 0.188104
0.505946 0.506312 0.086666
0.991313 0.583048 0.255828
0.994680 0.958304 0.940315
0.656511 0.953667 0.480613
0.656724 0.953907 0.477833
0.661318 0.958981 0.416369
0.941464 0.943554 0.191020
0.995961 0.970844 0.954830
0.983679 0.999879 0.974517
0.983688 0.999879 0.974517
0.983746 0.999876 0.974525
0.984772 0.999892 0.974691
0.998969 1.000029 0.971209
0.101823 0.120635 0.390178
0.118908 0.076420 0.460381
0.503972 0.137139 0.496767
0.993103 0.443125 0.510482
0.995643 0.966929 0.954367
0.113275 0.157256 0.396156
0.120942 0.129374 0.465863
0.514352 0.147493 0.510101
0.993021 0.450689 0.510109
0.995650 0.966946 0.954394
0.245858 0.479377 0.478684
0.250425 0.483890 0.483468
0.505831 0.505831 0.505831
0.990884 0.622956 0.557190
0.995696 0.967329 0.954723
0.658290 0.952559 0.602803
0.658464 0.952767 0.601421
0.668270 0.956932 0.584519
0.936003 0.939636 0.571573
0.996465 0.974792 0.961974
0.983950 0.999888 0.975169
0.983960 0.999887 0.975169
0.984008 0.999885 0.975176
0.985016 0.999893 0.975314
0.998985 1.000025 0.971516
0.442991 0.505228 1.007230
0.444129 0.495894 1.011026
0.485402 0.241020 1.073570
0.994772 0.452584 0.991077
0.996484 0.972201 0.969873
0.444418 0.514264 1.006293
0.445545 0.505680 1.009998
0.477690 0.240176 1.073763
0.994766 0.452619 0.991288
0.996495 0.972262 0.969923
0.474259 0.624257 0.996805
0.474974 0.621658 0.999199
0.518662 0.552295 1.048494
0.990018 0.601053 0.984393
0.996605 0.973378 0.971018
0.680037 0.942429 0.941680
0.680137 0.942501 0.941772
0.687265 0.943466 0.943038
0.924161 0.924161 0.924161
0.997638 0.982586 0.979375
0.984825 0.999886 0.979853
0.984826 0.999886 0.979862
0.984903 0.999882 0.979899
0.986195 0.999892 0.980512
0.998777 1.000011 0.977145
0.946342 0.956710 1.007732
0.946438 0.956766 1.007720
0.948224 0.957911 1.007493
0.958525 0.961300 1.006590
0.998494 0.985517 0.997395
0.946367 0.956735 1.007727
0.946471 0.956800 1.007714
0.948257 0.957945 1.007486
0.958574 0.961359 1.006580
0.998494 0.985517 0.997395
0.946957 0.957407 1.007620
0.947053 0.957464 1.007608
0.948822 0.958593 1.007393
0.959575 0.962471 1.006404
0.998498 0.985641 0.997419
0.956482 0.967951 1.005932
0.956534 0.967984 1.005925
0.957647 0.968586 1.005791
0.969748 0.974427 1.004508
0.998671 0.987307 0.997694
0.983748 0.999850 0.999565
0.983759 0.999841 0.999555
0.983798 0.999839 0.999553
0.984965 0.999692 0.999366
0.997416 0.997416 0.997416
