OCIO/luts/ACES2_Candidates_rev060/ACES2 Candidate CAMDRT rev060 Rec2020 HLG (P3D65 1000nit Limited).cube
TITLE "Generated by Foundry::LUT"
LUT_3D_SIZE 9
0.000000 0.000000 0.000000
0.010681 0.002715 0.001272
0.047923 0.012397 0.005873
0.173771 0.045136 0.021400
0.476183 0.122210 0.057314
0.799547 0.249779 0.111114
0.992915 0.451754 0.216868
0.988559 0.789034 0.683383
0.994547 0.956941 0.938508
0.006142 0.012953 0.004440
0.017500 0.017593 0.002262
0.056949 0.026984 0.002244
0.185478 0.048778 0.003691
0.481170 0.124591 0.050899
0.800345 0.250285 0.108181
0.992891 0.453277 0.216861
0.988560 0.789142 0.683453
0.994546 0.956950 0.938517
0.026954 0.056500 0.019506
0.031701 0.063028 0.008590
0.073111 0.073515 0.009452
0.196834 0.097436 0.008688
0.501327 0.130570 0.000000
0.803480 0.253965 0.095810
0.992828 0.459319 0.216878
0.988554 0.789539 0.683735
0.994552 0.956976 0.938542
0.089239 0.187582 0.064405
0.091293 0.191644 0.058062
0.106347 0.204384 0.027817
0.220087 0.221296 0.028452
0.502953 0.249001 0.022205
0.819939 0.266225 0.000000
0.992556 0.484260 0.216140
0.988544 0.791302 0.684945
0.994565 0.957097 0.938681
0.219037 0.465416 0.157018
0.220086 0.467013 0.153834
0.223247 0.473362 0.138591
0.256305 0.493609 0.067188
0.503891 0.506552 0.065136
0.808744 0.511128 0.045314
0.991529 0.566908 0.202268
0.988493 0.798627 0.689591
0.994616 0.957651 0.939277
0.433637 0.768788 0.305406
0.433827 0.769006 0.304004
0.434671 0.769954 0.297987
0.438875 0.774336 0.266443
0.507295 0.787422 0.133623
0.780860 0.782887 0.124714
0.988315 0.754343 0.203019
0.988461 0.832765 0.719842
0.994851 0.960220 0.942070
0.656471 0.953802 0.470172
0.656515 0.953852 0.469574
0.656698 0.954059 0.467237
0.657491 0.954945 0.456689
0.661334 0.959201 0.401341
0.716990 0.968682 0.216536
0.941402 0.943532 0.191012
0.990670 0.921103 0.819738
0.995928 0.970602 0.954393
0.887184 0.999755 0.828371
0.887220 0.999753 0.828389
0.887350 0.999749 0.828478
0.887756 0.999746 0.828613
0.889061 0.999745 0.828336
0.894654 0.999756 0.826602
0.919405 0.999790 0.821631
0.994922 1.000161 0.713596
0.997816 0.986936 0.972536
0.983660 0.999880 0.974488
0.983660 0.999880 0.974478
0.983669 0.999879 0.974488
0.983679 0.999879 0.974488
0.983718 0.999877 0.974496
0.983918 0.999886 0.974515
0.984764 0.999884 0.974662
0.988296 0.999919 0.975336
0.998979 1.000019 0.971199
0.001787 0.002101 0.007039
0.013565 0.003727 0.013371
0.050598 0.013178 0.025354
0.175115 0.045457 0.050058
0.476153 0.122157 0.085360
0.799409 0.249775 0.128577
0.992910 0.451704 0.223630
0.988558 0.790178 0.685837
0.994568 0.957070 0.938723
0.007828 0.015102 0.015081
0.019155 0.019155 0.019155
0.065002 0.021916 0.022759
0.186507 0.050112 0.043676
0.481166 0.124590 0.080153
0.800208 0.250277 0.125867
0.992903 0.453215 0.223618
0.988559 0.790285 0.685898
0.994566 0.957079 0.938732
0.028352 0.057979 0.034989
0.032335 0.064614 0.031469
0.075795 0.075343 0.021882
0.210716 0.086148 0.021603
0.499157 0.135508 0.057170
0.803284 0.254172 0.114744
0.992832 0.459259 0.223609
0.988561 0.790690 0.686178
0.994572 0.957105 0.938758
0.089985 0.187893 0.080863
0.092254 0.191901 0.076379
0.100816 0.207275 0.044504
0.221906 0.221972 0.031708
0.512107 0.240532 0.023830
0.818989 0.269958 0.026969
0.992509 0.488559 0.226597
0.988543 0.792438 0.687390
0.994584 0.957234 0.938895
0.219270 0.465185 0.167826
0.220328 0.466775 0.164863
0.224398 0.473009 0.151687
0.249740 0.495810 0.067566
0.504454 0.506468 0.065112
0.810555 0.507690 0.044217
0.991524 0.567922 0.210399
0.988498 0.799671 0.691901
0.994627 0.957788 0.939491
0.433733 0.768725 0.310576
0.433928 0.768957 0.309196
0.434736 0.769846 0.303605
0.439847 0.774149 0.273319
0.504504 0.787810 0.133790
0.780957 0.782859 0.124701
0.988326 0.754264 0.208286
0.988468 0.833409 0.721460
0.994863 0.960340 0.942258
0.656474 0.953775 0.472316
0.656518 0.953825 0.471752
0.656702 0.954024 0.469413
0.657493 0.954918 0.458909
0.661306 0.959149 0.404039
0.716513 0.968773 0.216605
0.941421 0.943531 0.191011
0.990679 0.921245 0.820280
0.995931 0.970654 0.954474
0.887248 0.999752 0.828555
0.887284 0.999751 0.828573
0.887414 0.999747 0.828662
0.887874 0.999750 0.828877
0.889179 0.999749 0.828600
0.894756 0.999752 0.826858
0.919451 0.999787 0.821851
0.994931 1.000159 0.713914
0.997813 0.986954 0.972553
0.983669 0.999880 0.974488
0.983679 0.999879 0.974488
0.983669 0.999879 0.974488
0.983689 0.999878 0.974488
0.983727 0.999877 0.974505
0.983918 0.999886 0.974534
0.984764 0.999884 0.974662
0.988306 0.999919 0.975346
0.998970 1.000020 0.971200
0.008280 0.009793 0.032007
0.020736 0.008106 0.042953
0.059452 0.016673 0.058575
0.180799 0.047268 0.093951
0.476920 0.122309 0.139692
0.799012 0.249809 0.176719
0.992925 0.451095 0.247488
0.988555 0.792938 0.692423
0.994611 0.957595 0.939565
0.013858 0.023073 0.040053
0.021070 0.020241 0.060577
0.069473 0.023762 0.069796
0.191217 0.051706 0.093357
0.481890 0.124776 0.136010
0.799818 0.250311 0.174389
0.992901 0.452632 0.247473
0.988549 0.793228 0.692806
0.994628 0.957603 0.939564
0.033561 0.064410 0.064319
0.037219 0.069359 0.069407
0.078335 0.078335 0.078335
0.221902 0.079300 0.081870
0.499838 0.135902 0.120364
0.802917 0.254120 0.164965
0.992845 0.458766 0.247453
0.988550 0.794367 0.694306
0.994625 0.957630 0.939599
0.092896 0.190168 0.117499
0.095073 0.193917 0.115785
0.105047 0.208325 0.103137
0.225176 0.224283 0.079048
0.522557 0.231196 0.086565
0.814165 0.288239 0.128268
0.992498 0.490578 0.252093
0.988533 0.796799 0.696660
0.994628 0.957759 0.939737
0.220271 0.464678 0.200749
0.221301 0.466245 0.198356
0.225667 0.472377 0.188104
0.245267 0.497476 0.116966
0.505946 0.506312 0.086666
0.814562 0.500878 0.078014
0.991313 0.583048 0.255828
0.988496 0.803953 0.701190
0.994680 0.958304 0.940315
0.434123 0.768491 0.329599
0.434328 0.768715 0.328292
0.435120 0.769611 0.323065
0.442976 0.773482 0.297675
0.495504 0.788918 0.134283
0.781061 0.782659 0.124618
0.988301 0.756874 0.243834
0.988498 0.835878 0.727642
0.994918 0.960770 0.942987
0.656511 0.953667 0.480613
0.656548 0.953709 0.480065
0.656724 0.953907 0.477833
0.657500 0.954785 0.467573
0.661318 0.958981 0.416369
0.715600 0.969146 0.216855
0.941464 0.943554 0.191020
0.990726 0.921798 0.822375
0.995961 0.970844 0.954830
0.887493 0.999750 0.829279
0.887530 0.999749 0.829306
0.887658 0.999753 0.829393
0.888240 0.999744 0.829782
0.889618 0.999740 0.829633
0.895157 0.999752 0.827909
0.919671 0.999785 0.822740
0.994946 1.000165 0.715184
0.997820 0.986971 0.972630
0.983679 0.999879 0.974517
0.983679 0.999879 0.974517
0.983688 0.999879 0.974517
0.983689 0.999879 0.974517
0.983746 0.999876 0.974525
0.983927 0.999885 0.974564
0.984772 0.999892 0.974691
0.988306 0.999918 0.975366
0.998969 1.000029 0.971209
0.032804 0.038765 0.124440
0.037881 0.026049 0.148950
0.082109 0.031356 0.162981
0.200352 0.055967 0.197389
0.482729 0.124589 0.250185
0.798361 0.250402 0.288737
0.992976 0.448427 0.323777
0.988590 0.794434 0.702866
0.994843 0.959737 0.943007
0.037247 0.050954 0.129796
0.040177 0.043355 0.153570
0.083846 0.035283 0.180717
0.206547 0.059509 0.204607
0.487144 0.126927 0.249318
0.799149 0.250893 0.287069
0.992960 0.449968 0.323723
0.988584 0.794715 0.703231
0.994841 0.959755 0.943005
0.052891 0.088902 0.149617
0.055697 0.089363 0.162644
0.078815 0.075206 0.223241
0.225464 0.081688 0.226583
0.503169 0.137813 0.244712
0.802227 0.254276 0.280323
0.992896 0.456128 0.323557
0.988594 0.795853 0.704668
0.994848 0.959772 0.943032
0.105090 0.202483 0.202189
0.107037 0.205069 0.204877
0.115826 0.214615 0.214799
0.226854 0.226854 0.226854
0.526032 0.229936 0.229033
0.813268 0.289261 0.255649
0.992529 0.489410 0.327986
0.988567 0.800837 0.710958
0.994861 0.959893 0.943161
0.224902 0.465521 0.286132
0.225903 0.466984 0.285027
0.230087 0.472692 0.280132
0.255474 0.494834 0.249904
0.505925 0.506140 0.229078
0.805227 0.518979 0.261092
0.990723 0.624279 0.389994
0.988581 0.819941 0.734787
0.994909 0.960404 0.943695
0.435854 0.767783 0.394955
0.436052 0.768007 0.393886
0.436818 0.768897 0.389579
0.445939 0.772491 0.370272
0.499870 0.787478 0.253116
0.780348 0.781678 0.231126
0.988237 0.766827 0.364176
0.988667 0.846007 0.752100
0.995117 0.962596 0.945981
0.656837 0.953423 0.512296
0.656879 0.953480 0.511842
0.657032 0.953654 0.509960
0.657739 0.954434 0.501338
0.661510 0.958374 0.469669
0.716117 0.969984 0.238130
0.941325 0.943473 0.220132
0.990921 0.924011 0.830782
0.996052 0.971699 0.956370
0.888567 0.999748 0.832421
0.888594 0.999747 0.832439
0.888733 0.999743 0.832518
0.889296 0.999734 0.832890
0.891443 0.999745 0.833974
0.896876 0.999750 0.832315
0.920587 0.999781 0.826528
0.994973 1.000151 0.720707
0.997833 0.987074 0.972933
0.983726 0.999876 0.974645
0.983726 0.999876 0.974645
0.983745 0.999875 0.974644
0.983746 0.999875 0.974644
0.983792 0.999882 0.974651
0.983984 0.999882 0.974681
0.984820 0.999889 0.974808
0.988334 0.999916 0.975454
0.998968 1.000028 0.971268
0.101823 0.120635 0.390178
0.103184 0.113184 0.406272
0.118908 0.076420 0.460381
0.237230 0.086942 0.473578
0.503972 0.137139 0.496767
0.799148 0.254519 0.519379
0.993103 0.443125 0.510482
0.988724 0.795171 0.729845
0.995643 0.966929 0.954367
0.104430 0.128988 0.391035
0.105737 0.122604 0.406341
0.114686 0.078432 0.472484
0.237551 0.088806 0.482621
0.506239 0.138982 0.499648
0.799827 0.254946 0.518978
0.993088 0.444636 0.510398
0.988716 0.795470 0.730183
0.995653 0.966928 0.954376
0.113275 0.157256 0.396156
0.115059 0.153942 0.408191
0.120942 0.129374 0.465863
0.236861 0.098449 0.516433
0.514352 0.147493 0.510101
0.802516 0.256637 0.517316
0.993021 0.450689 0.510109
0.988719 0.796692 0.731536
0.995650 0.966946 0.954394
0.146296 0.247793 0.418294
0.147692 0.247716 0.424724
0.153914 0.245972 0.451690
0.224781 0.221902 0.542462
0.526235 0.229174 0.525892
0.811853 0.291705 0.510904
0.992659 0.485009 0.513426
0.988702 0.801982 0.737448
0.995661 0.967015 0.954453
0.245858 0.479377 0.478684
0.246743 0.480305 0.479665
0.250425 0.483890 0.483468
0.272514 0.497264 0.497655
0.505831 0.505831 0.505831
0.792966 0.537503 0.527700
0.990884 0.622956 0.557190
0.988739 0.823721 0.762048
0.995696 0.967329 0.954723
0.443402 0.766803 0.560056
0.443584 0.767012 0.559618
0.444325 0.767828 0.557830
0.452736 0.771136 0.549542
0.528805 0.780815 0.513851
0.775214 0.776881 0.546174
0.975287 0.788402 0.615301
0.989576 0.877905 0.822024
0.995829 0.968791 0.956055
0.658290 0.952559 0.602803
0.658318 0.952601 0.602529
0.658464 0.952767 0.601421
0.659123 0.953522 0.596338
0.668270 0.956932 0.584519
0.761855 0.958375 0.566664
0.936003 0.939636 0.571573
0.991565 0.930940 0.857139
0.996465 0.974792 0.961974
0.892332 0.999731 0.844106
0.892378 0.999729 0.844142
0.892552 0.999732 0.844303
0.893326 0.999732 0.844994
0.895615 0.999729 0.846312
0.903068 0.999738 0.848468
0.923948 0.999769 0.840792
0.995153 1.000149 0.743676
0.997914 0.987477 0.974184
0.983950 0.999888 0.975169
0.983950 0.999888 0.975169
0.983960 0.999887 0.975169
0.983969 0.999887 0.975168
0.984008 0.999885 0.975176
0.984192 0.999877 0.975218
0.985016 0.999893 0.975314
0.988445 0.999917 0.975856
0.998985 1.000025 0.971516
0.234593 0.277388 0.763285
0.235011 0.273439 0.766524
0.236612 0.255471 0.779607
0.267895 0.156623 0.823859
0.525266 0.172125 0.818812
0.804685 0.271936 0.799264
0.993387 0.442238 0.752832
0.989074 0.799114 0.789814
0.996186 0.971093 0.962807
0.235503 0.281667 0.762904
0.235919 0.277828 0.766120
0.237513 0.260491 0.779062
0.265303 0.156830 0.825880
0.525116 0.172914 0.820182
0.804996 0.272174 0.799698
0.993385 0.443624 0.752798
0.989066 0.799421 0.790065
0.996195 0.971101 0.962824
0.239092 0.297953 0.761486
0.239489 0.294627 0.764539
0.241061 0.279537 0.776930
0.254104 0.157815 0.833871
0.524411 0.176216 0.825597
0.806236 0.273095 0.801401
0.993323 0.449264 0.752677
0.989069 0.800637 0.791051
0.996206 0.971153 0.962886
0.254606 0.356898 0.759201
0.254946 0.355099 0.761478
0.258101 0.347313 0.770505
0.269940 0.288245 0.815948
0.518835 0.211908 0.843826
0.810438 0.294799 0.807195
0.992995 0.484145 0.753269
0.989070 0.805919 0.795359
0.996223 0.971388 0.963160
0.313671 0.534270 0.758588
0.313947 0.534082 0.759742
0.315040 0.533220 0.764294
0.331482 0.527813 0.783068
0.517178 0.522514 0.800039
0.795380 0.536509 0.792236
0.991099 0.622234 0.763350
0.989147 0.827539 0.813463
0.996337 0.972379 0.964334
0.474660 0.770224 0.769640
0.474813 0.770342 0.769767
0.475380 0.770806 0.770284
0.482406 0.772624 0.772279
0.544086 0.777619 0.777788
0.774295 0.774286 0.774295
0.948046 0.808389 0.800653
0.990282 0.886727 0.865565
0.996747 0.975929 0.968484
0.663479 0.949821 0.757508
0.663517 0.949854 0.757421
0.663633 0.949995 0.757060
0.664195 0.950650 0.755509
0.672536 0.953184 0.752398
0.800365 0.941116 0.783928
0.926144 0.928398 0.821162
0.992735 0.940252 0.899355
0.997308 0.980974 0.973292
0.892818 0.999701 0.865211
0.892855 0.999700 0.865247
0.893022 0.999694 0.865364
0.893758 0.999704 0.865873
0.896959 0.999694 0.868122
0.908902 0.999694 0.876057
0.931836 0.999753 0.877297
0.990881 0.995731 0.849218
0.998133 0.988564 0.977843
0.984673 0.999883 0.977043
0.984672 0.999883 0.977053
0.984673 0.999883 0.977043
0.984691 0.999883 0.977042
0.984719 0.999890 0.977050
0.984903 0.999882 0.977062
0.985642 0.999894 0.977123
0.988769 0.999916 0.977283
0.998987 1.000017 0.972470
0.442991 0.505228 1.007230
0.443209 0.503428 1.007987
0.444129 0.495894 1.011026
0.448413 0.457564 1.024919
0.485402 0.241020 1.073570
0.785723 0.312370 1.055334
0.994772 0.452584 0.991077
0.989985 0.822824 0.885549
0.996484 0.972201 0.969873
0.443267 0.507060 1.007048
0.443494 0.505338 1.007776
0.444419 0.497880 1.010821
0.448681 0.459923 1.024668
0.483815 0.240846 1.073610
0.785685 0.312428 1.055577
0.994771 0.452599 0.991126
0.989981 0.823074 0.885666
0.996483 0.972210 0.969881
0.444418 0.514264 1.006293
0.444653 0.512563 1.007050
0.445545 0.505680 1.009998
0.449765 0.469208 1.023692
0.477690 0.240176 1.073763
0.785527 0.312680 1.056513
0.994766 0.452619 0.991288
0.989998 0.824098 0.886118
0.996495 0.972262 0.969923
0.449530 0.542793 1.003085
0.449701 0.541637 1.003688
0.450476 0.536529 1.006329
0.454584 0.507320 1.019561
0.467049 0.245042 1.073862
0.784313 0.312695 1.058205
0.994748 0.456606 0.991802
0.990028 0.828500 0.888133
0.996505 0.972472 0.970142
0.474259 0.624257 0.996805
0.474395 0.623736 0.997295
0.474974 0.621658 0.999199
0.477562 0.611582 1.007757
0.518662 0.552295 1.048494
0.779342 0.537048 1.041454
0.990018 0.601053 0.984393
0.990220 0.846377 0.896546
0.996605 0.973378 0.971018
0.556851 0.778821 0.980700
0.556929 0.778782 0.980921
0.557253 0.778605 0.981824
0.558657 0.777750 0.985927
0.592252 0.777928 1.000058
0.791719 0.798574 0.950413
0.948932 0.809933 0.943425
0.991410 0.894639 0.920815
0.996962 0.976590 0.974123
0.680037 0.942429 0.941680
0.680061 0.942436 0.941697
0.680137 0.942501 0.941772
0.680438 0.942760 0.942088
0.687265 0.943466 0.943038
0.800861 0.934761 0.934431
0.924161 0.924161 0.924161
0.993863 0.944535 0.941288
0.997638 0.982586 0.979375
0.892839 0.999619 0.914319
0.892874 0.999627 0.914327
0.893023 0.999622 0.914361
0.893633 0.999621 0.914571
0.896305 0.999615 0.915460
0.906728 0.999628 0.918611
0.944418 0.991286 0.936246
0.982628 0.983805 0.952741
0.998325 0.989108 0.982389
0.984825 0.999886 0.979853
0.984826 0.999886 0.979853
0.984826 0.999886 0.979862
0.984836 0.999885 0.979862
0.984903 0.999882 0.979899
0.985170 0.999887 0.980045
0.986195 0.999892 0.980512
0.989149 0.999922 0.980580
0.998777 1.000011 0.977145
0.764174 0.806994 1.032614
0.764254 0.806975 1.032613
0.764597 0.806923 1.032607
0.766099 0.806631 1.032588
0.772660 0.805238 1.032491
0.799115 0.798908 1.032115
0.902630 0.827896 1.023902
0.993083 0.891855 0.992008
0.997182 0.976264 0.982275
0.764238 0.807112 1.032608
0.764326 0.807093 1.032607
0.764670 0.807034 1.032592
0.766172 0.806742 1.032573
0.772724 0.805357 1.032485
0.799139 0.799004 1.032104
0.902668 0.828059 1.023883
0.993086 0.891923 0.992010
0.997182 0.976264 0.982284
0.764522 0.807556 1.032547
0.764610 0.807537 1.032547
0.764946 0.807477 1.032542
0.766447 0.807185 1.032522
0.772982 0.805817 1.032424
0.799222 0.799358 1.032063
0.902844 0.828713 1.023815
0.993092 0.892232 0.992016
0.997185 0.976308 0.982308
0.765747 0.809529 1.032288
0.765834 0.809526 1.032285
0.766179 0.809458 1.032280
0.767663 0.809183 1.032260
0.774145 0.807841 1.032171
0.799610 0.800956 1.031883
0.903596 0.831591 1.023494
0.993134 0.893575 0.992068
0.997207 0.976439 0.982389
0.771073 0.818066 1.031160
0.771161 0.818056 1.031158
0.771495 0.818012 1.031152
0.772986 0.817777 1.031127
0.784761 0.821058 1.030340
0.809918 0.816793 1.029800
0.906854 0.843616 1.022122
0.993302 0.899176 0.992276
0.997264 0.977026 0.982768
0.792405 0.849783 1.026810
0.792476 0.849772 1.026809
0.792768 0.849747 1.026792
0.795267 0.850444 1.026628
0.810174 0.856409 1.025390
0.849769 0.870091 1.022223
0.918322 0.881829 1.017551
0.993957 0.916798 0.992939
0.997492 0.979176 0.984130
0.849456 0.922882 1.015938
0.849544 0.922896 1.015932
0.849937 0.922977 1.015908
0.851620 0.923364 1.015795
0.858940 0.925018 1.015324
0.884527 0.930701 1.013621
0.936118 0.939837 0.995093
0.994133 0.946968 0.990113
0.997954 0.983502 0.986621
0.880744 0.999405 0.999203
0.880771 0.999413 0.999200
0.880873 0.999411 0.999197
0.881343 0.999416 0.999172
0.883462 0.999414 0.999017
0.892822 0.999130 0.998103
0.946343 0.986827 0.986383
0.981900 0.981910 0.981900
0.998557 0.989398 0.988720
0.984376 0.999871 0.986154
0.984367 0.999871 0.986155
0.984367 0.999871 0.986145
0.984386 0.999871 0.986154
0.984442 0.999877 0.986161
0.984683 0.999875 0.986229
0.985671 0.999883 0.986420
0.990801 0.998169 0.989260
0.997255 0.997469 0.992995
0.946342 0.956710 1.007732
0.946359 0.956726 1.007729
0.946438 0.956766 1.007720
0.946767 0.956979 1.007686
0.948224 0.957911 1.007493
0.952102 0.960050 1.007062
0.958525 0.961300 1.006590
0.980548 0.970010 1.004439
0.998494 0.985517 0.997395
0.946341 0.956718 1.007731
0.946368 0.956726 1.007728
0.946437 0.956775 1.007718
0.946775 0.956988 1.007684
0.948232 0.957920 1.007491
0.952119 0.960067 1.007049
0.958543 0.961308 1.006588
0.980546 0.970019 1.004438
0.998486 0.985508 0.997397
0.946367 0.956735 1.007727
0.946383 0.956760 1.007723
0.946471 0.956800 1.007714
0.946800 0.957013 1.007679
0.948257 0.957945 1.007486
0.952160 0.960118 1.007040
0.958574 0.961359 1.006580
0.980562 0.970045 1.004434
0.998494 0.985517 0.997395
0.946473 0.956861 1.007715
0.946499 0.956877 1.007712
0.946577 0.956926 1.007702
0.946897 0.957139 1.007659
0.948363 0.958071 1.007484
0.952368 0.960327 1.007022
0.958766 0.961561 1.006554
0.980606 0.970149 1.004418
0.998490 0.985543 0.997402
0.946957 0.957407 1.007620
0.946984 0.957415 1.007618
0.947053 0.957464 1.007608
0.947382 0.957668 1.007565
0.948822 0.958593 1.007393
0.953281 0.961215 1.006871
0.959575 0.962471 1.006404
0.980806 0.970617 1.004347
0.998498 0.985641 0.997419
0.949043 0.959728 1.007243
0.949060 0.959744 1.007240
0.949129 0.959794 1.007230
0.949434 0.959973 1.007211
0.950740 0.960791 1.007040
0.955784 0.963891 1.006434
0.962659 0.965950 1.005843
0.981569 0.972473 1.004096
0.998542 0.986048 0.997494
0.956482 0.967951 1.005932
0.956490 0.967959 1.005931
0.956534 0.967984 1.005925
0.956737 0.968098 1.005900
0.957647 0.968586 1.005791
0.961217 0.970525 1.005389
0.969748 0.974427 1.004508
0.983368 0.977677 1.003422
0.998671 0.987307 0.997694
0.971673 0.984580 1.003236
0.971683 0.984579 1.003235
0.971691 0.984587 1.003234
0.971756 0.984602 1.003238
0.972051 0.984688 1.003203
0.973237 0.985036 1.003098
0.977028 0.985866 1.002819
0.986546 0.987404 0.997919
0.998581 0.990849 0.997665
0.983748 0.999850 0.999565
0.983748 0.999850 0.999554
0.983759 0.999841 0.999555
0.983758 0.999850 0.999554
0.983798 0.999839 0.999553
0.984000 0.999840 0.999524
0.984965 0.999692 0.999366
0.992060 0.997509 0.997417
0.997416 0.997416 0.997416
