OCIO/luts/ACES2_Candidates_rev060/ACES2 Candidate CAMDRT rev060 Rec2020 HLG (P3D65 1000nit Limited)_inverse.cube
TITLE "Generated by Foundry::LUT"
LUT_3D_SIZE 5
0.072906 0.072906 0.072906
0.397339 0.018653 0.069877
0.554174 -0.041263 0.096732
0.742372 -0.053227 0.299727
1.468035 1.468035 1.468035
0.072247 0.373683 0.084735
0.365285 0.356743 0.009784
0.576372 -1.033123 -0.025180
0.742605 0.294096 0.302621
1.468035 1.468035 1.468035
0.231992 0.546820 0.219854
0.337127 0.546319 0.224870
0.545439 0.541626 -0.311170
0.749499 0.542283 0.264487
1.468035 1.468035 1.468035
0.395525 0.771888 0.429623
0.407486 0.772359 0.422475
0.567069 0.777843 0.356122
0.843558 0.842375 0.235127
1.468035 1.468035 1.468035
1.468035 1.468035 1.468035
1.468035 1.468035 1.468035
1.468035 1.468035 1.468035
1.468035 1.468035 1.468035
1.468035 1.468035 1.468035
-0.005811 -0.067200 0.443277
0.377567 0.055772 0.378802
0.553375 -0.016007 0.315857
0.742490 -0.044599 0.362673
1.468035 1.468035 1.468035
0.097904 0.364888 0.364498
0.353308 0.353308 0.353308
0.574952 -0.890158 0.118753
0.742724 0.295778 0.364235
1.468035 1.468035 1.468035
0.236098 0.546660 0.332163
0.337212 0.546231 0.332921
0.543236 0.543029 0.321306
0.751203 0.533324 0.306806
1.468035 1.468035 1.468035
0.395403 0.772065 0.452381
0.407783 0.772534 0.446988
0.558711 0.778538 0.374042
0.844184 0.842884 0.297309
1.468035 1.468035 1.468035
1.468035 1.468035 1.468035
1.468035 1.468035 1.468035
1.468035 1.468035 1.468035
1.468035 1.468035 1.468035
1.468035 1.468035 1.468035
0.043750 -0.059503 0.573794
0.329006 0.002982 0.569254
0.547439 0.167307 0.547970
0.744167 0.100697 0.554183
1.468035 1.468035 1.468035
0.211153 0.340285 0.561447
-0.174960 -0.779803 0.603613
0.568039 -2.152606 0.577580
0.744419 0.319766 0.554595
1.468035 1.468035 1.468035
0.279570 0.545349 0.544915
0.345544 0.545346 0.544946
0.543258 0.543258 0.543258
0.758127 0.499504 0.532986
1.468035 1.468035 1.468035
0.392557 0.774899 0.589152
0.405060 0.775387 0.588054
0.510229 0.783700 0.562845
0.854123 0.851320 0.481618
1.468035 1.468035 1.468035
1.468035 1.468035 1.468035
1.468035 1.468035 1.468035
1.468035 1.468035 1.468035
1.468035 1.468035 1.468035
1.468035 1.468035 1.468035
0.390278 0.390978 0.736640
0.414906 0.391184 0.736683
0.554103 0.393717 0.737726
0.762729 0.376578 0.763419
1.468035 1.468035 1.468035
0.392899 0.417831 0.736541
0.416821 0.417950 0.736593
0.554445 0.419561 0.737754
0.763427 0.391663 0.764215
1.468035 1.468035 1.468035
0.394374 0.555620 0.739933
0.408588 0.554065 0.741047
0.524873 0.494585 0.770100
0.775379 0.507046 0.777665
1.468035 1.468035 1.468035
-0.311114 0.805533 0.805287
-0.084950 0.806078 0.805845
0.474300 0.815546 0.815526
1.000472 1.000472 1.000472
1.468035 1.468035 1.468035
1.468035 1.468035 1.468035
1.468035 1.468035 1.468035
1.468035 1.468035 1.468035
1.468035 1.468035 1.468035
1.468035 1.468035 1.468035
1.468035 1.468035 1.468035
1.468035 1.468035 1.468035
1.468035 1.468035 1.468035
1.468035 1.468035 1.468035
1.468035 1.468035 1.468035
1.468035 1.468035 1.468035
1.468035 1.468035 1.468035
1.468035 1.468035 1.468035
1.468035 1.468035 1.468035
1.468035 1.468035 1.468035
1.468035 1.468035 1.468035
1.468035 1.468035 1.468035
1.468035 1.468035 1.468035
1.468035 1.468035 1.468035
1.468035 1.468035 1.468035
1.468035 1.468035 1.468035
1.468035 1.468035 1.468035
1.468035 1.468035 1.468035
1.468035 1.468035 1.468035
1.468035 1.468035 1.468035
1.468035 1.468035 1.468035
1.468035 1.468035 1.468035
1.468035 1.468035 1.468035
1.468035 1.468035 1.468035
1.468035 1.468035 1.468035
