OCIO/luts/ACES2_Candidates_rev060/ACES2 Candidate CAMDRT rev060 Rec2100 (P3D65 10000nit Limited).cube
TITLE "Generated by Foundry::LUT"
LUT_3D_SIZE 5
0.000001 0.000001 0.000001
0.079968 0.026527 0.013621
0.423839 0.221780 0.144372
0.798978 0.507902 0.365328
0.977756 0.862336 0.798492
0.058901 0.099489 0.045955
0.128087 0.128729 0.027531
0.435770 0.233709 0.083633
0.799637 0.508902 0.360910
0.977756 0.862405 0.798530
0.317260 0.434439 0.271491
0.321406 0.438689 0.258950
0.463396 0.464698 0.171653
0.812292 0.527347 0.054802
0.977853 0.863648 0.799291
0.639959 0.798026 0.570273
0.640216 0.798206 0.569370
0.645487 0.801709 0.549342
0.815655 0.816855 0.392889
0.980043 0.889167 0.819561
0.919080 0.995821 0.874717
0.919080 0.995821 0.874717
0.919353 0.995826 0.874675
0.924397 0.995966 0.873157
0.995503 0.998840 0.781996
0.015098 0.017644 0.048843
0.099000 0.039663 0.097639
0.424440 0.221703 0.233907
0.798910 0.507820 0.390178
0.977756 0.862336 0.798839
0.073272 0.112839 0.112689
0.136356 0.136356 0.136356
0.436335 0.234145 0.216468
0.799569 0.508818 0.386473
0.977761 0.862397 0.798876
0.318500 0.434379 0.303050
0.322549 0.438568 0.295183
0.465040 0.465276 0.195415
0.811695 0.529721 0.265625
0.977853 0.863656 0.799637
0.640044 0.797981 0.573774
0.640295 0.798165 0.572900
0.645527 0.801671 0.553491
0.815736 0.816851 0.392876
0.980034 0.889083 0.819658
0.919141 0.995826 0.874902
0.919158 0.995821 0.874902
0.919422 0.995835 0.874865
0.924466 0.995976 0.873342
0.995513 0.998840 0.782416
0.184747 0.203316 0.363149
0.206420 0.181793 0.386295
0.440480 0.252294 0.437146
0.798711 0.507606 0.535402
0.977811 0.862384 0.805037
0.199743 0.237085 0.371836
0.209265 0.218903 0.398598
0.446371 0.259701 0.444160
0.799355 0.508637 0.534216
0.977811 0.862453 0.805071
0.341873 0.445226 0.444886
0.344967 0.447761 0.447519
0.467343 0.467343 0.467345
0.811026 0.532292 0.508880
0.977908 0.863697 0.805773
0.641225 0.797518 0.620216
0.641470 0.797702 0.619665
0.646614 0.801180 0.607805
0.816028 0.816540 0.500142
0.980845 0.896060 0.836466
0.920089 0.995859 0.877781
0.920123 0.995859 0.877810
0.920686 0.995873 0.878240
0.925685 0.996023 0.876893
0.995564 0.998854 0.790595
0.479461 0.513034 0.755957
0.480305 0.510598 0.757506
0.512016 0.450134 0.782593
0.807411 0.533971 0.804278
0.978621 0.865186 0.858883
0.480210 0.515930 0.756275
0.480976 0.513532 0.757842
0.510562 0.450717 0.783933
0.807681 0.534558 0.804619
0.978630 0.865247 0.858903
0.498995 0.564839 0.760018
0.499474 0.563629 0.761356
0.509322 0.522413 0.790773
0.812717 0.547433 0.810980
0.978717 0.866409 0.859324
0.663863 0.802291 0.801928
0.664051 0.802393 0.802034
0.667908 0.804346 0.804108
0.814016 0.814016 0.814016
0.983412 0.912630 0.896904
0.919812 0.995920 0.898611
0.919842 0.995929 0.898632
0.920457 0.995943 0.898996
0.930820 0.996280 0.904997
0.989509 0.992406 0.917184
0.824142 0.853598 0.998723
0.824212 0.853585 0.998723
0.825552 0.853377 0.998713
0.848416 0.847593 0.998685
0.986760 0.918095 0.986264
0.824204 0.853686 0.998713
0.824270 0.853682 0.998723
0.825611 0.853469 0.998713
0.848440 0.847669 0.998676
0.986760 0.918151 0.986273
0.825327 0.855457 0.998732
0.825401 0.855453 0.998732
0.826720 0.855255 0.998732
0.848816 0.849091 0.998685
0.986885 0.919184 0.986384
0.843984 0.884171 0.998877
0.844052 0.884171 0.998882
0.845265 0.884134 0.998877
0.870678 0.886597 0.998877
0.988644 0.933749 0.988031
0.908261 0.996219 0.995957
0.908287 0.996219 0.995957
0.908817 0.996238 0.995929
0.920166 0.995428 0.994750
0.985466 0.985466 0.985466
