OCIO/luts/ACES2_Candidates_rev060/ACES2 Candidate CAMDRT rev060 Rec2020 HLG (P3D65 1000nit Limited)_inverse.cube
TITLE "Generated by Foundry::LUT"
LUT_3D_SIZE 65
0.072906 0.072906 0.072906
0.129738 0.072539 0.073096
0.176154 0.071713 0.073144
0.209293 0.070405 0.073108
0.234713 0.068577 0.072998
0.255804 0.066207 0.072824
0.274096 0.063304 0.072596
0.290413 0.059907 0.072329
0.305255 0.056081 0.072035
0.318953 0.051907 0.071726
0.331745 0.047469 0.071412
0.343808 0.042842 0.071101
0.355285 0.038091 0.070801
0.366290 0.033266 0.070520
0.376917 0.028403 0.070265
0.387245 0.023526 0.070047
0.397339 0.018653 0.069877
0.407254 0.013799 0.069768
0.417038 0.008975 0.069737
0.426729 0.004189 0.069801
0.436360 -0.000541 0.069984
0.445961 -0.005199 0.070310
0.455556 -0.009763 0.070812
0.465163 -0.014205 0.071523
0.474800 -0.018493 0.072487
0.484478 -0.022584 0.073750
0.494213 -0.026434 0.075369
0.504009 -0.029992 0.077405
0.513879 -0.033197 0.079933
0.523822 -0.035987 0.083030
0.533850 -0.038304 0.086792
0.543967 -0.040082 0.091321
0.554174 -0.041263 0.096732
0.564483 -0.041795 0.103160
0.574895 -0.041634 0.110750
0.585421 -0.040760 0.119673
0.596071 -0.039160 0.130127
0.606851 -0.036845 0.142334
0.617784 -0.033874 0.156557
0.628882 -0.030326 0.171445
0.640168 -0.026337 0.185961
0.651670 -0.022122 0.200190
0.663419 -0.017989 0.214221
0.675458 -0.014418 0.228141
0.687838 -0.012119 0.242047
0.700619 -0.012257 0.256032
0.713895 -0.016682 0.270221
0.727760 -0.028524 0.284730
0.742372 -0.053227 0.299727
0.757912 -0.100515 0.315395
0.774664 -0.188724 0.331996
0.793017 -0.354471 0.349874
0.813597 -0.676956 0.369554
0.837453 -1.348307 0.391888
0.866490 -2.914259 0.418357
0.905019 -7.428827 0.452190
0.966288 -28.400053 0.502650
1.088146 1.088146 1.088146
1.468035 1.468035 1.468035
1.468035 1.468035 1.468035
1.468035 1.468035 1.468035
1.468035 1.468035 1.468035
1.468035 1.468035 1.468035
1.468035 1.468035 1.468035
1.468035 1.468035 1.468035
0.073641 0.114091 0.073625
0.106156 0.104656 0.071539
0.158704 0.092818 0.073128
0.196880 0.088210 0.074187
0.284223 0.016986 0.014243
0.247445 0.082495 0.074818
0.267962 0.077825 0.074262
0.285824 0.072909 0.073715
0.301774 0.067746 0.073192
0.316289 0.062370 0.072698
0.329693 0.056840 0.072237
0.342222 0.051222 0.071811
0.354054 0.045574 0.071419
0.365332 0.039940 0.071065
0.376170 0.034354 0.070751
0.386662 0.028834 0.070485
0.396883 0.023390 0.070274
0.406896 0.018034 0.070131
0.416757 0.012764 0.070069
0.426508 0.007589 0.070106
0.436186 0.002516 0.070264
0.445824 -0.002444 0.070569
0.455449 -0.007276 0.071050
0.465078 -0.011955 0.071742
0.474733 -0.016450 0.072688
0.484426 -0.020727 0.073935
0.494172 -0.024741 0.075539
0.503977 -0.028441 0.077561
0.513853 -0.031776 0.080074
0.523802 -0.034683 0.083159
0.533835 -0.037099 0.086909
0.543955 -0.038969 0.091427
0.554165 -0.040236 0.096827
0.564476 -0.040838 0.103246
0.574890 -0.040745 0.110827
0.585417 -0.039922 0.119742
0.596068 -0.038371 0.130188
0.606849 -0.036104 0.142387
0.617783 -0.033164 0.156605
0.628880 -0.029652 0.171480
0.640167 -0.025699 0.185985
0.651670 -0.021504 0.200209
0.663419 -0.017382 0.214235
0.675458 -0.013821 0.228152
0.687838 -0.011543 0.242055
0.700619 -0.011671 0.256039
0.713895 -0.016109 0.270226
0.727761 -0.027960 0.284733
0.742372 -0.052648 0.299730
0.757912 -0.099885 0.315397
0.774665 -0.188087 0.331999
0.793017 -0.353750 0.349876
0.813597 -0.676241 0.369556
0.837454 -1.347406 0.391890
0.866491 -2.913255 0.418358
0.905020 -7.427693 0.452192
0.966290 -28.398870 0.502652
1.088167 1.088167 1.088167
1.468035 1.468035 1.468035
1.468035 1.468035 1.468035
1.468035 1.468035 1.468035
1.468035 1.468035 1.468035
1.468035 1.468035 1.468035
1.468035 1.468035 1.468035
1.468035 1.468035 1.468035
0.073861 0.149541 0.074076
0.052013 0.173207 0.060009
0.135410 0.131754 0.070245
0.186210 0.116301 0.071842
0.217274 0.108357 0.073640
0.240476 0.104013 0.075233
0.259856 0.101370 0.076528
0.411684 0.272187 -2.939741
0.257074 0.148405 0.114314
0.309434 0.089038 0.076469
0.324240 0.081550 0.075388
0.337897 0.073920 0.074451
0.350633 0.066278 0.073650
0.362629 0.058729 0.072973
0.374036 0.051339 0.072405
0.384978 0.044150 0.071936
0.395554 0.037185 0.071563
0.405847 0.030450 0.071286
0.415929 0.023943 0.071113
0.425854 0.017664 0.071055
0.435670 0.011603 0.071130
0.445417 0.005766 0.071361
0.455127 0.000158 0.071776
0.464824 -0.005213 0.072409
0.474532 -0.010322 0.073300
0.484268 -0.015143 0.074496
0.494048 -0.019645 0.076052
0.503879 -0.023776 0.078030
0.513777 -0.027500 0.080502
0.523742 -0.030749 0.083548
0.533788 -0.033475 0.087262
0.543919 -0.035619 0.091746
0.554137 -0.037125 0.097115
0.564455 -0.037946 0.103504
0.574874 -0.038044 0.111058
0.585405 -0.037398 0.119948
0.596058 -0.035994 0.130371
0.606842 -0.033858 0.142550
0.617777 -0.031042 0.156745
0.628877 -0.027629 0.171584
0.640165 -0.023755 0.186063
0.651668 -0.019631 0.200267
0.663418 -0.015568 0.214278
0.675457 -0.012050 0.228185
0.687838 -0.009790 0.242079
0.700620 -0.009942 0.256058
0.713896 -0.014380 0.270241
0.727761 -0.026200 0.284745
0.742373 -0.050836 0.299740
0.757913 -0.098031 0.315405
0.774666 -0.186104 0.332006
0.793019 -0.351645 0.349882
0.813599 -0.673963 0.369561
0.837455 -1.344832 0.391894
0.866493 -2.910076 0.418363
0.905023 -7.423653 0.452197
0.966296 -28.394344 0.502658
1.088247 1.088247 1.088247
1.468035 1.468035 1.468035
1.468035 1.468035 1.468035
1.468035 1.468035 1.468035
1.468035 1.468035 1.468035
1.468035 1.468035 1.468035
1.468035 1.468035 1.468035
1.468035 1.468035 1.468035
0.073777 0.182200 0.074429
0.088218 0.177322 0.076063
0.077582 0.195226 0.054008
0.166277 0.160171 0.068872
0.209075 0.141591 0.070116
0.235665 0.130999 0.072339
0.256290 0.124483 0.074548
0.273659 0.120645 0.076663
0.289235 0.118141 0.078481
0.328650 0.035059 0.069272
-0.471583 0.282190 0.377526
0.378401 -0.099340 -0.208482
0.345199 0.099017 0.078696
0.358200 0.089406 0.077252
0.370453 0.079799 0.076046
0.382095 0.070356 0.075059
0.393243 0.061190 0.074270
0.404000 0.052357 0.073659
0.414455 0.043892 0.073214
0.424681 0.035802 0.072933
0.434736 0.028091 0.072821
0.444675 0.020755 0.072892
0.454538 0.013793 0.073168
0.464358 0.007205 0.073678
0.474163 0.001003 0.074459
0.483976 -0.004800 0.075554
0.493818 -0.010179 0.077019
0.503698 -0.015102 0.078912
0.513635 -0.019526 0.081306
0.523631 -0.023411 0.084278
0.533702 -0.026700 0.087924
0.543852 -0.029352 0.092344
0.554084 -0.031310 0.097654
0.564415 -0.032539 0.103988
0.574843 -0.032995 0.111491
0.585381 -0.032668 0.120334
0.596041 -0.031547 0.130715
0.606829 -0.029654 0.142855
0.617768 -0.027055 0.157010
0.628870 -0.023823 0.171779
0.640160 -0.020108 0.186207
0.651664 -0.016109 0.200375
0.663416 -0.012154 0.214358
0.675456 -0.008715 0.228245
0.687837 -0.006510 0.242126
0.700620 -0.006701 0.256093
0.713896 -0.011113 0.270269
0.727762 -0.022914 0.284768
0.742374 -0.047511 0.299757
0.757915 -0.094542 0.315420
0.774668 -0.182468 0.332018
0.793021 -0.347751 0.349892
0.813601 -0.669619 0.369571
0.837459 -1.340044 0.391903
0.866497 -2.904374 0.418371
0.905028 -7.416420 0.452205
0.966307 -28.386271 0.502669
1.088394 1.088394 1.088394
1.468035 1.468035 1.468035
1.468035 1.468035 1.468035
1.468035 1.468035 1.468035
1.468035 1.468035 1.468035
1.468035 1.468035 1.468035
1.468035 1.468035 1.468035
1.468035 1.468035 1.468035
0.073427 0.207378 0.074713
0.086525 0.203617 0.077047
-0.082019 0.276479 -0.210084
0.103441 0.215699 0.042248
0.192351 0.185208 0.066903
0.228819 0.168114 0.068277
0.252325 0.156255 0.070612
0.271063 0.147741 0.073308
0.287159 0.142187 0.075968
0.301628 0.138668 0.078491
0.315114 0.136245 0.080715
0.340551 0.083414 0.069325
-6.436469 -0.454661 0.615212
0.290075 0.241349 0.222308
0.365680 0.117991 0.082496
0.378103 0.106810 0.080673
0.389955 0.095487 0.079121
0.401317 0.084320 0.077860
0.412279 0.073497 0.076880
0.422924 0.063106 0.076159
0.433323 0.053198 0.075684
0.443542 0.043798 0.075452
0.453632 0.034921 0.075471
0.463635 0.026571 0.075759
0.473588 0.018757 0.076346
0.483520 0.011488 0.077270
0.493457 0.004777 0.078580
0.503413 -0.001347 0.080332
0.513411 -0.006862 0.082596
0.523455 -0.011724 0.085450
0.533564 -0.015899 0.088985
0.543745 -0.019345 0.093303
0.554002 -0.022015 0.098518
0.564351 -0.023876 0.104764
0.574794 -0.024905 0.112185
0.585344 -0.025084 0.120953
0.596013 -0.024414 0.131265
0.606808 -0.022922 0.143342
0.617752 -0.020657 0.157431
0.628859 -0.017716 0.172091
0.640152 -0.014250 0.186439
0.651659 -0.010468 0.200547
0.663412 -0.006677 0.214488
0.675454 -0.003365 0.228343
0.687837 -0.001242 0.242200
0.700620 -0.001467 0.256150
0.713897 -0.005883 0.270312
0.727764 -0.017655 0.284802
0.742376 -0.042108 0.299785
0.757917 -0.088968 0.315442
0.774671 -0.176604 0.332037
0.793024 -0.341483 0.349909
0.813606 -0.662822 0.369585
0.837464 -1.332141 0.391916
0.866503 -2.895134 0.418384
0.905038 -7.404814 0.452219
0.966324 -28.372948 0.502688
1.088630 1.088630 1.088630
1.468035 1.468035 1.468035
1.468035 1.468035 1.468035
1.468035 1.468035 1.468035
1.468035 1.468035 1.468035
1.468035 1.468035 1.468035
1.468035 1.468035 1.468035
1.468035 1.468035 1.468035
0.072858 0.228268 0.074956
0.084250 0.225598 0.077229
0.104583 0.221941 0.079193
-0.070444 0.293340 -0.334543
0.132021 0.234179 0.024667
0.214134 0.206126 0.063888
0.246372 0.190694 0.066481
0.267725 0.180127 0.068563
0.284948 0.172155 0.071660
0.300094 0.165935 0.074761
0.313839 0.161392 0.077770
0.326660 0.158187 0.080606
0.338813 0.156130 0.083295
0.361107 0.099212 0.069779
0.752487 0.738989 -598.491028
0.269571 0.283517 0.287857
0.471393 0.326288 -6.060008
0.397917 0.125441 0.084420
0.409436 0.112636 0.082657
0.420578 0.099949 0.081231
0.431405 0.087624 0.080149
0.441983 0.075815 0.079406
0.452371 0.064602 0.078995
0.462620 0.054028 0.078918
0.472774 0.044121 0.079191
0.482870 0.034905 0.079840
0.492939 0.026396 0.080907
0.503003 0.018617 0.082442
0.513086 0.011591 0.084510
0.523200 0.005352 0.087183
0.533364 -0.000072 0.090553
0.543589 -0.004652 0.094718
0.553880 -0.008347 0.099792
0.564257 -0.011133 0.105907
0.574722 -0.012981 0.113209
0.585289 -0.013896 0.121867
0.595971 -0.013876 0.132078
0.606777 -0.012960 0.144063
0.617730 -0.011200 0.158050
0.628843 -0.008705 0.172549
0.640140 -0.005591 0.186780
0.651652 -0.002117 0.200801
0.663408 0.001425 0.214678
0.675452 0.004552 0.228487
0.687836 0.006555 0.242310
0.700621 0.006264 0.256234
0.713899 0.001848 0.270378
0.727766 -0.009818 0.284854
0.742380 -0.034113 0.299827
0.757921 -0.080711 0.315476
0.774675 -0.167916 0.332066
0.793030 -0.332241 0.349933
0.813612 -0.652641 0.369607
0.837471 -1.320750 0.391936
0.866513 -2.881465 0.418404
0.905052 -7.387879 0.452239
0.966349 -28.353407 0.502714
1.088977 1.088977 1.088977
1.468035 1.468035 1.468035
1.468035 1.468035 1.468035
1.468035 1.468035 1.468035
1.468035 1.468035 1.468035
1.468035 1.468035 1.468035
1.468035 1.468035 1.468035
1.468035 1.468035 1.468035
0.072139 0.246416 0.075191
0.081879 0.244547 0.077204
0.103229 0.240803 0.081109
0.242177 -1.302799 0.500992
-0.052876 0.308592 -0.478517
0.164002 0.250926 0.001715
0.233129 0.224457 0.059618
0.262288 0.210152 0.064745
0.282092 0.200509 0.066335
0.298151 0.193258 0.069648
0.312425 0.187507 0.073275
0.325470 0.183271 0.076959
0.337852 0.179876 0.080289
0.349659 0.177464 0.083454
0.361159 0.175394 0.086198
0.384545 0.091371 0.066883
0.672449 0.642155 -187.514175
0.299425 0.301010 0.301533
0.448548 -0.353875 -0.403285
0.417776 0.145193 0.088372
0.429041 0.131016 0.086539
0.440004 0.117175 0.085144
0.450746 0.103493 0.084088
0.461295 0.090435 0.083459
0.471700 0.078092 0.083256
0.482003 0.066532 0.083494
0.492244 0.055798 0.084201
0.502448 0.045933 0.085417
0.512645 0.036962 0.087199
0.522851 0.028925 0.089615
0.533090 0.021844 0.092750
0.543374 0.015757 0.096700
0.553713 0.010685 0.101575
0.564128 0.006654 0.107508
0.574623 0.003675 0.114641
0.585214 0.001756 0.123145
0.595914 0.000877 0.133215
0.606735 0.001001 0.145072
0.617698 0.002073 0.158911
0.628820 0.003974 0.173189
0.640124 0.006561 0.187255
0.651641 0.009611 0.201156
0.663401 0.012811 0.214944
0.675448 0.015690 0.228688
0.687835 0.017521 0.242463
0.700621 0.017141 0.256353
0.713901 0.012724 0.270470
0.727770 0.001183 0.284927
0.742384 -0.022875 0.299885
0.757927 -0.069093 0.315524
0.774682 -0.155764 0.332105
0.793037 -0.319189 0.349968
0.813621 -0.638290 0.369637
0.837482 -1.304507 0.391964
0.866527 -2.862276 0.418431
0.905071 -7.363636 0.452268
0.966385 -28.326349 0.502753
1.089467 1.089467 1.089467
1.468035 1.468035 1.468035
1.468035 1.468035 1.468035
1.468035 1.468035 1.468035
1.468035 1.468035 1.468035
1.468035 1.468035 1.468035
1.468035 1.468035 1.468035
1.468035 1.468035 1.468035
0.071350 0.262666 0.075453
0.079744 0.261328 0.077224
0.100956 0.258016 0.081880
0.122491 0.255782 0.083190
-0.551205 0.472491 -10.784315
-0.027678 0.321214 -0.609216
0.192134 0.265971 -0.022812
0.250144 0.241009 0.054238
0.276940 0.227597 0.062853
0.295524 0.218733 0.064045
0.310737 0.212018 0.067393
0.324335 0.206659 0.071456
0.337054 0.202158 0.075375
0.348889 0.199134 0.079538
0.360404 0.196558 0.083214
0.371666 0.194309 0.086437
0.382693 0.192447 0.089373
0.410266 0.044012 0.062073
-367.546753 -342.779724 0.996558
0.349237 0.306324 0.289441
0.466951 -0.468099 -0.419722
0.437765 0.165458 0.092500
0.448834 0.150882 0.090821
0.459664 0.136252 0.089685
0.470360 0.121375 0.088821
0.480909 0.107258 0.088483
0.491358 0.093994 0.088684
0.501734 0.081683 0.089454
0.512074 0.070378 0.090840
0.522396 0.060137 0.092901
0.532730 0.051000 0.095714
0.543091 0.042998 0.099370
0.553492 0.036174 0.103977
0.563956 0.030532 0.109664
0.574490 0.026092 0.116571
0.585112 0.022851 0.124868
0.595837 0.020793 0.134748
0.606677 0.019866 0.146434
0.617656 0.020008 0.160056
0.628789 0.021113 0.174042
0.640103 0.023019 0.187893
0.651626 0.025503 0.201634
0.663392 0.028258 0.215304
0.675444 0.030791 0.228961
0.687833 0.032388 0.242670
0.700622 0.031906 0.256512
0.713904 0.027504 0.270595
0.727775 0.016107 0.285025
0.742390 -0.007655 0.299964
0.757934 -0.053349 0.315590
0.774690 -0.139172 0.332160
0.793048 -0.301458 0.350015
0.813633 -0.618892 0.369679
0.837497 -1.282446 0.392003
0.866546 -2.836227 0.418468
0.905097 -7.330615 0.452308
0.966434 -28.288910 0.502804
1.090139 1.090139 1.090139
1.468035 1.468035 1.468035
1.468035 1.468035 1.468035
1.468035 1.468035 1.468035
1.468035 1.468035 1.468035
1.468035 1.468035 1.468035
1.468035 1.468035 1.468035
1.468035 1.468035 1.468035
0.070572 0.277536 0.075780
0.077856 0.276561 0.077338
0.097768 0.273887 0.081933
0.121009 0.271346 0.085517
0.209306 0.236349 0.189289
-0.483012 0.472898 -10.805413
0.004679 0.331298 -0.703227
0.215580 0.279662 -0.046543
0.265684 0.256259 0.048168
0.290639 0.243636 0.060558
0.308289 0.235369 0.061637
0.322855 0.229088 0.064883
0.336019 0.223892 0.069145
0.348171 0.219908 0.073843
0.359777 0.216722 0.078413
0.371054 0.214074 0.082616
0.382184 0.211515 0.086156
0.392978 0.209846 0.089827
0.404086 0.206266 0.091559
0.439048 -0.084369 0.058639
-6.924142 0.385198 0.599490
0.399422 0.295303 0.246032
0.498029 -0.595852 -1.510397
0.457917 0.183385 0.096985
0.468852 0.171033 0.095649
0.479605 0.157347 0.094963
0.490277 0.141786 0.094580
0.500853 0.126829 0.094761
0.511362 0.112902 0.095619
0.521825 0.100120 0.097208
0.532275 0.088549 0.099594
0.542731 0.078255 0.102865
0.553209 0.069280 0.107120
0.563735 0.061653 0.112485
0.574319 0.055390 0.119097
0.584981 0.050486 0.127124
0.595738 0.046926 0.136758
0.606603 0.044663 0.148219
0.617601 0.043626 0.161537
0.628749 0.043696 0.175151
0.640075 0.044721 0.188724
0.651608 0.046472 0.202258
0.663380 0.048633 0.215775
0.675437 0.050723 0.229317
0.687831 0.052000 0.242943
0.700624 0.051383 0.256722
0.713908 0.047015 0.270759
0.727781 0.035807 0.285155
0.742398 0.012491 0.300069
0.757944 -0.032528 0.315675
0.774702 -0.117302 0.332232
0.793061 -0.278037 0.350077
0.813649 -0.593169 0.369735
0.837516 -1.253409 0.392054
0.866570 -2.801632 0.418516
0.905132 -7.287120 0.452359
0.966498 -28.239792 0.502871
1.091033 1.091033 1.091033
1.468035 1.468035 1.468035
1.468035 1.468035 1.468035
1.468035 1.468035 1.468035
1.468035 1.468035 1.468035
1.468035 1.468035 1.468035
1.468035 1.468035 1.468035
1.468035 1.468035 1.468035
0.069878 0.291370 0.076206
0.076218 0.290652 0.077572
0.093974 0.288634 0.081627
0.119137 0.285978 0.086986
0.142328 0.284441 0.087966
-1641.230713 -6981.500488 1.207601
-0.431677 0.464278 -9.304531
0.044001 0.339024 -0.740932
0.235947 0.292173 -0.065733
0.280095 0.270521 0.041927
0.303534 0.258695 0.057868
0.320406 0.250990 0.059114
0.334496 0.245078 0.062244
0.347205 0.240279 0.066894
0.359103 0.236378 0.071995
0.370521 0.233145 0.076994
0.381607 0.230494 0.081748
0.392519 0.228149 0.086024
0.403194 0.226453 0.090273
0.413832 0.224783 0.093978
0.428321 0.198348 0.080678
0.473468 -0.379909 -0.030319
-1.230581 0.395740 0.466167
0.445148 0.240328 0.130849
0.540423 0.229771 -8.191292
0.478267 0.199432 0.102030
0.489121 0.188958 0.101269
0.499835 0.177921 0.101311
0.510509 0.164878 0.101717
0.521133 0.149933 0.102707
0.531718 0.135654 0.104551
0.542287 0.122728 0.107329
0.552858 0.111247 0.111135
0.563460 0.101256 0.116089
0.574106 0.092794 0.122327
0.584816 0.085869 0.130010
0.595612 0.080466 0.139331
0.606508 0.076539 0.150508
0.617531 0.074027 0.163397
0.628699 0.072815 0.176554
0.640039 0.072733 0.189780
0.651584 0.073565 0.203056
0.663365 0.074972 0.216378
0.675429 0.076496 0.229776
0.687829 0.077405 0.243294
0.700625 0.076609 0.256993
0.713913 0.072256 0.270970
0.727789 0.061327 0.285322
0.742409 0.038563 0.300204
0.757957 -0.005540 0.315786
0.774717 -0.088982 0.332325
0.793079 -0.247717 0.350157
0.813670 -0.559922 0.369805
0.837541 -1.215762 0.392119
0.866602 -2.756909 0.418580
0.905177 -7.231118 0.452426
0.966582 -28.176271 0.502959
1.092197 1.092197 1.092197
1.468035 1.468035 1.468035
1.468035 1.468035 1.468035
1.468035 1.468035 1.468035
1.468035 1.468035 1.468035
1.468035 1.468035 1.468035
1.468035 1.468035 1.468035
1.468035 1.468035 1.468035
0.069334 0.304413 0.076764
0.074867 0.303879 0.077959
0.090620 0.302357 0.081511
0.116378 0.299893 0.087670
0.140850 0.298168 0.090668
0.166698 0.296924 0.090584
0.950577 1.073322 -23743.439453
-0.385379 0.451524 -7.332144
0.089175 0.345477 -0.735328
0.254105 0.303816 -0.079213
0.293638 0.284023 0.035941
0.315836 0.272984 0.054816
0.332140 0.265714 0.056356
0.345894 0.260071 0.059277
0.358214 0.255650 0.064300
0.369898 0.251878 0.069817
0.381134 0.248731 0.075348
0.392119 0.245996 0.080516
0.402846 0.243873 0.085611
0.413545 0.241758 0.089978
0.424135 0.239949 0.094104
0.434616 0.238593 0.098250
0.455141 0.126133 0.060006
0.524395 -0.870452 -1.783471
0.374348 0.370142 0.368682
0.489899 -0.241604 0.050994
0.625058 0.556116 -72.927780
0.498840 0.214310 0.107934
0.509650 0.205495 0.108047
0.520357 0.196723 0.109179
0.531058 0.186591 0.110732
0.541756 0.175035 0.112904
0.552434 0.162966 0.116156
0.563125 0.150652 0.120601
0.573844 0.139638 0.126373
0.584614 0.130334 0.133631
0.595457 0.122736 0.142564
0.606391 0.116820 0.153387
0.617444 0.112520 0.165683
0.628636 0.109728 0.178290
0.639995 0.108291 0.191096
0.651553 0.107971 0.204053
0.663346 0.108476 0.217135
0.675419 0.109296 0.230353
0.687826 0.109750 0.243736
0.700628 0.108730 0.257336
0.713920 0.104420 0.271238
0.727799 0.093856 0.285535
0.742422 0.071779 0.300375
0.757973 0.028818 0.315927
0.774736 -0.052901 0.332444
0.793101 -0.209115 0.350259
0.813696 -0.517523 0.369896
0.837573 -1.167638 0.392202
0.866643 -2.700023 0.418660
0.905235 -7.159365 0.452512
0.966688 -28.094704 0.503071
1.093724 1.093725 1.093725
1.468035 1.468035 1.468035
1.468035 1.468035 1.468035
1.468035 1.468035 1.468035
1.468035 1.468035 1.468035
1.468035 1.468035 1.468035
1.468035 1.468035 1.468035
1.468035 1.468035 1.468035
0.068998 0.316842 0.077485
0.073840 0.316443 0.078530
0.087771 0.315294 0.081627
0.111687 0.313321 0.087298
0.139326 0.311312 0.092750
0.164015 0.310200 0.093498
0.289474 0.187112 0.334402
0.603879 0.768489 -546.407837
-0.334536 0.439753 -5.688056
0.140436 0.351222 -0.694835
0.270642 0.314867 -0.087165
0.306510 0.296942 0.030467
0.327686 0.286672 0.051433
0.343526 0.279811 0.053314
0.356909 0.274569 0.056206
0.369060 0.270296 0.061400
0.380564 0.266689 0.067372
0.391662 0.263645 0.073447
0.402619 0.260772 0.078881
0.413248 0.258690 0.084616
0.423812 0.256832 0.089876
0.434311 0.255254 0.094851
0.444822 0.253688 0.099305
0.456399 0.245976 0.096443
0.485674 -0.124697 0.048860
-2383.327148 -3878.531494 1.177889
0.464361 0.319899 0.243825
0.534637 -1.127393 -0.471939
0.072906 0.072906 0.072906
0.519649 0.228494 0.115100
0.530446 0.221262 0.116491
0.541178 0.214528 0.119173
0.551936 0.206750 0.122308
0.562729 0.197934 0.126143
0.573531 0.189241 0.131355
0.584370 0.180870 0.138096
0.595270 0.173090 0.146556
0.606249 0.166166 0.156933
0.617338 0.160346 0.168431
0.628558 0.155834 0.180395
0.639940 0.152770 0.192704
0.651517 0.151091 0.205278
0.663323 0.150468 0.218071
0.675407 0.150448 0.231068
0.687822 0.150340 0.244286
0.700631 0.149049 0.257763
0.713928 0.144824 0.271573
0.727812 0.134711 0.285801
0.742439 0.113540 0.300590
0.757994 0.072057 0.316103
0.774761 -0.007507 0.332593
0.793129 -0.160472 0.350387
0.813729 -0.464242 0.370009
0.837613 -1.107093 0.392307
0.866694 -2.628169 0.418762
0.905307 -7.068926 0.452619
0.966822 -27.991943 0.503210
1.095676 1.095676 1.095676
1.468035 1.468035 1.468035
1.468035 1.468035 1.468035
1.468035 1.468035 1.468035
1.468035 1.468035 1.468035
1.468035 1.468035 1.468035
1.468035 1.468035 1.468035
1.468035 1.468035 1.468035
0.068920 0.328796 0.078401
0.073174 0.328495 0.079315
0.085542 0.327620 0.082035
0.107208 0.326089 0.087045
0.135797 0.324170 0.093454
0.162788 0.322816 0.096610
0.185822 0.321874 0.096526
-6.128044 -36.517227 0.774724
0.412286 0.653739 -125.776711
-0.276404 0.429723 -4.372231
0.189659 0.356930 -0.636812
0.285962 0.325557 -0.090675
0.318870 0.309416 0.025598
0.339163 0.299912 0.047778
0.354625 0.293448 0.049915
0.367765 0.288503 0.052784
0.379756 0.284430 0.058232
0.391132 0.280976 0.064658
0.402163 0.277975 0.071174
0.412952 0.275409 0.077548
0.423617 0.273131 0.083508
0.434118 0.271378 0.089525
0.444692 0.269446 0.094545
0.455182 0.267890 0.099601
0.465635 0.266647 0.104683
0.482085 0.214690 0.068589
0.523521 -0.756939 -0.106738
-0.243244 0.429226 0.468342
0.515471 -0.096571 0.039752
0.585921 -1.309565 -7.137721
0.529847 0.248318 0.122179
0.540709 0.242335 0.124087
0.551522 0.236687 0.127298
0.562311 0.231834 0.132117
0.573165 0.225989 0.137377
0.584083 0.219378 0.143510
0.595048 0.213199 0.151411
0.606080 0.207618 0.161079
0.617211 0.202794 0.171668
0.628465 0.198860 0.182901
0.639874 0.195875 0.194633
0.651472 0.193834 0.206760
0.663296 0.192612 0.219207
0.675393 0.191972 0.231943
0.687818 0.191479 0.244962
0.700635 0.190454 0.258288
0.713939 0.187734 0.271986
0.727828 0.181053 0.286130
0.742460 0.164917 0.300855
0.758019 0.125827 0.316322
0.774791 0.049048 0.332777
0.793165 -0.099942 0.350547
0.813771 -0.397812 0.370151
0.837663 -1.031914 0.392436
0.866757 -2.538774 0.418888
0.905398 -6.956380 0.452753
0.966988 -27.864340 0.503385
1.098163 1.098163 1.098163
1.468035 1.468035 1.468035
1.468035 1.468035 1.468035
1.468035 1.468035 1.468035
1.468035 1.468035 1.468035
1.468035 1.468035 1.468035
1.468035 1.468035 1.468035
1.468035 1.468035 1.468035
0.069152 0.340380 0.079544
0.072899 0.340152 0.080345
0.083888 0.339484 0.082734
0.103424 0.338298 0.087145
0.131862 0.336590 0.093852
0.161449 0.335084 0.099129
0.183919 0.334226 0.099868
-0.431692 0.369850 -0.362670
-45.379204 -212.847260 0.919957
-0.370820 0.584473 -48.997097
-0.210721 0.422199 -3.366076
0.223770 0.363068 -0.576408
0.300373 0.336017 -0.090316
0.330839 0.321555 0.021271
0.350377 0.312786 0.043813
0.365513 0.306717 0.046078
0.378492 0.302014 0.048979
0.390346 0.298158 0.054755
0.401647 0.294831 0.061615
0.412672 0.291816 0.068431
0.423283 0.289619 0.076010
0.433904 0.287463 0.082702
0.444518 0.285361 0.088636
0.454958 0.283921 0.095091
0.465465 0.282391 0.100749
0.475990 0.280907 0.106029
0.487102 0.276083 0.105840
