OCIO/luts/ACES2_Candidates_rev060/ACES2 Candidate CAMDRT rev060 Rec2100 (P3D65 10000nit Limited)_inverse.cube
TITLE "Generated by Foundry::LUT"
LUT_3D_SIZE 9
0.072906 0.072906 0.072906
0.311981 0.012760 0.070501
0.406510 -0.135264 0.062059
0.478146 -0.310486 0.058243
0.549707 -0.490625 0.034539
0.624816 -0.574830 0.052604
0.704215 -0.391156 0.219009
0.790518 0.256621 0.346641
0.894888 0.445608 0.459456
0.012635 0.277600 0.061480
0.240178 0.242037 0.122659
0.371704 0.199321 0.083506
0.465557 0.005096 0.061786
0.547215 -0.315047 0.040849
0.624428 -0.483966 0.059467
0.704168 -0.338659 0.220516
0.790515 0.267370 0.346775
0.894891 0.446805 0.459483
-0.100155 0.372593 0.039032
0.198565 0.358405 0.096322
0.349573 0.343640 0.035779
0.458012 0.303680 0.051322
0.536316 0.303048 0.127665
0.621974 0.139906 0.110866
0.703826 0.057176 0.230918
0.790492 0.321858 0.347791
0.894914 0.455429 0.459688
-0.197914 0.453521 0.018792
-0.001719 0.450530 0.051455
0.324060 0.443110 0.139542
0.443113 0.432754 -0.225676
0.542046 0.402864 -0.025394
0.623468 0.371503 0.026695
0.702688 0.397323 0.260869
0.790403 0.413590 0.351858
0.895011 0.484535 0.460556
-0.184476 0.534360 0.060930
-0.082314 0.533895 0.077115
0.306757 0.531072 0.180279
0.426010 0.528269 0.219499
0.531815 0.520760 -1.127030
0.623764 0.501092 -0.186020
0.702079 0.506846 0.273206
0.790193 0.511850 0.363627
0.895355 0.543321 0.463509
0.210526 0.616221 0.252874
0.235791 0.616160 0.254731
0.325700 0.615717 0.267201
0.429483 0.614367 0.297087
-23.009045 0.758882 -310.869812
0.616677 0.606623 -1.961334
0.706321 0.596292 -0.412941
0.791482 0.600584 0.352882
0.897575 0.609401 0.446710
0.403161 0.700639 0.375679
0.405126 0.700633 0.375798
0.418774 0.700586 0.376687
0.459574 0.700404 0.380054
0.524614 0.700336 0.376995
-24.448082 0.740267 -39.171024
0.697315 0.696519 -0.212725
0.796098 0.695285 -0.023060
0.902589 0.704597 0.426322
0.519136 0.793625 0.479260
0.519571 0.793626 0.479269
0.522847 0.793631 0.479344
0.535493 0.793653 0.479653
0.568650 0.793733 0.480676
0.619638 0.794917 0.457060
0.606160 0.811815 -9.172283
0.804692 0.800005 -9.175583
0.916063 0.816729 0.469187
0.632052 0.923750 0.605250
0.632214 0.923753 0.605253
0.633466 0.923774 0.605277
0.638582 0.923863 0.605379
0.644072 0.924468 0.598613
0.656846 0.926498 0.568266
0.731459 0.930483 0.527945
-581.343933 1.000049 -455.364838
0.992059 0.990650 -1.404238
-0.386456 -1.022825 0.502968
0.284681 0.012715 0.291019
0.399765 -0.087051 0.147995
0.477088 -0.283254 0.073814
0.549537 -0.478431 0.056217
0.624785 -0.569958 0.085106
0.704210 -0.389418 0.234172
0.790518 0.256808 0.350125
0.894889 0.445615 0.460476
0.028054 0.262169 0.262300
0.239437 0.239437 0.239437
0.360607 0.223493 0.220066
0.464667 0.019177 0.118532
0.547046 -0.304631 0.070336
0.624396 -0.479295 0.092936
0.704162 -0.336933 0.235458
0.790515 0.267534 0.350254
0.894892 0.446812 0.460502
-0.085662 0.371177 0.125667
0.205845 0.356308 0.200031
0.343635 0.344350 0.224859
0.443694 0.334358 0.218064
0.536193 0.303405 0.180277
0.621944 0.143208 0.149988
0.703820 0.058748 0.244421
0.790491 0.321947 0.351232
0.894915 0.455439 0.460706
-0.191661 0.453339 0.069490
0.002246 0.450350 0.108579
-0.279192 0.459282 -0.051627
0.437966 0.436689 0.072098
0.530908 0.425696 0.209206
0.624338 0.362305 0.031843
0.702683 0.397379 0.270907
0.790403 0.413615 0.355151
0.895013 0.484542 0.461564
-0.181627 0.534328 0.104904
-0.079218 0.533859 0.121966
0.306913 0.531043 0.209926
0.406842 0.528841 0.057051
0.579290 0.604078 -54.472904
0.618854 0.510667 0.067048
0.701924 0.507454 0.284922
0.790193 0.511856 0.366516
0.895356 0.543325 0.464486
0.211395 0.616213 0.264357
0.236416 0.616152 0.265991
0.325838 0.615711 0.277024
0.429500 0.614361 0.304216
-9.549739 0.653807 -14.308406
0.610024 0.608262 -0.396033
0.705041 0.598487 -0.211924
0.791512 0.600422 0.354918
0.897576 0.609400 0.447844
0.403197 0.700639 0.378197
0.405158 0.700632 0.378312
0.418802 0.700585 0.379177
0.459588 0.700404 0.382451
0.524421 0.700354 0.378898
-17.481659 0.732182 -21.420753
0.726458 0.723762 -114.985512
0.795814 0.695598 0.133222
0.902613 0.704490 0.426807
0.519142 0.793626 0.479988
0.519580 0.793627 0.479997
0.522854 0.793632 0.480071
0.535499 0.793654 0.480378
0.568654 0.793734 0.481393
0.619514 0.794931 0.457563
0.656234 0.807430 -8.268012
0.804583 0.800031 -9.127378
0.916078 0.816712 0.469466
0.632054 0.923752 0.605485
0.632216 0.923755 0.605489
0.633465 0.923776 0.605512
0.638582 0.923865 0.605614
0.644072 0.924470 0.598863
0.656847 0.926500 0.568616
0.731371 0.930491 0.528089
-575.707092 0.999740 -446.899841
0.992067 0.990656 -1.393421
0.666211 0.767773 -598.095032
-1.141662 -4.828992 0.616998
0.379001 -0.107138 0.385018
0.469711 -0.183831 0.317587
0.548065 -0.406184 0.264886
0.624533 -0.536135 0.260171
0.704167 -0.376366 0.303057
0.790516 0.258284 0.372881
0.894901 0.445705 0.467911
-0.139868 0.035189 0.444325
0.221630 0.222842 0.380784
0.369656 0.086039 0.372834
0.459874 0.062905 0.324178
0.545710 -0.245109 0.274703
0.624148 -0.447068 0.263677
0.704119 -0.324057 0.303705
0.790513 0.268826 0.372982
0.894904 0.446893 0.467936
-0.044052 0.359557 0.359579
0.200832 0.351092 0.350694
0.341926 0.341927 0.341926
0.438607 0.339053 0.338050
0.072906 0.072906 0.072906
0.621724 0.165150 0.283996
0.703779 0.070446 0.308335
0.790490 0.322603 0.373745
0.894927 0.455514 0.468124
-0.155189 0.451613 0.302794
0.024131 0.448867 0.309635
0.337179 0.438923 0.332562
0.434244 0.434653 0.337273
0.527728 0.429540 0.329152
0.625543 0.348154 0.205413
0.702647 0.397790 0.323051
0.790402 0.413817 0.376819
0.895024 0.484591 0.468917
-0.161625 0.534061 0.283113
-0.061467 0.533601 0.287221
0.308220 0.530818 0.309440
0.395214 0.533870 0.195912
0.523801 0.523952 0.325728
0.614693 0.517243 0.321586
0.702277 0.505663 0.323832
0.790193 0.511906 0.385849
0.895368 0.543356 0.471623
0.216486 0.616162 0.321551
0.240132 0.616101 0.322419
0.326873 0.615663 0.328442
0.429626 0.614321 0.344742
0.474006 0.621165 -0.575481
0.612354 0.610605 -0.259665
0.701182 0.604409 0.327685
0.791838 0.598954 0.367488
0.897591 0.609396 0.456077
0.403493 0.700632 0.395342
0.405442 0.700626 0.395436
0.419021 0.700579 0.396139
0.459728 0.700397 0.398871
0.522950 0.700497 0.392200
0.661747 -277.268280 0.943312
0.702581 0.697809 -2.607938
0.794385 0.697007 0.357064
0.902796 0.703666 0.430457
0.519206 0.793631 0.485370
0.519640 0.793632 0.485380
0.522915 0.793637 0.485450
0.535552 0.793659 0.485741
0.568690 0.793739 0.486700
0.618556 0.795032 0.461328
0.581980 0.812714 -9.409917
0.803848 0.800179 -8.498982
0.916194 0.816584 0.471580
0.632073 0.923767 0.607267
0.632236 0.923770 0.607270
0.633484 0.923791 0.607294
0.638599 0.923880 0.607396
0.644052 0.924486 0.600758
0.656845 0.926516 0.571275
0.730668 0.930559 0.529180
-534.991089 0.997506 -388.989624
0.992122 0.990699 -1.309433
1.439826 -184801.984375 1.035887
-41.821037 -147.969986 0.893086
0.303794 -1.823187 0.559895
0.457738 -0.224719 0.461539
0.543311 -0.273174 0.426178
0.623485 -0.430002 0.404847
0.703991 -0.326366 0.405986
0.790511 0.264226 0.431168
0.894949 0.446059 0.493687
-1.502376 -2.810741 0.601350
-0.931347 -1.989329 0.580511
0.328894 -0.426279 0.508784
0.453059 -0.006808 0.455243
0.541594 -0.137882 0.426588
0.623135 -0.346337 0.405680
0.703945 -0.274651 0.406231
0.790508 0.274063 0.431222
0.894952 0.447240 0.493705
-0.182594 0.320579 0.487552
0.111792 0.332415 0.470635
0.341907 0.343694 0.442073
0.438780 0.336922 0.438288
0.613022 -4.421027 0.264637
0.620912 0.211316 0.410828
0.703612 0.115392 0.407994
0.790485 0.325335 0.431634
0.894975 0.455833 0.493849
-0.084161 0.445070 0.444887
0.064091 0.443583 0.443317
0.336073 0.437584 0.437179
0.433957 0.433957 0.433957
0.526333 0.430191 0.430429
0.625246 0.351077 0.388127
0.702508 0.399397 0.413763
0.790399 0.414668 0.433298
0.895073 0.484833 0.494458
-0.095989 0.532867 0.419250
-0.002341 0.532465 0.419869
0.312444 0.529994 0.423675
-0.175482 0.546252 0.330078
0.523341 0.523458 0.426820
0.615147 0.516300 0.414922
0.703506 0.499954 0.402807
0.790193 0.512119 0.438259
0.895416 0.543494 0.496543
0.233719 0.615950 0.416479
0.253141 0.615891 0.416774
0.330927 0.615467 0.418858
0.430173 0.614169 0.424885
0.513239 0.614591 0.407257
0.610641 0.610562 0.416791
0.701415 0.604125 0.407385
0.793147 0.592830 0.405093
0.897653 0.609343 0.484108
0.404720 0.700604 0.443771
0.406643 0.700598 0.443826
0.420027 0.700552 0.444238
0.460272 0.700372 0.445824
0.522837 0.700510 0.441205
0.599306 0.702244 0.365833
0.699438 0.698905 0.384735
0.793596 0.697227 0.429062
0.903570 0.700076 0.443667
0.519469 0.793653 0.505005
0.519906 0.793654 0.505012
0.523168 0.793659 0.505070
0.535775 0.793681 0.505310
0.568838 0.793762 0.506097
0.614602 0.795440 0.476084
0.673801 0.803848 -5.781800
0.801930 0.800302 -3.590091
0.916677 0.816047 0.479987
0.632144 0.923830 0.614454
0.632308 0.923833 0.614458
0.633557 0.923854 0.614481
0.638672 0.923944 0.614581
0.643998 0.924553 0.608396
0.656863 0.926583 0.581768
0.727624 0.930848 0.533696
-400.394104 0.990111 -235.762085
0.992355 0.990878 -0.954251
-13.622748 -36.648708 0.786330
-10.575899 -27.921757 0.765762
-2.523205 -8.070848 0.677579
0.436295 -1.388638 0.582840
0.536643 -0.273622 0.538628
0.620903 -0.237546 0.519964
0.703453 -0.184067 0.510524
0.790495 0.282040 0.515116
0.895106 0.447369 0.548133
-5.333063 -11.715131 0.705607
-4.563667 -10.140774 0.695808
-1.317419 -4.483591 0.644583
0.436131 -0.987408 0.575539
0.535871 -0.158165 0.537608
0.620658 -0.163549 0.519972
0.703413 -0.134047 0.510594
0.790492 0.290024 0.515138
0.895109 0.448541 0.548143
-0.483985 -0.085024 0.579518
-0.231820 0.139012 0.571918
0.280882 0.244754 0.562715
0.434742 0.292316 0.547090
0.531550 0.301695 0.532117
0.619052 0.259253 0.520038
0.703116 0.215495 0.511100
0.790471 0.334148 0.515309
0.895132 0.457016 0.548230
-0.153366 0.431055 0.550665
-0.010809 0.431743 0.548261
0.331309 0.434554 0.536721
0.434616 0.435462 0.527816
0.525986 0.430301 0.525897
0.625735 0.319461 0.514548
0.702121 0.404051 0.512778
0.790390 0.417582 0.516000
0.895230 0.485701 0.548593
0.044125 0.529582 0.529245
0.125144 0.529365 0.529019
0.321289 0.527976 0.527584
-10.867290 0.573715 0.581348
0.522995 0.522995 0.522995
0.615639 0.514662 0.515967
0.703671 0.498858 0.506536
0.790199 0.512889 0.518059
0.895575 0.543989 0.549847
0.270495 0.615286 0.517548
0.282953 0.615236 0.517600
0.342224 0.614872 0.517976
0.432152 0.613756 0.519068
0.494324 0.618087 0.500047
0.610917 0.610751 0.508047
0.704472 0.599955 0.490877
0.794688 0.585535 0.490324
0.897867 0.609060 0.541667
0.408759 0.700521 0.520822
0.410573 0.700516 0.520843
0.423301 0.700472 0.521005
0.462126 0.700300 0.521632
0.523299 0.700484 0.519290
0.601442 0.702059 0.497913
0.699614 0.699232 0.496702
0.795933 0.694227 0.482934
0.906051 0.687288 0.476724
0.520401 0.793729 0.550566
0.520831 0.793730 0.550570
0.524061 0.793735 0.550607
0.536542 0.793757 0.550761
0.569369 0.793840 0.551274
0.610526 0.795929 0.527764
0.698358 0.798149 0.494504
0.800792 0.800264 0.498931
0.918294 0.814215 0.503139
0.632406 0.924048 0.635561
0.632571 0.924051 0.635564
0.633817 0.924072 0.635587
0.638927 0.924161 0.635683
0.644014 0.924779 0.630704
0.656719 0.926822 0.610480
0.716218 0.931831 0.547997
-169.153549 0.977345 -90.420128
0.993160 0.991500 0.224321
-4.653673 -8.906211 0.711713
-4.443151 -8.638238 0.710124
-3.015334 -6.920686 0.699075
0.334319 -3.495756 0.670342
0.527147 -0.943372 0.637283
0.617201 -0.031628 0.618025
0.702270 0.151236 0.608532
0.790473 0.322334 0.606712
0.895561 0.452010 0.625260
-4.035902 -7.477647 0.703948
-3.851407 -7.265350 0.702540
-2.598952 -5.917649 0.692918
0.347637 -3.077565 0.667167
0.527015 -0.811796 0.636418
0.617095 0.032366 0.617891
0.702242 0.189805 0.608529
0.790471 0.327276 0.606720
0.895564 0.453121 0.625266
-1.654441 -2.265458 0.667919
-1.557742 -2.213923 0.667298
-0.863403 -1.873424 0.663020
0.393118 -0.964405 0.650011
0.526178 0.046643 0.631037
0.616359 0.291499 0.616964
0.702037 0.300708 0.608515
0.790453 0.357697 0.606777
0.895587 0.461193 0.625314
-0.192743 0.405311 0.637573
-0.083582 0.407984 0.636552
0.312621 0.421878 0.630370
0.428697 0.428421 0.625244
0.524534 0.428747 0.620320
0.639627 -6.278786 0.651923
0.701321 0.415258 0.608473
0.790389 0.426553 0.607012
0.895687 0.488778 0.625517
0.188140 0.524316 0.624048
0.226428 0.524346 0.623755
0.333547 0.524540 0.621788
0.433153 0.524566 0.618152
0.521714 0.521735 0.617805
0.613751 0.515093 0.614126
0.703769 0.496088 0.606878
0.790242 0.515514 0.607729
0.896036 0.545708 0.626223
0.324300 0.613843 0.613412
0.330464 0.613815 0.613384
0.366327 0.613613 0.613181
0.438786 0.612932 0.612507
-1.548536 0.625711 0.626396
0.610114 0.610114 0.610114
0.706744 0.595665 0.598408
0.795111 0.585126 0.595833
0.898480 0.608364 0.621505
0.420140 0.700347 0.609367
0.421700 0.700342 0.609371
0.432749 0.700306 0.609400
0.467731 0.700163 0.609516
0.525054 0.700421 0.608679
0.589708 0.704643 0.593823
0.700730 0.700193 0.584731
0.802186 0.685528 0.559145
0.909649 0.666825 0.568906
0.523339 0.793971 0.621201
0.523756 0.793972 0.621204
0.526877 0.793978 0.621224
0.538982 0.794002 0.621308
0.571052 0.794090 0.621593
0.610958 0.796260 0.611072
0.689856 0.800662 0.573507
0.802067 0.801131 0.569758
0.922953 0.808583 0.548593
0.633239 0.924727 0.680716
0.633405 0.924730 0.680719
0.634646 0.924751 0.680740
0.639360 0.924852 0.680728
0.643581 0.925498 0.677484
0.656506 0.927555 0.665967
0.689147 0.933970 0.608353
0.505199 0.968057 -60.314976
0.995656 0.993459 0.473289
-1.632969 -3.069234 0.731586
-1.570507 -3.046416 0.731457
-1.099453 -2.880657 0.730509
0.334420 -2.275526 0.726933
0.514031 -1.022756 0.718736
0.612955 0.235311 0.708277
0.700671 0.352005 0.700860
0.790617 0.389964 0.698932
0.896848 0.467747 0.713152
-1.559683 -2.894693 0.730991
-1.498604 -2.873965 0.730871
-1.032468 -2.714931 0.729949
0.339771 -2.135421 0.726476
0.514255 -0.927049 0.718474
0.612937 0.254972 0.708193
0.700660 0.355858 0.700847
0.790616 0.392143 0.698933
0.896851 0.468678 0.713156
-1.076290 -1.716626 0.727001
-1.019118 -1.700833 0.726901
-0.586443 -1.586204 0.726161
0.368988 -1.162508 0.723348
0.515792 -0.239381 0.716644
0.612802 0.333397 0.707586
0.700577 0.380498 0.700748
0.790609 0.407149 0.698946
0.896876 0.475497 0.713188
0.102613 0.393309 0.716870
0.152274 0.393740 0.716806
0.295951 0.396644 0.716350
0.416465 0.403724 0.714952
0.520065 0.418490 0.711323
0.612357 0.433858 0.705585
0.700267 0.440717 0.700382
0.790584 0.451174 0.699000
0.896979 0.499517 0.713326
0.337891 0.522042 0.709500
0.343728 0.522184 0.709395
0.377786 0.523177 0.708646
0.446971 0.526155 0.706248
0.524654 0.525655 0.705147
0.611590 0.522008 0.703702
0.704184 0.471388 0.705522
0.790694 0.522375 0.699167
0.897341 0.551764 0.713804
0.386999 0.612656 0.703698
0.389658 0.612655 0.703669
0.407524 0.612647 0.703451
0.456008 0.612611 0.702670
-40.308090 -14.083695 0.828997
0.606290 0.605324 0.709888
0.703335 0.596418 0.704249
0.795606 0.585550 0.697823
0.900118 0.607565 0.711778
0.447170 0.700348 0.699860
0.448255 0.700345 0.699858
0.456150 0.700327 0.699841
0.483067 0.700253 0.699777
0.531857 0.700465 0.700042
0.554705 0.706065 0.706070
0.699685 0.699685 0.699685
0.807681 0.676096 0.682257
0.911604 0.666056 0.693167
0.532149 0.794767 0.705648
0.532522 0.794768 0.705650
0.535348 0.794774 0.705662
0.546389 0.794803 0.705711
0.576268 0.794906 0.705882
0.612767 0.797126 0.703070
0.676830 0.804354 0.684972
0.805202 0.803797 0.656954
0.935415 0.789265 0.616088
0.635820 0.926753 0.751042
0.635982 0.926756 0.751044
0.636887 0.926786 0.751026
0.638158 0.926975 0.750640
0.642534 0.927631 0.749264
0.655379 0.929739 0.744465
0.688271 0.936319 0.724793
-407.731812 0.990729 -77.637238
1.002987 0.999427 0.581468
0.425340 0.428333 0.796359
0.426799 0.428418 0.796351
0.437197 0.429072 0.796289
0.470738 0.431673 0.796033
0.533806 0.439203 0.795237
0.614306 0.453267 0.793471
0.700739 0.468138 0.791286
0.792168 0.480852 0.792000
0.900791 0.511854 0.807476
0.425711 0.430205 0.796326
0.427163 0.430291 0.796318
0.437514 0.430922 0.796255
0.470934 0.433441 0.796001
0.533875 0.440744 0.795211
0.614318 0.454452 0.793454
0.700739 0.469019 0.791281
0.792169 0.481568 0.792001
0.900794 0.512420 0.807480
0.428432 0.443183 0.796076
0.429831 0.443252 0.796068
0.439835 0.443759 0.796009
0.472379 0.445765 0.795767
0.534392 0.451634 0.795014
0.614401 0.462974 0.793333
0.700737 0.475470 0.791243
0.792177 0.486871 0.792010
0.900821 0.516657 0.807509
0.437936 0.481555 0.795151
0.439165 0.481585 0.795145
0.448014 0.481814 0.795096
0.477596 0.482735 0.794897
0.536333 0.485493 0.794280
0.614731 0.491231 0.792872
0.700731 0.498224 0.791098
0.792212 0.506238 0.792048
0.900934 0.532610 0.807631
0.456902 0.544870 0.793087
0.457849 0.544877 0.793083
0.464778 0.544924 0.793052
0.489045 0.545120 0.792924
0.541038 0.545545 0.792569
0.615651 0.546414 0.791752
0.700753 0.547664 0.790733
0.792350 0.551325 0.792197
0.901332 0.572194 0.808058
0.471400 0.618729 0.791669
0.472230 0.618737 0.791661
0.478317 0.618794 0.791604
0.499961 0.619017 0.791379
0.544993 0.618511 0.791563
0.612998 0.613405 0.794154
0.701011 0.608773 0.794721
0.795626 0.599253 0.796237
0.904492 0.612211 0.808948
0.499242 0.702927 0.791050
0.499801 0.702927 0.791048
0.503966 0.702929 0.791038
0.519627 0.702940 0.790998
0.554799 0.702872 0.791460
-44.413300 0.640700 0.868673
0.692978 0.689981 0.811105
0.803801 0.677858 0.805709
0.915901 0.666215 0.809465
0.556352 0.797715 0.797194
0.556638 0.797716 0.797196
0.558793 0.797725 0.797206
0.567390 0.797764 0.797249
0.590921 0.797940 0.797440
0.620390 0.799687 0.799302
0.662306 0.806278 0.806268
0.805387 0.805387 0.805387
0.950941 0.759909 0.784922
0.632929 0.933219 0.840232
0.632970 0.933225 0.840231
0.633270 0.933271 0.840222
0.634541 0.933465 0.840181
0.638871 0.934143 0.840032
0.651893 0.936316 0.839464
0.684685 0.943171 0.836601
0.756441 0.965741 0.809025
1.025452 1.018872 0.679480
0.565325 0.585735 0.886294
0.565572 0.585736 0.886294
0.567442 0.585745 0.886301
0.574958 0.585782 0.886329
0.596842 0.585906 0.886427
0.642936 0.586271 0.886765
0.713422 0.587190 0.887986
0.801838 0.589514 0.892875
0.915183 0.594382 0.915210
0.565341 0.585937 0.886294
0.565587 0.585939 0.886295
0.567456 0.585948 0.886302
0.574971 0.585983 0.886330
0.596853 0.586108 0.886428
0.642942 0.586471 0.886766
0.713425 0.587390 0.887988
0.801840 0.589718 0.892877
0.915188 0.594625 0.915214
0.565462 0.587474 0.886301
0.565707 0.587477 0.886301
0.567573 0.587485 0.886308
0.575078 0.587519 0.886336
0.596935 0.587640 0.886435
0.642991 0.587997 0.886775
0.713451 0.588907 0.888001
0.801862 0.591258 0.892898
0.915222 0.596464 0.915249
0.565960 0.593708 0.886328
0.566203 0.593709 0.886329
0.568059 0.593717 0.886336
0.575522 0.593750 0.886364
0.597278 0.593860 0.886467
0.643194 0.594192 0.886814
0.713561 0.595071 0.888058
0.801955 0.597513 0.892987
0.915366 0.603877 0.915397
0.567608 0.612310 0.886443
0.567848 0.612311 0.886445
0.569670 0.612318 0.886451
0.577000 0.612347 0.886482
0.598423 0.612438 0.886592
0.643883 0.612719 0.886964
0.713944 0.613549 0.888265
0.802282 0.616279 0.893298
0.915871 0.625632 0.915915
0.572094 0.653263 0.886978
0.572325 0.653265 0.886979
0.574076 0.653281 0.886984
0.581146 0.653348 0.887007
0.601734 0.653449 0.887132
0.645969 0.653721 0.887560
0.715175 0.654623 0.889006
0.803431 0.654505 0.895033
0.918790 0.644752 0.919303
0.582648 0.719689 0.889447
0.582857 0.719691 0.889448
0.584431 0.719702 0.889456
0.590824 0.719748 0.889494
0.609890 0.719905 0.889629
0.635132 0.713566 0.894734
0.701311 0.693368 0.910461
0.809387 0.680062 0.916431
0.928239 0.682924 0.930208
0.611894 0.810256 0.899643
0.612056 0.810258 0.899645
0.613280 0.810271 0.899660
0.618302 0.810329 0.899722
0.627521 0.810400 0.900612
0.644827 0.810306 0.904478
-3.459850 0.802521 0.940099
0.791320 0.757189 0.978569
0.959284 0.758249 0.965065
0.577045 0.956646 0.956354
0.577106 0.956653 0.956361
0.577557 0.956700 0.956410
0.579456 0.956901 0.956617
0.585768 0.957605 0.957342
0.603454 0.959872 0.959677
0.643532 0.967086 0.967100
0.714599 0.991767 0.992423
1.114573 1.114573 1.114573
