OCIO/luts/ACES2_Candidates_rev060/ACES2 Candidate CAMDRT rev060 Rec2100 (P3D65 10000nit Limited)_inverse.cube
TITLE "Generated by Foundry::LUT"
LUT_3D_SIZE 5
0.072906 0.072906 0.072906
0.406510 -0.135264 0.062059
0.549707 -0.490625 0.034539
0.704215 -0.391156 0.219009
0.894888 0.445608 0.459456
-0.100155 0.372593 0.039032
0.349573 0.343640 0.035779
0.536316 0.303048 0.127665
0.703826 0.057176 0.230918
0.894914 0.455429 0.459688
-0.184476 0.534360 0.060930
0.306757 0.531072 0.180279
0.531815 0.520760 -1.127030
0.702079 0.506846 0.273206
0.895355 0.543321 0.463509
0.403161 0.700639 0.375679
0.418774 0.700586 0.376687
0.524614 0.700336 0.376995
0.697315 0.696519 -0.212725
0.902589 0.704597 0.426322
0.632052 0.923750 0.605250
0.633466 0.923774 0.605277
0.644072 0.924468 0.598613
0.731459 0.930483 0.527945
0.992059 0.990650 -1.404238
0.666211 0.767773 -598.095032
0.379001 -0.107138 0.385018
0.548065 -0.406184 0.264886
0.704167 -0.376366 0.303057
0.894901 0.445705 0.467911
-0.044052 0.359557 0.359579
0.341926 0.341927 0.341926
0.072906 0.072906 0.072906
0.703779 0.070446 0.308335
0.894927 0.455514 0.468124
-0.161625 0.534061 0.283113
0.308220 0.530818 0.309440
0.523801 0.523952 0.325728
0.702277 0.505663 0.323832
0.895368 0.543356 0.471623
0.403493 0.700632 0.395342
0.419021 0.700579 0.396139
0.522950 0.700497 0.392200
0.702581 0.697809 -2.607938
0.902796 0.703666 0.430457
0.632073 0.923767 0.607267
0.633484 0.923791 0.607294
0.644052 0.924486 0.600758
0.730668 0.930559 0.529180
0.992122 0.990699 -1.309433
-13.622748 -36.648708 0.786330
-2.523205 -8.070848 0.677579
0.536643 -0.273622 0.538628
0.703453 -0.184067 0.510524
0.895106 0.447369 0.548133
-0.483985 -0.085024 0.579518
0.280882 0.244754 0.562715
0.531550 0.301695 0.532117
0.703116 0.215495 0.511100
0.895132 0.457016 0.548230
0.044125 0.529582 0.529245
0.321289 0.527976 0.527584
0.522995 0.522995 0.522995
0.703671 0.498858 0.506536
0.895575 0.543989 0.549847
0.408759 0.700521 0.520822
0.423301 0.700472 0.521005
0.523299 0.700484 0.519290
0.699614 0.699232 0.496702
0.906051 0.687288 0.476724
0.632406 0.924048 0.635561
0.633817 0.924072 0.635587
0.644014 0.924779 0.630704
0.716218 0.931831 0.547997
0.993160 0.991500 0.224321
-1.632969 -3.069234 0.731586
-1.099453 -2.880657 0.730509
0.514031 -1.022756 0.718736
0.700671 0.352005 0.700860
0.896848 0.467747 0.713152
-1.076290 -1.716626 0.727001
-0.586443 -1.586204 0.726161
0.515792 -0.239381 0.716644
0.700577 0.380498 0.700748
0.896876 0.475497 0.713188
0.337891 0.522042 0.709500
0.377786 0.523177 0.708646
0.524654 0.525655 0.705147
0.704184 0.471388 0.705522
0.897341 0.551764 0.713804
0.447170 0.700348 0.699860
0.456150 0.700327 0.699841
0.531857 0.700465 0.700042
0.699685 0.699685 0.699685
0.911604 0.666056 0.693167
0.635820 0.926753 0.751042
0.636887 0.926786 0.751026
0.642534 0.927631 0.749264
0.688271 0.936319 0.724793
1.002987 0.999427 0.581468
0.565325 0.585735 0.886294
0.567442 0.585745 0.886301
0.596842 0.585906 0.886427
0.713422 0.587190 0.887986
0.915183 0.594382 0.915210
0.565462 0.587474 0.886301
0.567573 0.587485 0.886308
0.596935 0.587640 0.886435
0.713451 0.588907 0.888001
0.915222 0.596464 0.915249
0.567608 0.612310 0.886443
0.569670 0.612318 0.886451
0.598423 0.612438 0.886592
0.713944 0.613549 0.888265
0.915871 0.625632 0.915915
0.582648 0.719689 0.889447
0.584431 0.719702 0.889456
0.609890 0.719905 0.889629
0.701311 0.693368 0.910461
0.928239 0.682924 0.930208
0.577045 0.956646 0.956354
0.577557 0.956700 0.956410
0.585768 0.957605 0.957342
0.643532 0.967086 0.967100
1.114573 1.114573 1.114573
