OCIO/luts/ACES2_Candidates_rev060/ACES2 Candidate CAMDRT rev060 Rec2100 (P3D65 10000nit Limited).cube
TITLE "Generated by Foundry::LUT"
LUT_3D_SIZE 65
0.000001 0.000001 0.000001
0.000001 0.000001 0.000001
0.000001 0.000001 0.000001
0.000001 0.000001 0.000001
0.000001 0.000001 0.000001
0.000757 0.000174 0.000084
0.004841 0.001092 0.000492
0.009857 0.002334 0.001053
0.015178 0.003761 0.001716
0.020585 0.005308 0.002452
0.025979 0.006934 0.003242
0.031911 0.008808 0.004172
0.038924 0.011128 0.005346
0.047136 0.013975 0.006818
0.056655 0.017432 0.008645
0.067574 0.021588 0.010891
0.079968 0.026527 0.013621
0.093883 0.032328 0.016899
0.109328 0.039058 0.020787
0.126284 0.046768 0.025338
0.144679 0.055487 0.030595
0.164413 0.065220 0.036587
0.185343 0.075946 0.043324
0.207302 0.087620 0.050801
0.230103 0.100171 0.058992
0.253560 0.113515 0.067856
0.277488 0.127557 0.077345
0.301727 0.142203 0.087400
0.326138 0.157361 0.097965
0.350617 0.172954 0.108985
0.375088 0.188918 0.120417
0.399503 0.205206 0.132222
0.423839 0.221780 0.144372
0.448089 0.238619 0.156846
0.472251 0.255707 0.169628
0.496346 0.273036 0.182707
0.520372 0.290595 0.196070
0.544346 0.308376 0.209706
0.568274 0.326368 0.223600
0.592143 0.344553 0.237732
0.615961 0.362907 0.252077
0.639699 0.381403 0.266603
0.663339 0.400003 0.281267
0.686851 0.418662 0.296015
0.710106 0.437221 0.310691
0.732664 0.455177 0.324740
0.755020 0.472980 0.338578
0.777134 0.490573 0.352134
0.798978 0.507902 0.365328
0.820512 0.524909 0.378073
0.841702 0.541528 0.390263
0.862531 0.560986 0.402068
0.882911 0.580542 0.413165
0.902764 0.599834 0.423415
0.922034 0.618781 0.432674
0.940638 0.637282 0.440798
0.958513 0.655244 0.447625
0.970316 0.667246 0.472448
0.970767 0.695371 0.549430
0.971699 0.738470 0.614492
0.972700 0.771402 0.663624
0.973784 0.798327 0.703650
0.974970 0.821707 0.738334
0.976287 0.842793 0.769568
0.977756 0.862336 0.798492
0.000001 0.000001 0.000001
0.000001 0.000001 0.000001
0.000001 0.000001 0.000001
0.000001 0.000001 0.000001
0.000001 0.000001 0.000001
0.000757 0.000174 0.000084
0.004841 0.001092 0.000492
0.009857 0.002334 0.001053
0.015178 0.003761 0.001716
0.020585 0.005308 0.002452
0.025979 0.006934 0.003242
0.031911 0.008808 0.004172
0.038924 0.011128 0.005346
0.047136 0.013975 0.006818
0.056655 0.017432 0.008645
0.067574 0.021588 0.010891
0.079968 0.026527 0.013621
0.093883 0.032328 0.016899
0.109328 0.039058 0.020787
0.126284 0.046768 0.025338
0.144679 0.055487 0.030595
0.164413 0.065220 0.036587
0.185343 0.075946 0.043324
0.207302 0.087620 0.050801
0.230103 0.100171 0.058992
0.253560 0.113515 0.067856
0.277488 0.127557 0.077344
0.301727 0.142203 0.087399
0.326138 0.157361 0.097965
0.350617 0.172954 0.108984
0.375088 0.188918 0.120417
0.399503 0.205206 0.132222
0.423839 0.221780 0.144372
0.448089 0.238619 0.156846
0.472251 0.255707 0.169628
0.496346 0.273036 0.182707
0.520372 0.290595 0.196070
0.544346 0.308376 0.209706
0.568274 0.326368 0.223600
0.592143 0.344553 0.237732
0.615961 0.362907 0.252077
0.639699 0.381403 0.266603
0.663339 0.400003 0.281267
0.686851 0.418662 0.296015
0.710106 0.437221 0.310691
0.732667 0.455181 0.324740
0.755020 0.472977 0.338578
0.777134 0.490573 0.352134
0.798978 0.507902 0.365328
0.820512 0.524909 0.378073
0.841702 0.541528 0.390263
0.862531 0.560986 0.402072
0.882903 0.580536 0.413169
0.902764 0.599834 0.423415
0.922034 0.618781 0.432674
0.940638 0.637282 0.440798
0.958513 0.655244 0.447625
0.970316 0.667246 0.472448
0.970767 0.695371 0.549430
0.971699 0.738470 0.614492
0.972704 0.771402 0.663624
0.973784 0.798327 0.703650
0.974970 0.821707 0.738334
0.976287 0.842793 0.769571
0.977756 0.862336 0.798492
0.000001 0.000001 0.000001
0.000001 0.000001 0.000001
0.000001 0.000001 0.000001
0.000001 0.000001 0.000001
0.000001 0.000001 0.000001
0.000757 0.000174 0.000084
0.004841 0.001092 0.000492
0.009857 0.002334 0.001053
0.015178 0.003761 0.001716
0.020585 0.005308 0.002452
0.025979 0.006934 0.003242
0.031911 0.008808 0.004172
0.038924 0.011128 0.005346
0.047136 0.013975 0.006818
0.056655 0.017432 0.008645
0.067574 0.021588 0.010891
0.079968 0.026527 0.013621
0.093883 0.032328 0.016899
0.109328 0.039058 0.020787
0.126284 0.046768 0.025338
0.144679 0.055487 0.030595
0.164413 0.065220 0.036587
0.185343 0.075946 0.043324
0.207302 0.087620 0.050801
0.230103 0.100171 0.058992
0.253560 0.113515 0.067856
0.277488 0.127557 0.077344
0.301727 0.142203 0.087399
0.326138 0.157361 0.097965
0.350617 0.172954 0.108985
0.375088 0.188918 0.120417
0.399503 0.205206 0.132222
0.423839 0.221780 0.144372
0.448089 0.238619 0.156846
0.472251 0.255707 0.169628
0.496346 0.273036 0.182707
0.520372 0.290595 0.196070
0.544346 0.308376 0.209706
0.568274 0.326368 0.223600
0.592143 0.344553 0.237732
0.615961 0.362907 0.252077
0.639699 0.381403 0.266603
0.663339 0.400003 0.281267
0.686851 0.418662 0.296015
0.710106 0.437221 0.310691
0.732667 0.455181 0.324740
0.755020 0.472977 0.338578
0.777134 0.490573 0.352134
0.798978 0.507902 0.365328
0.820512 0.524909 0.378073
0.841702 0.541528 0.390263
0.862531 0.560986 0.402068
0.882903 0.580536 0.413169
0.902764 0.599834 0.423415
0.922034 0.618781 0.432674
0.940638 0.637285 0.440800
0.958513 0.655244 0.447625
0.970316 0.667246 0.472448
0.970767 0.695371 0.549430
0.971699 0.738470 0.614492
0.972704 0.771402 0.663624
0.973784 0.798327 0.703647
0.974970 0.821711 0.738334
0.976287 0.842793 0.769571
0.977756 0.862336 0.798492
0.000001 0.000001 0.000001
0.000001 0.000001 0.000001
0.000001 0.000001 0.000001
0.000001 0.000001 0.000001
0.000001 0.000001 0.000001
0.000757 0.000174 0.000084
0.004841 0.001092 0.000492
0.009857 0.002334 0.001053
0.015178 0.003761 0.001716
0.020585 0.005308 0.002452
0.025979 0.006934 0.003242
0.031911 0.008808 0.004172
0.038924 0.011128 0.005346
0.047136 0.013975 0.006818
0.056655 0.017432 0.008645
0.067574 0.021588 0.010891
0.079968 0.026527 0.013621
0.093883 0.032328 0.016899
0.109328 0.039058 0.020787
0.126284 0.046768 0.025338
0.144679 0.055487 0.030595
0.164413 0.065220 0.036587
0.185343 0.075946 0.043324
0.207302 0.087620 0.050801
0.230103 0.100171 0.058992
0.253560 0.113515 0.067856
0.277488 0.127557 0.077345
0.301727 0.142203 0.087399
0.326138 0.157361 0.097965
0.350617 0.172954 0.108985
0.375088 0.188918 0.120417
0.399503 0.205206 0.132222
0.423839 0.221780 0.144372
0.448089 0.238619 0.156846
0.472251 0.255707 0.169628
0.496346 0.273036 0.182707
0.520372 0.290595 0.196070
0.544346 0.308376 0.209706
0.568274 0.326368 0.223600
0.592143 0.344553 0.237732
0.615961 0.362907 0.252077
0.639699 0.381403 0.266603
0.663339 0.400003 0.281267
0.686851 0.418662 0.296017
0.710106 0.437219 0.310691
0.732667 0.455181 0.324740
0.755020 0.472977 0.338578
0.777134 0.490573 0.352134
0.798978 0.507900 0.365328
0.820512 0.524909 0.378073
0.841702 0.541528 0.390263
0.862531 0.560986 0.402068
0.882911 0.580542 0.413165
0.902764 0.599834 0.423415
0.922034 0.618781 0.432674
0.940638 0.637282 0.440800
0.958513 0.655244 0.447625
0.970316 0.667246 0.472448
0.970767 0.695371 0.549430
0.971699 0.738470 0.614492
0.972704 0.771402 0.663624
0.973784 0.798327 0.703647
0.974970 0.821707 0.738334
0.976287 0.842793 0.769571
0.977756 0.862336 0.798492
0.000001 0.000001 0.000001
0.000001 0.000001 0.000001
0.000001 0.000001 0.000001
0.000001 0.000001 0.000001
0.000001 0.000001 0.000001
0.000757 0.000174 0.000084
0.004841 0.001092 0.000492
0.009857 0.002334 0.001053
0.015178 0.003761 0.001716
0.020585 0.005308 0.002452
0.025979 0.006934 0.003242
0.031911 0.008808 0.004172
0.038924 0.011128 0.005346
0.047136 0.013975 0.006818
0.056655 0.017432 0.008645
0.067574 0.021588 0.010891
0.079968 0.026527 0.013621
0.093883 0.032328 0.016899
0.109328 0.039058 0.020787
0.126284 0.046768 0.025338
0.144679 0.055487 0.030595
0.164413 0.065220 0.036587
0.185343 0.075946 0.043324
0.207302 0.087619 0.050801
0.230103 0.100171 0.058992
0.253560 0.113515 0.067856
0.277488 0.127557 0.077344
0.301727 0.142203 0.087399
0.326138 0.157361 0.097964
0.350617 0.172954 0.108984
0.375088 0.188918 0.120417
0.399503 0.205206 0.132222
0.423839 0.221780 0.144372
0.448089 0.238619 0.156846
0.472251 0.255707 0.169628
0.496346 0.273036 0.182707
0.520372 0.290595 0.196070
0.544346 0.308376 0.209706
0.568274 0.326368 0.223600
0.592143 0.344553 0.237732
0.615961 0.362907 0.252077
0.639699 0.381403 0.266603
0.663339 0.400003 0.281267
0.686851 0.418662 0.296015
0.710106 0.437221 0.310691
0.732664 0.455177 0.324740
0.755020 0.472977 0.338578
0.777134 0.490573 0.352134
0.798978 0.507902 0.365328
0.820512 0.524909 0.378073
0.841698 0.541531 0.390267
0.862531 0.560986 0.402068
0.882903 0.580536 0.413169
0.902764 0.599834 0.423415
0.922034 0.618781 0.432674
0.940638 0.637282 0.440800
0.958513 0.655244 0.447625
0.970316 0.667246 0.472448
0.970767 0.695371 0.549430
0.971699 0.738470 0.614492
0.972704 0.771402 0.663624
0.973784 0.798327 0.703647
0.974970 0.821707 0.738334
0.976287 0.842793 0.769571
0.977756 0.862336 0.798492
0.000504 0.001111 0.000360
0.000504 0.001111 0.000360
0.000504 0.001111 0.000360
0.000504 0.001111 0.000360
0.000504 0.001111 0.000360
0.001797 0.001810 0.000190
0.006867 0.003311 0.000218
0.012484 0.004609 0.000142
0.018273 0.005801 0.000001
0.024078 0.006924 0.000001
0.029582 0.008396 0.000275
0.035443 0.010331 0.001675
0.042364 0.012688 0.002978
0.050473 0.015521 0.004476
0.059857 0.018955 0.006317
0.070613 0.023076 0.008578
0.082819 0.027969 0.011328
0.096526 0.033712 0.014636
0.111752 0.040373 0.018565
0.128479 0.048005 0.023170
0.146643 0.056638 0.028496
0.166150 0.066279 0.034569
0.186862 0.076912 0.041399
0.208615 0.088489 0.048979
0.231227 0.100947 0.057282
0.254514 0.114201 0.066264
0.278292 0.128159 0.075874
0.302397 0.142726 0.086049
0.326695 0.157814 0.096735
0.351080 0.173345 0.107874
0.375469 0.189255 0.119418
0.399818 0.205494 0.131330
0.424097 0.222027 0.143578
0.448299 0.238829 0.156144
0.472426 0.255886 0.169009
0.496487 0.273189 0.182162
0.520493 0.290725 0.195593
0.544447 0.308488 0.209291
0.568355 0.326462 0.223237
0.592213 0.344632 0.237417
0.616011 0.362978 0.251804
0.639741 0.381463 0.266366
0.663374 0.400052 0.281060
0.686884 0.418703 0.295839
0.710130 0.437254 0.310536
0.732685 0.455205 0.324607
0.755031 0.473002 0.338463
0.777148 0.490597 0.352036
0.798993 0.507919 0.365243
0.820527 0.524926 0.377998
0.841714 0.541546 0.390200
0.862539 0.560993 0.402009
0.882911 0.580547 0.413114
0.902764 0.599840 0.423370
0.922034 0.618787 0.432635
0.940647 0.637291 0.440762
0.958513 0.655247 0.447589
0.970320 0.667246 0.472432
0.970772 0.695384 0.549430
0.971699 0.738473 0.614492
0.972704 0.771402 0.663624
0.973789 0.798331 0.703650
0.974975 0.821711 0.738341
0.976282 0.842793 0.769571
0.977756 0.862336 0.798496
0.003264 0.006969 0.002329
0.003264 0.006969 0.002329
0.003264 0.006969 0.002329
0.003264 0.006969 0.002329
0.003264 0.006969 0.002329
0.004392 0.008445 0.000983
0.010858 0.010936 0.001237
0.017036 0.013124 0.001216
0.023082 0.015097 0.001289
0.028987 0.016917 0.001343
0.034747 0.018619 0.001355
0.040985 0.020403 0.001317
0.048286 0.022423 0.001186
0.056764 0.024705 0.000860
0.066530 0.027271 0.000001
0.077683 0.030144 0.000001
0.090302 0.033336 0.000001
0.104100 0.037612 0.000001
0.118679 0.044200 0.007924
0.134747 0.051692 0.014120
0.152278 0.060080 0.020368
0.171160 0.069439 0.027143
0.191263 0.079786 0.034588
0.212437 0.091078 0.042732
0.234511 0.103258 0.051563
0.257308 0.116247 0.061045
0.280648 0.129954 0.071130
0.304373 0.144290 0.081758
0.328342 0.159169 0.092870
0.352445 0.174513 0.104408
0.376599 0.190257 0.116325
0.400749 0.206352 0.128581
0.424865 0.222761 0.141147
0.448932 0.239456 0.153998
0.472946 0.256422 0.167126
0.496913 0.273646 0.180511
0.520841 0.291115 0.194152
0.544736 0.308819 0.208032
0.568591 0.326745 0.222144
0.592409 0.344875 0.236467
0.616174 0.363185 0.250979
0.639877 0.381639 0.265652
0.663483 0.400206 0.280442
0.686971 0.418833 0.295304
0.710203 0.437360 0.310071
0.732747 0.455302 0.324207
0.755088 0.473085 0.338117
0.777200 0.490666 0.351734
0.799031 0.507982 0.364982
0.820562 0.524979 0.377771
0.841738 0.541590 0.390003
0.862567 0.561017 0.401835
0.882936 0.580569 0.412961
0.902781 0.599860 0.423234
0.922051 0.618802 0.432514
0.940656 0.637300 0.440654
0.958526 0.655256 0.447498
0.970320 0.667239 0.472399
0.970772 0.695414 0.549433
0.971699 0.738497 0.614498
0.972704 0.771417 0.663624
0.973784 0.798334 0.703650
0.974975 0.821719 0.738341
0.976287 0.842797 0.769571
0.977756 0.862344 0.798496
0.006770 0.013889 0.004893
0.006770 0.013889 0.004893
0.006770 0.013889 0.004893
0.006770 0.013889 0.004893
0.006770 0.013889 0.004893
0.007689 0.015597 0.003317
0.014392 0.018652 0.002380
0.020980 0.021122 0.002670
0.027234 0.023384 0.002655
0.033244 0.025469 0.002650
0.039043 0.027416 0.002646
0.045280 0.029451 0.002739
0.052526 0.031757 0.002804
0.060906 0.034349 0.002813
0.070519 0.037257 0.002719
0.081476 0.040490 0.002433
0.093859 0.044059 0.001738
0.107714 0.047986 0.000001
0.123072 0.052269 0.000001
0.139928 0.056896 0.000001
0.157732 0.063102 0.000001
0.175970 0.072405 0.015092
0.195466 0.082626 0.025209
0.216098 0.093663 0.034810
0.237677 0.105560 0.044670
0.260016 0.118280 0.054986
0.282944 0.131739 0.065780
0.306305 0.145848 0.077027
0.329956 0.160518 0.088685
0.353787 0.175677 0.100711
0.377716 0.191258 0.113065
0.401668 0.207210 0.125711
0.425625 0.223495 0.138627
0.449559 0.240084 0.151791
0.473462 0.256959 0.165194
0.497342 0.274102 0.178827
0.521199 0.291505 0.192682
0.545022 0.309151 0.206756
0.568831 0.327027 0.221034
0.592606 0.345116 0.235506
0.616337 0.363389 0.250147
0.640011 0.381813 0.264933
0.663599 0.400355 0.279821
0.687066 0.418958 0.294765
0.710277 0.437470 0.309604
0.732816 0.455393 0.323803
0.755145 0.473164 0.337767
0.777243 0.490732 0.351433
0.799076 0.508042 0.364722
0.820597 0.525031 0.377543
0.841769 0.541636 0.389805
0.862587 0.561044 0.401661
0.882957 0.580589 0.412810
0.902803 0.599874 0.423097
0.922060 0.618813 0.432397
0.940665 0.637312 0.440547
0.958535 0.655269 0.447400
0.970316 0.667239 0.472356
0.970772 0.695450 0.549438
0.971699 0.738515 0.614501
0.972704 0.771435 0.663631
0.973789 0.798346 0.703657
0.974970 0.821726 0.738341
0.976287 0.842805 0.769579
0.977756 0.862348 0.798496
0.010572 0.021020 0.007727
0.010572 0.021020 0.007727
0.010572 0.021020 0.007727
0.010572 0.021020 0.007727
0.010572 0.021020 0.007727
0.011561 0.022712 0.006323
0.017655 0.026295 0.003634
0.024598 0.028844 0.004003
0.031006 0.031208 0.004303
0.037095 0.033412 0.004288
0.042927 0.035472 0.004291
0.049163 0.037627 0.004285
0.056377 0.040066 0.004265
0.064680 0.042813 0.004324
0.074185 0.045884 0.004404
0.084981 0.049304 0.004391
0.097163 0.053073 0.004205
0.110779 0.057217 0.003706
0.125882 0.061703 0.002508
0.142443 0.066561 0.000001
0.160435 0.071751 0.000001
0.179781 0.077235 0.000001
0.199621 0.085018 0.001904
0.219683 0.096016 0.022861
0.240735 0.107839 0.035849
0.262637 0.120317 0.047759
0.285177 0.133524 0.059652
0.308191 0.147400 0.071759
0.331540 0.161866 0.084127
0.355106 0.176840 0.096751
0.378806 0.192259 0.109617
0.402578 0.208069 0.122708
0.426380 0.224229 0.136010
0.450181 0.240711 0.149514
0.473979 0.257494 0.163213
0.497764 0.274561 0.177107
0.521542 0.291895 0.191191
0.545311 0.309484 0.205462
0.569068 0.327312 0.219915
0.592802 0.345358 0.234537
0.616500 0.363595 0.249310
0.640141 0.381990 0.264208
0.663709 0.400501 0.279196
0.687153 0.419087 0.294226
0.710351 0.437576 0.309136
0.732875 0.455483 0.323399
0.755198 0.473247 0.337420
0.777287 0.490801 0.351131
0.799110 0.508102 0.364460
0.820632 0.525083 0.377313
0.841797 0.541677 0.389603
0.862608 0.561063 0.401485
0.882970 0.580605 0.412655
0.902820 0.599891 0.422964
0.922077 0.618825 0.432274
0.940683 0.637321 0.440444
0.958553 0.655278 0.447304
0.970316 0.667246 0.472320
0.970772 0.695483 0.549438
0.971699 0.738532 0.614507
0.972704 0.771446 0.663637
0.973789 0.798357 0.703657
0.974975 0.821730 0.738348
0.976282 0.842809 0.769579
0.977747 0.862348 0.798496
0.014493 0.028101 0.010693
0.014493 0.028101 0.010693
0.014493 0.028101 0.010693
0.014493 0.028101 0.010693
0.014493 0.028101 0.010693
0.015533 0.029745 0.009403
0.020730 0.033754 0.004972
0.027956 0.036303 0.005371
0.034519 0.038680 0.005752
0.040659 0.040915 0.006047
0.046513 0.043024 0.006028
0.052745 0.045232 0.006030
0.059929 0.047732 0.006028
0.068170 0.050550 0.006018
0.077577 0.053704 0.005943
0.088241 0.057215 0.006032
0.100249 0.061091 0.006055
0.113673 0.065332 0.005889
0.128534 0.069945 0.005390
0.144830 0.074936 0.004243
0.162566 0.080224 0.000775
0.181632 0.085832 0.000001
0.201923 0.091722 0.000001
0.223220 0.098080 0.000001
0.243788 0.109771 0.021536
0.265214 0.122226 0.038286
0.287349 0.135311 0.052436
0.310032 0.148958 0.065816
0.333089 0.163210 0.079119
0.356406 0.178002 0.092486
0.379889 0.193258 0.105959
0.403475 0.208925 0.119559
0.427118 0.224964 0.133292
0.450796 0.241340 0.147165
0.474485 0.258030 0.161182
0.498187 0.275018 0.175349
0.521893 0.292286 0.189671
0.545598 0.309818 0.204149
0.569305 0.327596 0.218781
0.592996 0.345600 0.233557
0.616664 0.363799 0.248465
0.640277 0.382166 0.263479
0.663816 0.400652 0.278566
0.687244 0.419217 0.293685
0.710421 0.437682 0.308666
0.732934 0.455576 0.322993
0.755248 0.473327 0.337070
0.777331 0.490871 0.350827
0.799151 0.508162 0.364195
0.820662 0.525133 0.377089
0.841825 0.541721 0.389407
0.862636 0.561084 0.401308
0.882995 0.580627 0.412502
0.902837 0.599905 0.422830
0.922095 0.618843 0.432152
0.940691 0.637339 0.440336
0.958562 0.655290 0.447209
0.970316 0.667239 0.472282
0.970772 0.695512 0.549443
0.971699 0.738557 0.614513
0.972704 0.771457 0.663637
0.973789 0.798368 0.703660
0.974970 0.821734 0.738348
0.976282 0.842813 0.769582
0.977747 0.862356 0.798504
0.018448 0.035031 0.013721
0.018448 0.035031 0.013721
0.018448 0.035031 0.013721
0.018448 0.035031 0.013721
0.018448 0.035031 0.013721
0.019472 0.036636 0.012453
0.023664 0.040985 0.006364
0.031113 0.043495 0.006783
0.037805 0.045848 0.007184
0.044013 0.048068 0.007569
0.049870 0.050174 0.007851
0.056092 0.052397 0.007825
0.063245 0.054919 0.007820
0.071430 0.057762 0.007815
0.080749 0.060949 0.007789
0.091295 0.064497 0.007725
0.103154 0.068416 0.007690
0.116391 0.072714 0.007714
0.131044 0.077383 0.007513
0.147121 0.082415 0.006917
0.164592 0.087792 0.005563
0.183406 0.093464 0.001931
0.203451 0.099397 0.000001
0.224586 0.105574 0.000001
0.246647 0.111960 0.000001
0.267781 0.123893 0.023129
0.289510 0.136922 0.042994
0.311830 0.150515 0.058937
0.334609 0.164565 0.073558
0.357682 0.179165 0.087861
0.380957 0.194257 0.102062
0.404368 0.209784 0.116248
0.427857 0.225698 0.130461
0.451407 0.241967 0.144738
0.474992 0.258567 0.159096
0.498605 0.275475 0.173553
0.522235 0.292677 0.188126
0.545885 0.310151 0.202816
0.569540 0.327882 0.217632
0.593189 0.345842 0.232569
0.616821 0.364007 0.247612
0.640410 0.382342 0.262744
0.663925 0.400804 0.277934
0.687338 0.419346 0.293140
0.710498 0.437788 0.308194
0.732999 0.455671 0.322585
0.755305 0.473402 0.336718
0.777379 0.490943 0.350525
0.799189 0.508218 0.363935
0.820697 0.525185 0.376861
0.841857 0.541764 0.389205
0.862648 0.561110 0.401132
0.883015 0.580646 0.412345
0.902854 0.599925 0.422693
0.922108 0.618857 0.432035
0.940709 0.637348 0.440229
0.958571 0.655303 0.447118
0.970320 0.667239 0.472246
0.970772 0.695545 0.549446
0.971699 0.738574 0.614513
0.972704 0.771471 0.663643
0.973789 0.798372 0.703663
0.974975 0.821742 0.738351
0.976287 0.842821 0.769582
0.977747 0.862356 0.798504
0.022833 0.042519 0.017113
0.022833 0.042519 0.017113
0.022833 0.042519 0.017113
0.022833 0.042519 0.017113
0.022833 0.042519 0.017113
0.023836 0.044073 0.015868
0.026795 0.048751 0.007956
0.034437 0.051195 0.008388
0.041245 0.053497 0.008804
0.047517 0.055677 0.009202
0.053399 0.057750 0.009587
0.059597 0.059950 0.009892
0.066711 0.062465 0.009853
0.074835 0.065304 0.009839
0.084065 0.068490 0.009824
0.094492 0.072040 0.009779
0.106198 0.075969 0.009688
0.119253 0.080278 0.009537
0.133695 0.084966 0.009540
0.149540 0.090016 0.009266
0.166763 0.095411 0.008512
0.185307 0.101121 0.006839
0.205090 0.107083 0.002403
0.225978 0.113257 0.000001
0.247812 0.119623 0.000001
0.270423 0.126141 0.000001
0.291904 0.138525 0.026612
0.313840 0.152050 0.049005
0.336266 0.166071 0.066481
0.359076 0.180467 0.082203
0.382126 0.195373 0.097397
0.405342 0.210740 0.112343
0.428671 0.226516 0.127165
0.452080 0.242668 0.141934
0.475551 0.259166 0.156703
0.499066 0.275988 0.171505
0.522618 0.293112 0.186367
0.546200 0.310522 0.201308
0.569801 0.328198 0.216337
0.593408 0.346114 0.231454
0.616999 0.364238 0.246653
0.640555 0.382537 0.261920
0.664044 0.400976 0.277225
0.687439 0.419484 0.292528
0.710576 0.437908 0.307665
0.733068 0.455771 0.322131
0.755362 0.473494 0.336325
0.777427 0.491018 0.350185
0.799230 0.508290 0.363637
0.820736 0.525242 0.376603
0.841884 0.541815 0.388981
0.862685 0.561134 0.400938
0.883036 0.580668 0.412175
0.902875 0.599945 0.422540
0.922125 0.618875 0.431902
0.940718 0.637360 0.440110
0.958576 0.655309 0.447007
0.970320 0.667239 0.472204
0.970781 0.695581 0.549448
0.971699 0.738602 0.614521
0.972704 0.771486 0.663643
0.973789 0.798383 0.703670
0.974975 0.821750 0.738358
0.976282 0.842825 0.769590
0.977756 0.862372 0.798507
0.028052 0.051216 0.021192
0.028052 0.051216 0.021192
0.028052 0.051216 0.021192
0.028052 0.051216 0.021192
0.028052 0.051216 0.021192
0.029024 0.052705 0.019970
0.031660 0.057262 0.012808
0.038233 0.060080 0.010352
0.045147 0.062304 0.010776
0.051478 0.064418 0.011184
0.057387 0.066436 0.011578
0.063582 0.068579 0.012002
0.070639 0.071044 0.012363
0.078688 0.073852 0.012304
0.087815 0.077004 0.012273
0.098110 0.080525 0.012237
0.109652 0.084424 0.012163
0.122505 0.088708 0.012030
0.136717 0.093374 0.011732
0.152304 0.098409 0.011699
0.169254 0.103788 0.011329
0.187511 0.109481 0.010380
0.206992 0.115448 0.008332
0.227592 0.121621 0.002955
0.249164 0.127950 0.000001
0.271536 0.134419 0.000001
0.294544 0.140982 0.000001
0.316249 0.153715 0.030282
0.338278 0.167661 0.055369
0.360730 0.182042 0.074407
0.383515 0.196729 0.091215
0.406501 0.211899 0.107281
0.429643 0.227509 0.122954
0.452888 0.243516 0.138396
0.476224 0.259889 0.153709
0.499625 0.276607 0.168960
0.523079 0.293640 0.184196
0.546583 0.310973 0.199451
0.570117 0.328583 0.214744
0.593669 0.346442 0.230090
0.617215 0.364519 0.245483
0.640734 0.382781 0.260914
0.664192 0.401176 0.276359
0.687559 0.419659 0.291786
0.710673 0.438054 0.307023
0.733151 0.455901 0.321577
0.755437 0.473604 0.335848
0.777489 0.491116 0.349773
0.799287 0.508369 0.363282
0.820778 0.525310 0.376293
0.841928 0.541880 0.388713
0.862717 0.561166 0.400703
0.883069 0.580696 0.411973
0.902892 0.599968 0.422358
0.922147 0.618892 0.431736
0.940740 0.637378 0.439966
0.958594 0.655328 0.446878
0.970320 0.667246 0.472150
0.970781 0.695627 0.549456
0.971699 0.738626 0.614521
0.972704 0.771504 0.663649
0.973789 0.798395 0.703673
0.974970 0.821761 0.738358
0.976287 0.842829 0.769590
0.977747 0.862372 0.798507
0.034195 0.061209 0.026042
0.034195 0.061209 0.026042
0.034195 0.061209 0.026042
0.034195 0.061209 0.026042
0.034195 0.061209 0.026042
0.035128 0.062622 0.024847
0.037703 0.066911 0.018692
0.042549 0.070241 0.012734
0.049553 0.072360 0.013159
0.055934 0.074384 0.013570
0.061863 0.076321 0.013969
0.068056 0.078386 0.014399
0.075078 0.080765 0.014899
0.083027 0.083489 0.015319
0.092036 0.086577 0.015229
0.102181 0.090030 0.015169
0.113540 0.093863 0.015099
0.126178 0.098080 0.014979
0.140138 0.102685 0.014785
0.155445 0.107658 0.014360
0.172089 0.112984 0.014218
0.190030 0.118624 0.013725
0.209192 0.124536 0.012542
0.229465 0.130677 0.010054
0.250730 0.136973 0.003592
0.272829 0.143369 0.000001
0.295590 0.149857 0.000001
0.318866 0.156394 0.000001
0.340698 0.169380 0.034088
0.362743 0.183682 0.062047
0.385157 0.198372 0.082677
0.407883 0.213309 0.100562
0.430798 0.228712 0.117490
0.453852 0.244542 0.133875
0.477024 0.260767 0.149927
0.500289 0.277354 0.165773
0.523632 0.294278 0.181494
0.547039 0.311518 0.197152
0.570495 0.329047 0.212784
0.593984 0.346837 0.228414
0.617475 0.364854 0.244049
0.640946 0.383063 0.259684
