OCIO/luts/ACES2_Candidates_rev060/ACES2 Candidate CAMDRT rev060 Rec2020.cube
TITLE "Generated by Foundry::LUT"
LUT_3D_SIZE 9
0.000000 0.000000 0.000000
0.013606 0.002346 0.000002
0.061162 0.010755 0.000008
0.221402 0.041577 0.000040
0.584733 0.116939 0.000000
1.000000 0.300695 0.143311
1.000000 0.597760 0.459949
1.000000 0.847287 0.785186
1.000000 0.991966 0.988863
0.002876 0.018147 0.000004
0.023501 0.023554 0.000000
0.071551 0.037844 0.000011
0.227915 0.072031 0.000037
0.585885 0.138344 0.000053
1.000000 0.306032 0.143885
1.000000 0.598464 0.460336
1.000000 0.847440 0.785358
1.000000 0.991968 0.988865
0.013086 0.079173 0.000000
0.043958 0.083779 0.000000
0.098279 0.098509 0.000000
0.247645 0.136130 0.000000
0.589917 0.194541 0.000000
1.000000 0.324652 0.144236
1.000000 0.601251 0.461868
1.000000 0.848052 0.786047
1.000000 0.991975 0.988872
0.048282 0.260722 0.000000
0.082665 0.263018 0.000000
0.147599 0.270230 0.000000
0.292092 0.292830 0.000000
0.601156 0.331620 0.000000
1.000000 0.391973 0.143865
1.000000 0.613227 0.468425
1.000000 0.850732 0.789070
1.000000 0.992002 0.988904
0.118924 0.602036 0.000000
0.141681 0.602214 0.000143
0.197892 0.602898 0.000000
0.331921 0.605172 0.000000
0.604396 0.606065 0.000000
1.000000 0.574422 0.105125
1.000000 0.663267 0.498712
1.000000 0.862092 0.801959
1.000000 0.992128 0.989044
0.172717 0.983141 0.000000
0.183795 0.982738 0.000000
0.217667 0.981695 0.000000
0.311419 0.978233 0.000000
0.525395 0.962258 0.000000
0.894792 0.897565 0.000000
1.000000 0.815907 0.613997
1.000000 0.902186 0.849154
1.000000 0.992668 0.989652
0.728823 1.000000 0.620544
0.729081 1.000000 0.620639
0.730111 1.000000 0.621017
0.734614 1.000000 0.622647
0.753946 1.000000 0.629559
0.823458 1.000000 0.651980
0.999017 1.000000 0.549418
1.000000 0.964706 0.924506
0.999978 0.994524 0.991760
0.955123 1.000000 0.932465
0.955133 1.000000 0.932472
0.955173 1.000000 0.932497
0.955353 1.000000 0.932616
0.956165 1.000000 0.933150
0.959582 1.000000 0.935332
0.971336 1.000000 0.942007
0.998684 1.000000 0.939142
0.999914 0.998166 0.996240
0.999162 0.999938 0.998745
0.999162 0.999938 0.998745
0.999162 0.999938 0.998745
0.999164 0.999938 0.998748
0.999175 0.999938 0.998762
0.999221 0.999940 0.998822
0.999418 0.999948 0.999086
1.000000 1.000000 1.000000
1.000000 1.000000 1.000000
0.000006 0.000830 0.009260
0.017383 0.000012 0.017318
0.065482 0.004296 0.033218
0.225436 0.023705 0.059479
0.592349 0.056140 0.067794
1.000000 0.294610 0.160583
1.000000 0.599085 0.464201
1.000000 0.847838 0.786196
1.000000 0.991970 0.988871
0.000000 0.020943 0.020982
0.025734 0.025734 0.025734
0.079781 0.032560 0.033513
0.236703 0.050036 0.052945
0.595615 0.084336 0.060662
1.000000 0.301031 0.161894
1.000000 0.599791 0.464586
1.000000 0.847992 0.786369
1.000000 0.991971 0.988873
0.000040 0.081837 0.041441
0.034199 0.088587 0.037632
0.101180 0.100716 0.036826
0.260132 0.123306 0.038584
0.602557 0.160457 0.044402
1.000000 0.327494 0.170001
1.000000 0.602586 0.466115
1.000000 0.848602 0.787056
1.000000 0.991978 0.988881
0.000000 0.262358 0.064213
0.032940 0.266482 0.049193
0.130611 0.274814 0.030740
0.293028 0.292581 0.027134
0.608669 0.322364 0.032423
1.000000 0.394732 0.170071
1.000000 0.614486 0.472540
1.000000 0.851277 0.790070
1.000000 0.992006 0.988912
0.000000 0.605165 0.000000
0.072475 0.605418 0.000000
0.173749 0.605383 0.000143
0.323617 0.606864 0.000000
0.604186 0.605234 0.000000
1.000000 0.575548 0.136592
1.000000 0.664345 0.502397
1.000000 0.862575 0.802867
1.000000 0.992131 0.989052
0.144627 0.985468 0.000000
0.158641 0.985058 0.000000
0.207720 0.983466 0.000000
0.306118 0.979934 0.000000
0.523854 0.963513 0.000000
0.895004 0.897638 0.000000
1.000000 0.816403 0.616339
1.000000 0.902474 0.849752
1.000000 0.992670 0.989658
0.729487 1.000000 0.622111
0.729745 1.000000 0.622205
0.730772 1.000000 0.622583
0.735267 1.000000 0.624211
0.754535 1.000000 0.631077
0.823795 1.000000 0.653256
0.999039 1.000000 0.550175
1.000000 0.964739 0.924640
0.999978 0.994525 0.991764
0.955154 1.000000 0.932538
0.955164 1.000000 0.932544
0.955204 1.000000 0.932570
0.955382 1.000000 0.932685
0.956193 1.000000 0.933219
0.959607 1.000000 0.935397
0.971347 1.000000 0.942052
0.998685 1.000000 0.939156
0.999914 0.998165 0.996241
0.999162 0.999938 0.998745
0.999162 0.999938 0.998745
0.999163 0.999938 0.998746
0.999164 0.999939 0.998748
0.999175 0.999939 0.998761
0.999221 0.999940 0.998822
0.999418 0.999948 0.999087
1.000000 1.000000 1.000000
1.000000 1.000000 1.000000
0.000000 0.003733 0.042476
0.026520 0.000000 0.051725
0.076318 0.000000 0.076034
0.232979 0.016197 0.122879
0.593918 0.051028 0.161713
1.000000 0.284369 0.213502
1.000000 0.597735 0.471893
1.000000 0.850069 0.790239
1.000000 0.991986 0.988904
0.000053 0.028960 0.056235
0.028814 0.027742 0.070582
0.086823 0.034294 0.087237
0.243316 0.049256 0.123281
0.597117 0.082082 0.158986
1.000000 0.290073 0.213621
1.000000 0.598866 0.472784
1.000000 0.850213 0.790398
1.000000 0.991987 0.988905
0.000000 0.089288 0.089450
0.034890 0.094603 0.094877
0.105190 0.105190 0.105190
0.273608 0.114011 0.117587
0.606753 0.150306 0.149981
1.000000 0.314822 0.216940
1.000000 0.603358 0.476350
1.000000 0.850781 0.791024
1.000000 0.991993 0.988912
0.000000 0.265689 0.140222
0.028109 0.269778 0.136127
0.115576 0.281549 0.125499
0.296352 0.295378 0.123703
0.616403 0.314112 0.140611
1.000000 0.404549 0.238429
1.000000 0.619700 0.488226
1.000000 0.853398 0.793952
1.000000 0.992021 0.988943
0.000358 0.605101 0.155311
0.000000 0.606503 0.148392
0.120972 0.609244 0.133468
0.309339 0.609701 0.131014
0.603291 0.603805 0.140012
1.000000 0.581028 0.217549
1.000000 0.668723 0.516503
1.000000 0.864594 0.806587
1.000000 0.992146 0.989083
0.000000 0.993686 0.000000
0.000000 0.993124 0.000000
0.131077 0.990907 0.000000
0.298627 0.983380 0.080890
0.521356 0.966333 0.064995
0.895078 0.897535 0.058237
1.000000 0.818340 0.625287
1.000000 0.903598 0.852080
1.000000 0.992683 0.989686
0.732089 1.000000 0.628221
0.732346 1.000000 0.628316
0.733362 1.000000 0.628688
0.737816 1.000000 0.630302
0.756833 1.000000 0.636994
0.825119 1.000000 0.658256
0.999123 1.000000 0.553140
1.000000 0.964866 0.925163
0.999976 0.994531 0.991781
0.955276 1.000000 0.932825
0.955284 1.000000 0.932830
0.955325 1.000000 0.932856
0.955501 1.000000 0.932969
0.956306 1.000000 0.933495
0.959703 1.000000 0.935651
0.971393 1.000000 0.942232
0.998691 1.000000 0.939219
0.999914 0.998166 0.996245
0.999163 0.999938 0.998746
0.999162 0.999938 0.998746
0.999164 0.999938 0.998747
0.999165 0.999938 0.998749
0.999175 0.999939 0.998763
0.999222 0.999940 0.998823
0.999418 0.999948 0.999087
1.000000 1.000000 1.000000
1.000000 1.000000 1.000000
0.000000 0.014330 0.166163
0.045513 0.000000 0.174216
0.104934 0.000000 0.197212
0.255520 0.000000 0.254506
0.598883 0.000000 0.315012
1.000000 0.276969 0.337828
1.000000 0.591203 0.496289
1.000000 0.859430 0.806805
1.000000 0.992051 0.989042
0.000107 0.049844 0.176899
0.035410 0.032332 0.193929
0.107674 0.034532 0.213651
0.261778 0.044883 0.261613
0.601536 0.071654 0.314607
1.000000 0.282976 0.337885
1.000000 0.592250 0.496978
1.000000 0.859568 0.806956
1.000000 0.992052 0.989043
0.000143 0.112493 0.210116
0.024687 0.110562 0.225199
0.105803 0.100382 0.263016
0.280320 0.116586 0.281720
0.609405 0.148697 0.313146
1.000000 0.308674 0.339998
1.000000 0.596415 0.499739
1.000000 0.860122 0.807560
1.000000 0.992059 0.989051
0.000191 0.277287 0.277786
0.000191 0.280007 0.280652
0.116607 0.287790 0.288592
0.298793 0.298793 0.298793
0.616666 0.314161 0.312404
1.000000 0.397901 0.351741
1.000000 0.614646 0.512259
1.000000 0.862538 0.810203
1.000000 0.992086 0.989081
0.000302 0.604787 0.318878
0.000000 0.606145 0.316380
0.116961 0.608684 0.311416
0.311208 0.607702 0.312831
0.599248 0.600212 0.331805
0.982539 0.596351 0.373600
1.000000 0.686711 0.567658
1.000000 0.872678 0.821300
1.000000 0.992209 0.989218
0.000000 0.992309 0.240580
0.000638 0.992450 0.240097
0.021488 0.991508 0.242490
0.313494 0.978765 0.276577
0.557534 0.948710 0.329248
0.886868 0.891666 0.328202
1.000000 0.826105 0.658982
1.000000 0.908360 0.861736
1.000000 0.992735 0.989805
0.733841 1.000000 0.641663
0.734290 1.000000 0.641996
0.736070 1.000000 0.643322
0.743804 1.000000 0.649124
0.766256 1.000000 0.660852
0.830570 1.000000 0.678524
0.999433 1.000000 0.565466
1.000000 0.965397 0.927333
0.999972 0.994558 0.991853
0.955798 1.000000 0.934064
0.955809 1.000000 0.934069
0.955848 1.000000 0.934095
0.956020 1.000000 0.934202
0.956797 1.000000 0.934690
0.960120 1.000000 0.936748
0.971596 1.000000 0.943018
0.998715 1.000000 0.939478
0.999913 0.998169 0.996264
0.999163 0.999938 0.998749
0.999164 0.999938 0.998750
0.999165 0.999938 0.998751
0.999167 0.999938 0.998754
0.999177 0.999939 0.998767
0.999223 0.999940 0.998827
0.999419 0.999948 0.999090
1.000000 1.000000 1.000000
1.000000 1.000000 1.000000
0.000341 0.050673 0.512766
0.051984 0.000000 0.519837
0.143717 0.000000 0.529021
0.297057 0.000000 0.558477
0.606522 0.000000 0.604085
1.000000 0.263318 0.569259
1.000000 0.589597 0.575364
1.000000 0.858952 0.817978
1.000000 0.992326 0.989614
0.000341 0.087395 0.516676
0.000455 0.022306 0.531313
0.136368 0.000000 0.540965
0.297163 0.000191 0.567431
0.608656 0.000280 0.606879
1.000000 0.269989 0.569220
1.000000 0.590675 0.575960
1.000000 0.859200 0.818258
1.000000 0.992328 0.989615
0.000341 0.155715 0.530416
0.000000 0.143069 0.542960
0.113557 0.105358 0.571689
0.298018 0.112551 0.589131
0.611379 0.138364 0.610284
1.000000 0.297500 0.569674
1.000000 0.594960 0.578352
1.000000 0.860186 0.819374
1.000000 0.992334 0.989622
0.000341 0.304670 0.569172
0.000000 0.302968 0.576481
0.100988 0.297414 0.598272
0.295934 0.292735 0.621874
0.610693 0.314266 0.609574
1.000000 0.391939 0.573328
1.000000 0.613702 0.589189
1.000000 0.864493 0.824266
1.000000 0.992359 0.989649
0.000000 0.602133 0.603219
0.000000 0.602795 0.603952
0.094055 0.604002 0.605295
0.310980 0.601127 0.602076
0.593822 0.593822 0.593822
0.940286 0.619531 0.608088
1.000000 0.692330 0.641470
1.000000 0.883172 0.845926
1.000000 0.992472 0.989770
0.000000 0.980860 0.510880
0.000000 0.981005 0.510637
0.000607 0.979135 0.512013
0.310009 0.966293 0.523280
0.604301 0.913573 0.584162
0.863852 0.868129 0.632867
1.000000 0.851343 0.752573
1.000000 0.924586 0.893065
1.000000 0.992960 0.990294
0.740424 1.000000 0.689067
0.740840 1.000000 0.689330
0.742491 1.000000 0.690373
0.749662 1.000000 0.694915
0.779754 1.000000 0.714833
0.848785 1.000000 0.743978
0.999370 1.000000 0.614118
1.000000 0.967428 0.935344
0.999953 0.994673 0.992161
0.957758 1.000000 0.938822
0.957774 1.000000 0.938836
0.957835 1.000000 0.938894
0.958104 1.000000 0.939146
0.958813 1.000000 0.939551
0.961822 1.000000 0.941205
0.972419 1.000000 0.946231
0.998820 1.000000 0.940584
0.999910 0.998180 0.996342
0.999171 0.999938 0.998769
0.999172 0.999938 0.998769
0.999171 0.999939 0.998770
0.999174 0.999939 0.998772
0.999184 0.999939 0.998786
0.999230 0.999941 0.998845
0.999426 0.999948 0.999106
1.000000 1.000000 1.000000
1.000000 1.000000 1.000000
0.208119 0.260605 1.000000
0.217154 0.260747 1.000000
0.248771 0.261263 1.000000
0.348519 0.265806 1.000000
0.579588 0.275396 1.000000
1.000000 0.159503 1.000000
1.000000 0.607029 0.734781
1.000000 0.866589 0.855257
0.999949 0.992848 0.990907
0.209239 0.267615 1.000000
0.218179 0.267738 1.000000
0.249499 0.268159 1.000000
0.348772 0.272452 1.000000
0.579348 0.281615 1.000000
1.000000 0.172135 1.000000
1.000000 0.608074 0.735178
1.000000 0.866827 0.855483
0.999949 0.992850 0.990909
0.212485 0.292327 1.000000
0.221879 0.292939 1.000000
0.253721 0.294637 1.000000
0.350586 0.298212 1.000000
0.578816 0.307085 1.000000
1.000000 0.215576 0.998834
1.000000 0.612230 0.736769
1.000000 0.867770 0.856379
0.999948 0.992858 0.990918
0.222720 0.374755 1.000000
0.231471 0.375028 1.000000
0.265322 0.378181 1.000000
0.362341 0.386961 0.997463
0.578503 0.395121 0.993882
0.991243 0.347295 0.983349
1.000000 0.630455 0.743985
1.000000 0.871881 0.860295
0.999946 0.992891 0.990954
0.243636 0.581567 1.000000
0.251252 0.581478 1.000000
0.283027 0.582018 1.000000
0.382327 0.585335 0.989579
0.597175 0.605438 0.951241
0.921125 0.610102 0.911702
1.000000 0.706683 0.778260
1.000000 0.888792 0.876587
0.999938 0.993042 0.991118
0.000000 0.933608 0.935226
0.000607 0.933601 0.935226
0.000960 0.932832 0.934432
0.297506 0.923371 0.924469
0.595994 0.886540 0.886412
0.850430 0.850430 0.850430
1.000000 0.873104 0.865191
1.000000 0.935431 0.922807
0.999909 0.993657 0.991790
0.758075 1.000000 0.804173
0.758410 1.000000 0.804298
0.759739 1.000000 0.804796
0.765550 1.000000 0.806986
0.789869 1.000000 0.816374
0.865027 1.000000 0.845512
0.971988 0.975537 0.869171
1.000000 0.972975 0.955023
0.999883 0.995107 0.993229
0.958843 1.000000 0.946812
0.958857 1.000000 0.946823
0.958916 1.000000 0.946872
0.959177 1.000000 0.947088
0.960347 1.000000 0.948058
0.965081 1.000000 0.951972
0.975030 1.000000 0.956454
0.999205 1.000000 0.944153
0.999900 0.998231 0.996643
0.999203 0.999939 0.998849
0.999203 0.999939 0.998849
0.999204 0.999939 0.998850
0.999205 0.999940 0.998852
0.999215 0.999940 0.998864
0.999260 0.999942 0.998920
0.999453 0.999949 0.999170
1.000000 1.000000 1.000000
1.000000 1.000000 1.000000
0.564937 0.613052 1.000000
0.565610 0.613187 1.000000
0.568287 0.613732 1.000000
0.579312 0.615579 1.000000
0.625935 0.625221 1.000000
0.765827 0.653896 1.000000
1.000000 0.712385 0.993584
1.000000 0.896468 0.924856
0.999905 0.993201 0.992588
0.565401 0.613813 1.000000
0.566073 0.613949 1.000000
0.568747 0.614495 1.000000
0.579767 0.616351 1.000000
0.626339 0.626000 1.000000
0.766084 0.654691 1.000000
1.000000 0.713011 0.993595
1.000000 0.896629 0.924957
0.999905 0.993202 0.992589
0.566657 0.616301 1.000000
0.567559 0.616647 1.000000
0.570586 0.617526 1.000000
0.581600 0.619435 1.000000
0.627959 0.629102 1.000000
0.767120 0.657846 1.000000
1.000000 0.715491 0.993636
1.000000 0.897266 0.925357
0.999904 0.993209 0.992595
0.571977 0.626911 1.000000
0.572873 0.627254 1.000000
0.576451 0.628647 1.000000
0.590258 0.633312 1.000000
0.635277 0.642687 1.000000
0.771800 0.671613 1.000000
1.000000 0.726238 0.993825
1.000000 0.900034 0.927098
0.999903 0.993239 0.992624
0.595662 0.670758 1.000000
0.596510 0.671076 1.000000
0.599902 0.672365 1.000000
0.614762 0.678232 1.000000
0.669977 0.699797 1.000000
0.793640 0.728124 1.000000
1.000000 0.768975 0.994712
1.000000 0.911336 0.934257
0.999894 0.993373 0.992748
0.683773 0.805405 1.000000
0.684411 0.805602 1.000000
0.686948 0.806397 1.000000
0.698012 0.809928 1.000000
0.743751 0.825751 1.000000
0.859831 0.867306 0.999088
1.000000 0.870480 0.992400
1.000000 0.943436 0.954996
0.999858 0.993932 0.993269
0.756716 1.000000 1.000000
0.756926 1.000000 1.000000
0.757764 1.000000 1.000000
0.761434 1.000000 1.000000
0.777084 1.000000 0.999783
0.836990 0.994909 0.993782
0.963224 0.963224 0.963224
1.000000 0.975887 0.974217
0.999770 0.995719 0.994954
0.960927 1.000000 0.965703
0.960938 1.000000 0.965708
0.960982 1.000000 0.965729
0.961176 1.000000 0.965820
0.962047 1.000000 0.966229
0.965671 1.000000 0.967913
0.976630 1.000000 0.972248
0.995728 0.996621 0.976128
0.999866 0.998427 0.997501
0.999306 0.999945 0.999097
0.999306 0.999945 0.999097
0.999306 0.999945 0.999098
0.999308 0.999946 0.999101
0.999319 0.999946 0.999112
0.999365 0.999947 0.999165
0.999556 0.999955 0.999395
1.000000 1.000000 1.000000
1.000000 1.000000 1.000000
0.830127 0.854067 1.000000
0.830325 0.854203 1.000000
0.831113 0.854744 1.000000
0.834563 0.857119 1.000000
0.844696 0.863287 1.000000
0.871606 0.876759 1.000000
0.935372 0.908372 1.000000
1.000000 0.951307 0.995828
0.999867 0.994686 0.995874
0.830222 0.854173 1.000000
0.830419 0.854308 1.000000
0.831206 0.854849 1.000000
0.834655 0.857223 1.000000
0.844849 0.863447 1.000000
0.871727 0.876897 1.000000
0.935423 0.908466 1.000000
1.000000 0.951336 0.995831
0.999867 0.994687 0.995875
0.830598 0.854596 1.000000
0.830796 0.854732 1.000000
0.831581 0.855270 1.000000
0.835025 0.857640 1.000000
0.845466 0.864086 1.000000
0.872203 0.877448 1.000000
0.935624 0.908836 1.000000
1.000000 0.951449 0.995841
0.999867 0.994692 0.995878
0.832280 0.856476 1.000000
0.832472 0.856607 1.000000
0.833238 0.857129 1.000000
0.836645 0.859467 1.000000
0.848056 0.866784 1.000000
0.874294 0.879861 1.000000
0.936505 0.910455 1.000000
1.000000 0.951946 0.995887
0.999866 0.994712 0.995890
0.839669 0.864664 1.000000
0.839849 0.864784 1.000000
0.840570 0.865269 1.000000
0.843764 0.867426 1.000000
0.857502 0.876810 1.000000
0.883237 0.890086 1.000000
0.940228 0.917266 1.000000
1.000000 0.954088 0.996084
0.999862 0.994800 0.995948
0.867790 0.894899 1.000000
0.867927 0.894983 1.000000
0.868471 0.895322 1.000000
0.870886 0.896835 1.000000
0.881151 0.903315 1.000000
0.913176 0.923423 1.000000
0.952537 0.939358 1.000000
1.000000 0.961735 0.996890
0.999846 0.995176 0.996195
0.927445 0.955383 1.000000
0.927489 0.955402 1.000000
0.927669 0.955478 1.000000
0.928459 0.955814 1.000000
0.931911 0.957284 1.000000
0.944773 0.962811 1.000000
0.970481 0.972446 0.999874
1.000000 0.976904 0.997949
0.999804 0.996465 0.997056
0.961278 1.000000 0.999725
0.961283 1.000000 0.999725
0.961306 1.000000 0.999726
0.961408 1.000000 0.999727
0.961878 1.000000 0.999729
0.963888 1.000000 0.999737
0.971268 0.999827 0.999409
0.994301 0.994301 0.994301
0.999791 0.998792 0.998719
0.999685 0.999981 0.999714
0.999685 0.999981 0.999714
0.999685 0.999981 0.999714
0.999688 0.999981 0.999716
0.999697 0.999981 0.999724
0.999739 0.999983 0.999759
0.999913 0.999992 0.999917
1.000000 1.000000 1.000000
1.000000 1.000000 1.000000
0.980476 0.983610 1.000000
0.980480 0.983613 1.000000
0.980498 0.983624 1.000000
0.980574 0.983672 1.000000
0.980911 0.983887 1.000000
0.982355 0.984808 1.000000
0.985627 0.986484 1.000000
0.993330 0.990655 1.000000
0.999908 0.998346 0.999640
0.980479 0.983613 1.000000
0.980484 0.983616 1.000000
0.980500 0.983626 1.000000
0.980575 0.983674 1.000000
0.980915 0.983889 1.000000
0.982357 0.984810 1.000000
0.985629 0.986487 1.000000
0.993331 0.990657 1.000000
0.999908 0.998347 0.999640
0.980490 0.983624 1.000000
0.980494 0.983627 1.000000
0.980511 0.983638 1.000000
0.980587 0.983685 1.000000
0.980924 0.983900 1.000000
0.982366 0.984820 1.000000
0.985638 0.986498 1.000000
0.993334 0.990663 1.000000
0.999908 0.998348 0.999641
0.980537 0.983673 1.000000
0.980541 0.983676 1.000000
0.980558 0.983687 1.000000
0.980633 0.983735 1.000000
0.980969 0.983948 1.000000
0.982405 0.984863 1.000000
0.985680 0.986546 1.000000
0.993348 0.990691 1.000000
0.999907 0.998353 0.999642
0.980746 0.983895 1.000000
0.980751 0.983898 1.000000
0.980767 0.983908 1.000000
0.980841 0.983955 1.000000
0.981172 0.984164 1.000000
0.982579 0.985057 1.000000
0.985866 0.986762 1.000000
0.993412 0.990818 1.000000
0.999908 0.998376 0.999646
0.981655 0.984850 1.000000
0.981659 0.984852 1.000000
0.981674 0.984861 1.000000
0.981742 0.984903 1.000000
0.982046 0.985091 1.000000
0.983337 0.985892 1.000000
0.986663 0.987683 1.000000
0.993687 0.991360 1.000000
0.999910 0.998477 0.999668
0.984986 0.988283 1.000000
0.984989 0.988285 1.000000
0.984999 0.988291 1.000000
0.985047 0.988317 1.000000
0.985258 0.988435 1.000000
0.986167 0.988947 1.000000
0.989404 0.990800 1.000000
0.994701 0.993298 0.999988
0.999920 0.998886 0.999755
0.992428 0.995396 1.000000
0.992429 0.995396 1.000000
0.992432 0.995397 1.000000
0.992447 0.995403 1.000000
0.992516 0.995429 1.000000
0.992815 0.995542 0.999999
0.994005 0.996006 0.999983
0.996945 0.997166 0.999838
1.000000 1.000000 1.000000
1.000000 1.000000 1.000000
1.000000 1.000000 1.000000
1.000000 1.000000 1.000000
1.000000 1.000000 1.000000
1.000000 1.000000 1.000000
1.000000 1.000000 1.000000
1.000000 1.000000 1.000000
1.000000 1.000000 1.000000
1.000000 1.000000 1.000000
