OCIO/luts/ACES2_Candidates_rev060/ACES2 Candidate CAMDRT rev060 Rec2100 (P3D65 10000nit Limited)_inverse.cube
TITLE "Generated by Foundry::LUT"
LUT_3D_SIZE 65
0.072906 0.072906 0.072906
0.124029 0.072134 0.072976
0.169769 0.069787 0.072752
0.205300 0.065671 0.072401
0.233150 0.059485 0.072045
0.256625 0.051019 0.071798
0.277153 0.040253 0.071620
0.295463 0.027396 0.071232
0.311981 0.012760 0.070501
0.326999 -0.003293 0.069421
0.340750 -0.020424 0.068086
0.353437 -0.038355 0.066654
0.365241 -0.056890 0.065281
0.376320 -0.075899 0.064091
0.386815 -0.095314 0.063152
0.396845 -0.115104 0.062484
0.406510 -0.135264 0.062059
0.415893 -0.155801 0.061824
0.425063 -0.176728 0.061703
0.434076 -0.198064 0.061611
0.442979 -0.219805 0.061455
0.451809 -0.241954 0.061139
0.460598 -0.264481 0.060563
0.469371 -0.287347 0.059629
0.478146 -0.310486 0.058243
0.486939 -0.333799 0.056316
0.495764 -0.357183 0.053781
0.504627 -0.380495 0.050675
0.513539 -0.403652 0.047313
0.522497 -0.426465 0.043874
0.531512 -0.448743 0.040494
0.540583 -0.470227 0.037326
0.549707 -0.490625 0.034539
0.558892 -0.509651 0.032319
0.568132 -0.526955 0.030876
0.577431 -0.542199 0.030438
0.586789 -0.555024 0.031255
0.596203 -0.565051 0.033590
0.605680 -0.571937 0.037728
0.615217 -0.575307 0.043962
0.624816 -0.574830 0.052604
0.634482 -0.570153 0.063976
0.644213 -0.560962 0.078413
0.654016 -0.546933 0.096272
0.663892 -0.527708 0.117933
0.673842 -0.502971 0.143795
0.683879 -0.472288 0.172413
0.693998 -0.435216 0.197245
0.704215 -0.391156 0.219009
0.714530 -0.339430 0.238586
0.724957 -0.279056 0.256555
0.735498 -0.208941 0.273293
0.746171 -0.127574 0.289089
0.756994 -0.033091 0.304170
0.767974 0.076774 0.318690
0.779143 0.194150 0.332809
0.790518 0.256621 0.346641
0.802128 0.296512 0.360293
0.814024 0.327201 0.373882
0.826236 0.352850 0.387484
0.838837 0.375349 0.401213
0.851894 0.395605 0.415160
0.865500 0.414056 0.429433
0.879772 0.430803 0.444145
0.894888 0.445608 0.459456
0.072783 0.109833 0.073234
0.056651 -0.010361 0.301661
0.152475 0.088696 0.072427
0.186463 0.086411 0.074040
0.216858 0.081388 0.073696
0.244114 0.072358 0.072469
0.267353 0.060984 0.071554
0.287701 0.047259 0.071086
0.305804 0.031444 0.070933
0.322083 0.014033 0.070538
0.336846 -0.004532 0.069730
0.350344 -0.023900 0.068599
0.362795 -0.043817 0.067310
0.374389 -0.064123 0.066033
0.385292 -0.084731 0.064898
0.395644 -0.105603 0.063975
0.405562 -0.126738 0.063280
0.415143 -0.148143 0.062785
0.424470 -0.169852 0.062431
0.433606 -0.191879 0.062139
0.442605 -0.214236 0.061816
0.451512 -0.236931 0.061366
0.460363 -0.259951 0.060686
0.469183 -0.283254 0.059674
0.477996 -0.306779 0.058232
0.486819 -0.330446 0.056267
0.495669 -0.354143 0.053711
0.504551 -0.377739 0.050614
0.513478 -0.401156 0.047276
0.522449 -0.424207 0.043860
0.531474 -0.446690 0.040502
0.540552 -0.468359 0.037352
0.549683 -0.488933 0.034578
0.558873 -0.508109 0.032369
0.568117 -0.525551 0.030934
0.577419 -0.540907 0.030502
0.586779 -0.553845 0.031321
0.596196 -0.563978 0.033657
0.605674 -0.570947 0.037795
0.615212 -0.574404 0.044027
0.624813 -0.573995 0.052665
0.634479 -0.569388 0.064034
0.644211 -0.560246 0.078467
0.654014 -0.546260 0.096324
0.663890 -0.527094 0.117978
0.673841 -0.502387 0.143837
0.683878 -0.471758 0.172444
0.693998 -0.434728 0.197264
0.704215 -0.390695 0.219023
0.714529 -0.338980 0.238596
0.724956 -0.278647 0.256561
0.735498 -0.208538 0.273298
0.746171 -0.127197 0.289093
0.756994 -0.032705 0.304172
0.767974 0.077135 0.318692
0.779143 0.194362 0.332811
0.790518 0.256719 0.346642
0.802128 0.296582 0.360294
0.814024 0.327241 0.373883
0.826236 0.352882 0.387485
0.838837 0.375370 0.401213
0.851893 0.395624 0.415161
0.865500 0.414069 0.429433
0.879772 0.430816 0.444145
0.894888 0.445623 0.459457
0.070422 0.143073 0.072726
0.089554 0.134754 0.074312
0.099025 0.081120 0.228087
0.199794 0.095204 0.066381
0.210960 0.100557 0.072214
0.230413 0.099900 0.074776
0.299904 0.012539 0.035487
0.271224 0.087847 0.074130
0.291780 0.073130 0.071963
0.310311 0.055599 0.070532
0.327082 0.035763 0.069841
0.342328 0.014239 0.069631
0.356272 -0.008316 0.069290
0.369117 -0.031436 0.068603
0.381053 -0.054859 0.067682
0.392248 -0.078440 0.066675
0.402848 -0.102110 0.065698
0.412977 -0.125859 0.064816
0.422742 -0.149703 0.064040
0.432228 -0.173665 0.063340
0.441506 -0.197772 0.062651
0.450635 -0.222038 0.061888
0.459662 -0.246467 0.060954
0.468623 -0.271042 0.059746
0.477549 -0.295709 0.058160
0.486462 -0.320403 0.056101
0.495384 -0.345030 0.053496
0.504323 -0.369471 0.050439
0.513296 -0.393665 0.047173
0.522304 -0.417404 0.043826
0.531358 -0.440510 0.040529
0.540460 -0.462744 0.037430
0.549609 -0.483818 0.034699
0.558814 -0.503448 0.032522
0.568071 -0.521298 0.031110
0.577382 -0.537036 0.030693
0.586751 -0.550302 0.031521
0.596173 -0.560733 0.033861
0.605657 -0.567974 0.037996
0.615198 -0.571682 0.044222
0.624802 -0.571490 0.052852
0.634471 -0.567074 0.064210
0.644205 -0.558113 0.078631
0.654009 -0.544282 0.096474
0.663887 -0.525250 0.118117
0.673838 -0.500676 0.143961
0.683876 -0.470143 0.172534
0.693996 -0.433204 0.197325
0.704214 -0.389249 0.219066
0.714528 -0.337611 0.238625
0.724956 -0.277320 0.256583
0.735497 -0.207292 0.273313
0.746170 -0.126012 0.289104
0.756994 -0.031539 0.304181
0.767974 0.078275 0.318699
0.779143 0.195048 0.332815
0.790518 0.257034 0.346646
0.802128 0.296757 0.360296
0.814024 0.327371 0.373885
0.826236 0.352971 0.387487
0.838837 0.375444 0.401215
0.851894 0.395681 0.415162
0.865500 0.414116 0.429434
0.879772 0.430851 0.444146
0.894888 0.445654 0.459457
0.065848 0.176630 0.071633
0.085089 0.167856 0.074990
0.110882 0.160509 0.075088
0.126922 0.119004 0.202630
0.291105 0.233887 -0.995281
0.238561 0.107923 0.070008
0.249342 0.113441 0.072469
0.263802 0.113905 0.075756
0.288194 0.092305 0.071630
0.295598 0.105022 0.076776
0.314058 0.087663 0.073321
0.331017 0.067261 0.070752
0.346618 0.044325 0.069112
0.360993 0.019530 0.068234
0.374295 -0.006492 0.067818
0.386679 -0.033198 0.067479
0.398291 -0.060186 0.066911
0.409269 -0.087260 0.066155
0.419737 -0.114314 0.065289
0.429800 -0.141318 0.064362
0.439548 -0.168260 0.063382
0.449059 -0.195144 0.062317
0.458395 -0.221976 0.061105
0.467605 -0.248743 0.059664
0.476732 -0.275408 0.057899
0.485807 -0.301920 0.055722
0.494858 -0.328204 0.053091
0.503902 -0.354189 0.050148
0.512959 -0.379765 0.047011
0.522034 -0.404771 0.043787
0.531142 -0.429017 0.040598
0.540288 -0.452279 0.037591
0.549472 -0.474284 0.034934
0.558706 -0.494760 0.032815
0.567985 -0.513367 0.031445
0.577314 -0.529790 0.031055
0.586697 -0.543674 0.031898
0.596131 -0.554668 0.034242
0.605623 -0.562412 0.038374
0.615172 -0.566566 0.044589
0.624782 -0.566782 0.053203
0.634455 -0.562735 0.064541
0.644193 -0.554094 0.078939
0.654000 -0.540566 0.096758
0.663879 -0.521792 0.118376
0.673832 -0.497450 0.144196
0.683872 -0.467117 0.172706
0.693993 -0.430364 0.197440
0.704211 -0.386580 0.219143
0.714527 -0.335061 0.238679
0.724954 -0.274899 0.256622
0.735496 -0.204955 0.273341
0.746169 -0.123758 0.289125
0.756993 -0.029395 0.304196
0.767974 0.080373 0.318711
0.779142 0.196305 0.332824
0.790518 0.257608 0.346652
0.802128 0.297114 0.360302
0.814024 0.327613 0.373890
0.826236 0.353148 0.387490
0.838837 0.375578 0.401218
0.851894 0.395785 0.415164
0.865500 0.414204 0.429436
0.879772 0.430923 0.444148
0.894888 0.445713 0.459459
0.058926 0.203402 0.070073
0.076854 0.197176 0.073061
0.102715 0.189914 0.075900
0.134510 0.183425 0.075986
0.155362 0.152595 0.186674
-0.807098 -1.672383 0.542030
0.270879 0.103630 0.050124
0.269400 0.123181 0.069256
0.279450 0.128268 0.073342
0.291716 0.129315 0.077170
0.310549 0.111364 0.073646
0.153257 0.244987 0.268296
0.335527 0.102520 0.075053
0.351177 0.079463 0.071487
0.365767 0.053732 0.068915
0.379381 0.025994 0.067209
0.392123 -0.003114 0.066120
0.404110 -0.033053 0.065371
0.415457 -0.063411 0.064722
0.426274 -0.093900 0.063996
0.436658 -0.124331 0.063086
0.446701 -0.154611 0.061980
0.456477 -0.184681 0.060665
0.466049 -0.214496 0.059103
0.475473 -0.244013 0.057238
0.484790 -0.273179 0.055042
0.494038 -0.301950 0.052543
0.503242 -0.330220 0.049786
0.512429 -0.357898 0.046837
0.521608 -0.384818 0.043789
0.530802 -0.410813 0.040758
0.540016 -0.435669 0.037885
0.549255 -0.459116 0.035337
0.558533 -0.480900 0.033302
0.567847 -0.500704 0.031993
0.577205 -0.518213 0.031644
0.586611 -0.533077 0.032509
0.596063 -0.544954 0.034858
0.605570 -0.553493 0.038982
0.615130 -0.558380 0.045178
0.624749 -0.559241 0.053766
0.634430 -0.555783 0.065071
0.644173 -0.547668 0.079433
0.653984 -0.534600 0.097213
0.663868 -0.516237 0.118791
0.673824 -0.492260 0.144574
0.683865 -0.462252 0.172981
0.693987 -0.425795 0.197621
0.704207 -0.382251 0.219268
0.714524 -0.330971 0.238767
0.724952 -0.270999 0.256684
0.735495 -0.201220 0.273387
0.746168 -0.120178 0.289158
0.756992 -0.025889 0.304221
0.767973 0.083760 0.318729
0.779142 0.198283 0.332839
0.790517 0.258541 0.346664
0.802127 0.297684 0.360311
0.814024 0.327999 0.373896
0.826236 0.353434 0.387495
0.838837 0.375791 0.401222
0.851894 0.395956 0.415168
0.865500 0.414338 0.429439
0.879772 0.431039 0.444150
0.894888 0.445814 0.459461
0.049751 0.225702 0.068178
0.066519 0.221150 0.070677
0.097855 0.212728 0.076771
0.123729 0.208615 0.076886
0.160419 0.202923 0.077007
0.181689 0.182222 0.172460
-0.035349 -0.025187 0.388997
0.316277 0.137847 -0.323832
0.290680 0.125371 0.067478
0.295564 0.140758 0.069780
0.305425 0.145004 0.074736
0.316602 0.146209 0.078910
0.337468 0.109497 0.070788
0.148896 0.269835 0.297106
0.356529 0.117147 0.076742
0.371120 0.091360 0.072382
0.384870 0.062820 0.069015
0.397837 0.032182 0.066533
0.410100 0.000078 0.064719
0.421747 -0.032958 0.063322
0.432867 -0.066486 0.062115
0.443549 -0.100184 0.060918
0.453873 -0.133808 0.059606
0.463909 -0.167189 0.058098
0.473722 -0.200200 0.056344
0.483362 -0.232736 0.054322
0.492878 -0.264707 0.052031
0.502302 -0.295995 0.049498
0.511669 -0.326485 0.046773
0.520996 -0.356013 0.043939
0.530309 -0.384424 0.041100
0.539620 -0.411500 0.038394
0.548939 -0.436991 0.035985
0.558280 -0.460650 0.034057
0.567646 -0.482152 0.032828
0.577046 -0.501209 0.032530
0.586485 -0.517490 0.033421
0.595963 -0.530657 0.035775
0.605492 -0.540363 0.039885
0.615069 -0.546298 0.046053
0.624701 -0.548109 0.054601
0.634392 -0.545506 0.065857
0.644144 -0.538156 0.080165
0.653962 -0.525774 0.097888
0.663850 -0.508025 0.119409
0.673810 -0.484598 0.145131
0.683855 -0.455074 0.173385
0.693980 -0.419032 0.197890
0.704202 -0.375865 0.219452
0.714519 -0.324891 0.238897
0.724949 -0.265197 0.256777
0.735492 -0.195695 0.273453
0.746166 -0.114847 0.289208
0.756991 -0.020761 0.304258
0.767972 0.088756 0.318757
0.779141 0.201112 0.332860
0.790517 0.259888 0.346680
0.802127 0.298507 0.360323
0.814024 0.328568 0.373906
0.826236 0.353847 0.387504
0.838837 0.376111 0.401229
0.851894 0.396208 0.415174
0.865501 0.414543 0.429444
0.879773 0.431208 0.444154
0.894889 0.445954 0.459464
0.038657 0.245008 0.066070
0.054225 0.241627 0.068099
0.088973 0.233748 0.074919
0.116335 0.229111 0.077873
0.147726 0.225219 0.077995
0.183866 0.220191 0.078146
0.203619 0.205400 0.156888
0.078258 0.111012 0.348623
0.430599 0.451316 -13.923281
0.313194 0.120133 0.050945
0.311751 0.150782 0.066604
0.318829 0.161559 0.071659
0.328589 0.164859 0.077237
0.339297 0.165588 0.081554
0.369508 0.059481 0.065800
0.268007 0.275785 0.278668
0.377204 0.131490 0.078214
0.390951 0.102765 0.073231
0.404020 0.071264 0.069212
0.416457 0.037634 0.066054
0.428320 0.002505 0.063561
0.439683 -0.033598 0.061507
0.450616 -0.070211 0.059682
0.461186 -0.106963 0.057917
0.471460 -0.143559 0.056084
0.481495 -0.179761 0.054106
0.491345 -0.215383 0.051939
0.501048 -0.250228 0.049579
0.510647 -0.284146 0.047053
0.520167 -0.316931 0.044424
0.529639 -0.348411 0.041783
0.539080 -0.378352 0.039255
0.548505 -0.406513 0.036996
0.557933 -0.432640 0.035189
0.567369 -0.456438 0.034046
0.576825 -0.477593 0.033804
0.586310 -0.495792 0.034721
0.595825 -0.510715 0.037073
0.605383 -0.522013 0.041160
0.614984 -0.529397 0.047285
0.624634 -0.532527 0.055773
0.634340 -0.531112 0.066960
0.644104 -0.524829 0.081192
0.653931 -0.513404 0.098833
0.663826 -0.496510 0.120272
0.673792 -0.473837 0.145914
0.683841 -0.444991 0.173948
0.693969 -0.409526 0.198265
0.704193 -0.366870 0.219711
0.714513 -0.316383 0.239078
0.724944 -0.257098 0.256907
0.735489 -0.187912 0.273548
0.746164 -0.107332 0.289277
0.756989 -0.013514 0.304309
0.767971 0.095748 0.318796
0.779141 0.204957 0.332889
0.790516 0.261751 0.346703
0.802127 0.299675 0.360341
0.814024 0.329367 0.373921
0.826236 0.354429 0.387515
0.838837 0.376556 0.401238
0.851894 0.396550 0.415181
0.865501 0.414823 0.429450
0.879773 0.431449 0.444160
0.894889 0.446159 0.459468
0.026119 0.262134 0.063826
0.040397 0.259603 0.065458
0.074572 0.253302 0.071189
0.111286 0.246736 0.078928
0.138131 0.244010 0.079081
0.172790 0.240384 0.079233
0.203909 0.235898 0.079416
0.222822 0.224908 0.139766
0.144613 0.174538 0.331421
-8.527696 -21.837418 0.741895
0.338643 0.113965 -0.054040
0.328288 0.155851 0.064980
0.332770 0.174090 0.067534
0.340759 0.180859 0.074387
0.350498 0.183030 0.080227
0.360954 0.183214 0.084556
0.414179 -0.138302 0.000777
0.367309 0.224669 0.136790
0.397656 0.145624 0.079428
0.410735 0.113714 0.073956
0.423259 0.079066 0.069409
0.435266 0.042318 0.065676
0.446808 0.004090 0.062581
0.457938 -0.035057 0.059921
0.468715 -0.074640 0.057513
0.479194 -0.114236 0.055205
0.489429 -0.153507 0.052893
0.499463 -0.192121 0.050517
0.509344 -0.229828 0.048060
0.519100 -0.266347 0.045550
0.528770 -0.301444 0.043051
0.538375 -0.334857 0.040667
0.547935 -0.366300 0.038539
0.557475 -0.395526 0.036841
0.567002 -0.422206 0.035777
0.576532 -0.446051 0.035583
0.586076 -0.466739 0.036515
0.595640 -0.483946 0.038853
0.605237 -0.497353 0.042897
0.614869 -0.506650 0.048957
0.624545 -0.511517 0.057364
0.634270 -0.511675 0.068455
0.644049 -0.506813 0.082582
0.653889 -0.496656 0.100114
0.663794 -0.480908 0.121442
0.673767 -0.459255 0.146975
0.683821 -0.431302 0.174707
0.693954 -0.396648 0.198772
0.704183 -0.354726 0.220059
0.714505 -0.304832 0.239323
0.724938 -0.246073 0.257083
0.735484 -0.177361 0.273676
0.746161 -0.097187 0.289371
0.756987 -0.003695 0.304380
0.767969 0.105309 0.318849
0.779139 0.209890 0.332930
0.790516 0.264219 0.346734
0.802127 0.301211 0.360366
0.814024 0.330425 0.373939
0.826236 0.355217 0.387531
0.838837 0.377150 0.401251
0.851895 0.397029 0.415192
0.865502 0.415210 0.429459
0.879774 0.431762 0.444166
0.894890 0.446435 0.459475
0.012635 0.277600 0.061480
0.025592 0.275694 0.062810
0.058234 0.270733 0.067520
0.102004 0.263769 0.077212
0.131097 0.260499 0.080282
0.162867 0.257867 0.080420
0.194315 0.254508 0.080602
0.221693 0.250472 0.080809
0.240178 0.242037 0.122659
0.191196 0.208251 0.323349
-1.001300 -1.300274 0.541987
0.369252 0.162717 -0.567348
0.344940 0.156737 0.058827
0.346503 0.184719 0.063837
0.352984 0.194775 0.070648
0.361796 0.198439 0.077929
0.371704 0.199321 0.083506
0.382271 0.198023 0.087044
0.599705 0.556173 -63.451736
0.573053 0.513206 -39.914444
0.417972 0.159607 0.080424
0.430522 0.124380 0.074569
0.442614 0.086401 0.069596
0.454278 0.046427 0.065389
0.465557 0.005096 0.061786
0.476498 -0.037009 0.058614
0.487149 -0.079371 0.055718
0.497550 -0.121489 0.052982
0.507751 -0.162975 0.050333
0.517782 -0.203407 0.047749
0.527686 -0.242463 0.045252
0.537490 -0.279785 0.042915
0.547215 -0.315047 0.040849
0.556892 -0.347935 0.039210
0.566532 -0.378103 0.038190
0.576155 -0.405237 0.038013
0.585776 -0.429007 0.038934
0.595401 -0.449079 0.041232
0.605048 -0.465137 0.045207
0.614720 -0.476861 0.051175
0.624428 -0.483966 0.059467
0.634179 -0.486145 0.070428
0.643978 -0.483128 0.084416
0.653834 -0.474628 0.101802
0.663751 -0.460373 0.122984
0.673734 -0.440051 0.148372
0.683796 -0.413270 0.175695
0.693935 -0.379663 0.199434
0.704168 -0.338659 0.220516
0.714494 -0.289575 0.239645
0.724930 -0.231512 0.257314
0.735478 -0.163404 0.273844
0.746156 -0.083759 0.289495
0.756984 0.009250 0.304472
0.767967 0.117889 0.318918
0.779138 0.216000 0.332983
0.790515 0.267370 0.346775
0.802126 0.303195 0.360398
0.814023 0.331818 0.373965
0.826236 0.356239 0.387551
0.838838 0.377938 0.401267
0.851895 0.397648 0.415205
0.865502 0.415716 0.429470
0.879775 0.432187 0.444176
0.894891 0.446805 0.459483
-0.001383 0.291781 0.059037
0.010239 0.290343 0.060142
0.040741 0.286467 0.064020
0.084450 0.280680 0.072305
0.125845 0.275447 0.081496
0.154266 0.273480 0.081727
0.185533 0.270958 0.081907
0.213254 0.267853 0.082109
0.237894 0.264195 0.082348
0.256188 0.257481 0.106023
0.221371 0.232148 0.318329
-0.395890 -0.295034 0.479725
0.408269 0.302842 -2.894225
0.362202 0.152742 0.033069
0.359930 0.194160 0.061176
0.365172 0.207302 0.066384
0.373122 0.212494 0.074786
0.382427 0.214401 0.081919
0.392195 0.215445 0.088033
0.412372 0.145926 0.065375
-0.680417 0.362683 0.433609
0.425695 0.197114 0.088291
0.438229 0.172132 0.081277
0.450356 0.135032 0.075141
0.462098 0.093614 0.069845
0.473484 0.050391 0.065273
0.484553 0.006029 0.061284
0.495336 -0.038818 0.057740
0.505881 -0.083597 0.054524
0.516216 -0.127731 0.051566
0.526383 -0.170752 0.048838
0.536414 -0.212193 0.046368
0.546332 -0.251609 0.044231
0.556172 -0.288611 0.042551
0.565949 -0.322794 0.041497
0.575685 -0.353785 0.041279
0.585398 -0.381224 0.042141
0.595100 -0.404757 0.044353
0.604808 -0.424048 0.048218
0.614530 -0.438779 0.054052
0.624278 -0.448647 0.062188
0.634062 -0.453364 0.072978
0.643887 -0.452660 0.086782
0.653763 -0.446252 0.103981
0.663697 -0.433883 0.124972
0.673692 -0.415238 0.150177
0.683764 -0.389987 0.176953
0.693911 -0.357721 0.200282
0.704149 -0.317884 0.221103
0.714480 -0.269844 0.240061
0.724919 -0.212698 0.257611
0.735471 -0.145379 0.274061
0.746151 -0.066431 0.289655
0.756980 0.026042 0.304591
0.767964 0.134229 0.319008
0.779136 0.223265 0.333051
0.790514 0.271268 0.346829
0.802125 0.305705 0.360439
0.814023 0.333572 0.373998
0.826236 0.357541 0.387578
0.838838 0.378944 0.401289
0.851896 0.398444 0.415223
0.865503 0.416366 0.429485
0.879776 0.432733 0.444188
0.894892 0.447269 0.459494
-0.015637 0.304961 0.056491
-0.005307 0.303874 0.057431
0.022629 0.300873 0.060656
0.064973 0.296165 0.067629
0.115061 0.290394 0.079397
0.147481 0.287761 0.083191
0.177734 0.285862 0.083359
0.205425 0.283476 0.083554
0.230395 0.280603 0.083789
0.252941 0.277270 0.084053
0.271187 0.271682 0.090395
0.244714 0.251705 0.314937
-0.171502 -0.011838 0.451919
0.476607 0.478108 -19.924402
0.378962 0.152285 -0.030564
0.373337 0.201797 0.059174
0.377274 0.218881 0.061939
0.384523 0.225354 0.070735
0.393105 0.228791 0.079869
0.402654 0.229941 0.087013
0.412617 0.230155 0.092713
0.458344 -0.228934 0.011358
0.392462 0.314985 0.274411
0.446341 0.207673 0.089299
0.458471 0.183387 0.082125
0.470254 0.146125 0.075814
0.481714 0.101245 0.070309
0.492872 0.054883 0.065511
0.503765 0.007750 0.061307
0.514416 -0.039437 0.057601
0.524868 -0.086053 0.054327
0.535148 -0.131466 0.051467
0.545283 -0.175107 0.049055
0.555309 -0.216470 0.047174
0.565243 -0.255037 0.045964
0.575112 -0.290349 0.045606
0.584935 -0.321996 0.046327
0.594728 -0.349554 0.048388
0.604512 -0.372679 0.052082
0.614295 -0.391004 0.057724
0.624093 -0.404220 0.065652
0.633916 -0.412037 0.076217
0.643773 -0.414153 0.089785
0.653674 -0.410340 0.106742
0.663628 -0.400308 0.127494
0.673639 -0.383788 0.152463
0.683724 -0.360420 0.178521
0.693880 -0.329815 0.201346
0.704126 -0.291485 0.221842
0.714462 -0.244755 0.240584
0.724906 -0.188767 0.257989
0.735461 -0.122403 0.274336
0.746143 -0.044297 0.289858
0.756975 0.047450 0.304743
0.767961 0.154980 0.319123
0.779133 0.231692 0.333139
0.790512 0.275993 0.346896
0.802125 0.308795 0.360492
0.814023 0.335766 0.374040
0.826237 0.359178 0.387611
0.838839 0.380208 0.401316
0.851897 0.399447 0.415245
0.865504 0.417184 0.429504
0.879777 0.433418 0.444205
0.894894 0.447859 0.459507
-0.029941 0.317360 0.053836
-0.020814 0.316536 0.054656
0.004396 0.314225 0.057386
0.044611 0.310431 0.063302
0.094717 0.305549 0.073547
0.142012 0.301144 0.084566
0.170998 0.299644 0.084956
0.198353 0.297804 0.085163
0.223368 0.295556 0.085386
0.246222 0.292896 0.085646
0.072906 0.072906 0.072906
0.285409 0.284947 0.076240
0.264611 0.268950 0.312070
-0.024287 0.148372 0.435567
0.689152 0.777133 -679.491516
0.396356 0.157583 -0.179331
0.386648 0.208554 0.054516
0.389311 0.229662 0.057583
0.396031 0.237129 0.065784
0.403997 0.241843 0.076526
0.413132 0.243842 0.085496
0.422791 0.244809 0.092951
0.437424 0.220407 0.077391
-144.145416 -114.092781 0.914235
0.530854 -0.497512 -4.139167
0.466929 0.217553 0.090366
0.478728 0.193945 0.083158
0.490228 0.158233 0.076799
0.501453 0.110102 0.071242
0.512419 0.060914 0.066415
0.523160 0.011488 0.062244
0.533702 -0.037396 0.058685
0.544070 -0.084998 0.055735
0.554300 -0.130679 0.053437
0.564411 -0.173772 0.051893
0.574430 -0.213721 0.051253
0.584381 -0.249993 0.051718
0.594281 -0.282080 0.053531
0.604152 -0.309580 0.056971
0.614008 -0.332082 0.062348
0.623865 -0.349238 0.069997
0.633736 -0.360730 0.080270
0.643632 -0.366263 0.093540
0.653564 -0.365576 0.110194
0.663543 -0.358398 0.130645
0.673573 -0.344452 0.155321
0.683673 -0.323392 0.180443
0.693841 -0.294877 0.202656
0.704097 -0.258360 0.222758
0.714440 -0.213255 0.241236
0.724890 -0.158683 0.258459
0.735449 -0.093574 0.274679
0.746134 -0.016551 0.290112
0.756968 0.074293 0.304933
0.767956 0.177742 0.319266
0.779130 0.241200 0.333249
0.790510 0.281554 0.346980
0.802124 0.312518 0.360559
0.814023 0.338441 0.374092
0.826237 0.361186 0.387654
0.838839 0.381768 0.401351
0.851898 0.400696 0.415273
0.865505 0.418203 0.429527
0.879778 0.434270 0.444225
0.894895 0.448603 0.459524
-0.044195 0.329152 0.051067
-0.036155 0.328525 0.051798
-0.013513 0.326739 0.054178
0.023867 0.323723 0.059232
0.072705 0.319674 0.068078
0.128110 0.314974 0.081336
0.165468 0.312585 0.086777
0.192117 0.311177 0.086928
0.216944 0.309414 0.087165
0.239885 0.307302 0.087417
0.261072 0.304838 0.087707
0.513212 0.629357 -106.920883
0.299019 0.297501 0.064073
0.282473 0.284746 0.309091
0.093751 0.225886 0.425749
-88.361740 -274.605896 0.946104
0.414408 0.180071 -0.497594
0.399877 0.214846 0.043718
0.401347 0.239620 0.053574
0.407000 0.250053 0.061467
0.414847 0.254582 0.072650
0.423586 0.257449 0.083678
0.433154 0.258406 0.092156
0.443029 0.258834 0.099365
0.476835 -0.109899 0.048608
0.395474 0.365056 0.351581
0.475711 0.243891 0.099658
0.487486 0.227148 0.091765
0.499010 0.204316 0.084649
0.510269 0.170907 0.078421
0.521292 0.121387 0.073038
0.532097 0.069911 0.068465
0.542706 0.018959 0.064685
0.553152 -0.030672 0.061713
0.563453 -0.078163 0.059617
0.573638 -0.122804 0.058512
0.583732 -0.163930 0.058568
0.593752 -0.200928 0.060003
0.603725 -0.233275 0.063081
0.613665 -0.260485 0.068097
0.623592 -0.282158 0.075379
0.633520 -0.297919 0.085282
0.643461 -0.307455 0.098175
0.653431 -0.310461 0.114454
0.663439 -0.306694 0.134533
0.673493 -0.295836 0.158773
0.683611 -0.277585 0.182754
0.693794 -0.251569 0.204248
0.704060 -0.217312 0.223876
0.714413 -0.174168 0.242035
0.724869 -0.121344 0.259037
0.735433 -0.057754 0.275103
0.746123 0.017978 0.290426
0.756960 0.107684 0.305167
0.767950 0.199327 0.319444
0.779127 0.251658 0.333385
0.790508 0.287994 0.347085
0.802122 0.316933 0.360641
0.814022 0.341647 0.374158
0.826237 0.363612 0.387705
0.838840 0.383671 0.401393
0.851899 0.402219 0.415309
0.865507 0.419452 0.429557
0.879780 0.435327 0.444249
0.894898 0.449512 0.459545
-0.058353 0.340474 0.048189
-0.051287 0.339995 0.048851
-0.031070 0.338615 0.050965
0.003166 0.336237 0.055340
0.049761 0.332929 0.062988
0.105151 0.328909 0.074754
0.160208 0.325012 0.088286
0.186858 0.323820 0.088944
0.211213 0.322448 0.089136
0.234047 0.320772 0.089398
0.255339 0.318792 0.089681
0.275178 0.316509 0.090001
0.412813 0.525765 -28.094036
0.312150 0.309517 0.054123
0.299066 0.299573 0.305337
0.194443 0.262291 0.419155
-9.742969 -20.351877 0.741360
0.433050 0.223412 -1.127506
0.413150 0.220574 0.021704
0.413114 0.249847 0.050115
0.418097 0.262115 0.056332
0.425509 0.267581 0.068814
0.434242 0.270092 0.080479
