OCIO/luts/ACES2_Candidates_rev060/ACES2 Candidate CAMDRT rev060 Rec2020_inverse.cube
TITLE "Generated by Foundry::LUT"
LUT_3D_SIZE 65
0.072906 0.072906 0.072906
0.132576 0.072726 0.073158
0.189653 0.072288 0.073376
0.225922 0.071610 0.073556
0.252105 0.070717 0.073704
0.272759 0.069643 0.073828
0.289912 0.068430 0.073938
0.304646 0.067117 0.074043
0.317607 0.065743 0.074152
0.329215 0.064337 0.074271
0.339757 0.062923 0.074405
0.349440 0.061520 0.074559
0.358416 0.060139 0.074736
0.366802 0.058788 0.074937
0.374689 0.057474 0.075165
0.382149 0.056198 0.075421
0.389239 0.054962 0.075707
0.396006 0.053767 0.076022
0.402490 0.052610 0.076369
0.408724 0.051493 0.076748
0.414734 0.050415 0.077161
0.420544 0.049373 0.077607
0.426184 0.048227 0.078059
0.431640 0.047398 0.078607
0.436958 0.046462 0.079162
0.442142 0.045558 0.079755
0.447202 0.044688 0.080387
0.452149 0.043848 0.081060
0.456991 0.043038 0.081775
0.461738 0.042257 0.082533
0.466395 0.041504 0.083336
0.470970 0.040777 0.084184
0.475468 0.040079 0.085080
0.479895 0.039401 0.086024
0.484256 0.038751 0.087018
0.488556 0.038121 0.088065
0.492798 0.037511 0.089165
0.496986 0.036920 0.090320
0.501125 0.036348 0.091533
0.505217 0.035787 0.092805
0.509266 0.035244 0.094138
0.513275 0.034708 0.095534
0.517246 0.034183 0.096996
0.521182 0.033662 0.098525
0.525087 0.033141 0.100124
0.528962 0.032621 0.101796
0.532810 0.032097 0.103543
0.536632 0.031564 0.105369
0.540433 0.031017 0.107275
0.544212 0.030453 0.109266
0.547974 0.029865 0.111344
0.551719 0.029250 0.113514
0.555451 0.028597 0.115778
0.559170 0.027901 0.118142
0.562879 0.027160 0.120609
0.566581 0.026359 0.123185
0.570277 0.025496 0.125875
0.573969 0.024551 0.128682
0.577659 0.023522 0.131614
0.581350 0.022392 0.134677
0.585044 0.021157 0.137880
0.588742 0.019800 0.141227
0.592448 0.018294 0.144727
0.596162 0.016635 0.148390
0.599889 0.014798 0.152225
0.073975 0.116267 0.073789
0.106344 0.106361 0.073847
0.173935 0.093245 0.073975
0.217851 0.086642 0.074325
0.246263 0.083709 0.074854
0.267637 0.082604 0.075504
0.286170 0.079802 0.075440
0.301840 0.077171 0.075376
0.315444 0.074732 0.075344
0.327511 0.072443 0.075345
0.338393 0.070281 0.075378
0.348333 0.068236 0.075446
0.357507 0.066297 0.075547
0.366048 0.064460 0.075683
0.374058 0.062718 0.075853
0.381617 0.061064 0.076059
0.388787 0.059493 0.076299
0.395620 0.057999 0.076575
0.402158 0.056576 0.076886
0.408437 0.055221 0.077233
0.414485 0.053927 0.077616
0.420327 0.052689 0.078036
0.425983 0.051510 0.078493
0.431473 0.050379 0.078989
0.436811 0.049297 0.079524
0.442012 0.048261 0.080098
0.447087 0.047269 0.080714
0.452046 0.046317 0.081371
0.456900 0.045404 0.082071
0.461656 0.044526 0.082815
0.466322 0.043688 0.083605
0.470904 0.042880 0.084441
0.475409 0.042104 0.085325
0.479842 0.041357 0.086259
0.484209 0.040641 0.087244
0.488513 0.039949 0.088281
0.492759 0.039282 0.089372
0.496951 0.038640 0.090519
0.501093 0.038017 0.091724
0.505189 0.037411 0.092988
0.509240 0.036824 0.094314
0.513251 0.036247 0.095703
0.517225 0.035682 0.097159
0.521164 0.035126 0.098681
0.525070 0.034574 0.100275
0.528947 0.034020 0.101941
0.532796 0.033466 0.103683
0.536620 0.032905 0.105503
0.540421 0.032331 0.107404
0.544202 0.031744 0.109390
0.547965 0.031133 0.111464
0.551711 0.030495 0.113629
0.555443 0.029824 0.115890
0.559164 0.029109 0.118249
0.562874 0.028351 0.120713
0.566576 0.027534 0.123285
0.570273 0.026652 0.125970
0.573965 0.025696 0.128775
0.577656 0.024653 0.131704
0.581348 0.023518 0.134765
0.585041 0.022269 0.137963
0.588740 0.020899 0.141308
0.592446 0.019390 0.144805
0.596161 0.017721 0.148465
0.599889 0.015884 0.152298
0.075199 0.163307 0.074787
0.091100 0.158183 0.074904
0.143147 0.143254 0.075167
0.199526 0.128318 0.075395
0.235348 0.117145 0.075693
0.260692 0.109624 0.076173
0.280375 0.104534 0.076702
0.296475 0.101330 0.077366
0.310369 0.098913 0.077951
0.322467 0.097860 0.078770
0.333595 0.096633 0.079377
0.344059 0.094195 0.079513
0.353937 0.090514 0.079246
0.363051 0.087042 0.079052
0.371524 0.083817 0.078940
0.379460 0.080823 0.078901
0.386943 0.078019 0.078924
0.394036 0.075405 0.079009
0.400790 0.072966 0.079151
0.407250 0.070685 0.079348
0.413451 0.068550 0.079597
0.419422 0.066547 0.079897
0.425189 0.064665 0.080245
0.430774 0.062892 0.080642
0.436194 0.061222 0.081087
0.441465 0.059647 0.081579
0.446601 0.058156 0.082118
0.451614 0.056745 0.082705
0.456514 0.055409 0.083341
0.461311 0.054139 0.084025
0.466013 0.052935 0.084759
0.470627 0.051790 0.085543
0.475160 0.050700 0.086379
0.479619 0.049662 0.087267
0.484007 0.048674 0.088208
0.488331 0.047728 0.089205
0.492595 0.046823 0.090258
0.496803 0.045958 0.091369
0.500960 0.045126 0.092540
0.505068 0.044326 0.093772
0.509131 0.043553 0.095067
0.513153 0.042805 0.096427
0.517136 0.042080 0.097854
0.521083 0.041369 0.099350
0.524997 0.040675 0.100918
0.528881 0.039990 0.102560
0.532737 0.039309 0.104279
0.536567 0.038625 0.106076
0.540374 0.037947 0.107957
0.544160 0.037254 0.109922
0.547927 0.036547 0.111977
0.551677 0.035814 0.114123
0.555413 0.035060 0.116366
0.559137 0.034265 0.118708
0.562850 0.033432 0.121155
0.566556 0.032549 0.123711
0.570255 0.031604 0.126382
0.573950 0.030590 0.129171
0.577643 0.029493 0.132086
0.581337 0.028309 0.135134
0.585033 0.027020 0.138320
0.588733 0.025612 0.141652
0.592441 0.024071 0.145138
0.596158 0.022371 0.148786
0.599887 0.020511 0.152609
0.076585 0.199579 0.075886
0.086792 0.197306 0.076201
0.123453 0.190008 0.076540
0.178749 0.178946 0.076826
0.220332 0.166483 0.077149
0.249961 0.154258 0.077487
0.272602 0.143844 0.077855
0.290767 0.135872 0.078356
0.306025 0.129654 0.078869
0.319308 0.124509 0.079297
0.331039 0.120495 0.079799
0.341613 0.117248 0.080320
0.351464 0.113609 0.080533
0.360449 0.111044 0.080982
0.368762 0.109951 0.081799
0.376697 0.108387 0.082393
0.384224 0.106836 0.082943
0.391429 0.104958 0.083363
0.398370 0.102508 0.083599
0.405059 0.099585 0.083700
0.411513 0.096256 0.083700
0.417714 0.093009 0.083742
0.423677 0.089984 0.083864
0.429430 0.087169 0.084062
0.435000 0.084477 0.084314
0.440404 0.081934 0.084627
0.445655 0.079545 0.085003
0.450770 0.077294 0.085441
0.455759 0.075176 0.085939
0.460634 0.073180 0.086497
0.465406 0.071295 0.087113
0.470081 0.069513 0.087788
0.474669 0.067831 0.088522
0.479176 0.066237 0.089316
0.483608 0.064725 0.090168
0.487971 0.063292 0.091081
0.492270 0.061928 0.092056
0.496510 0.060631 0.093093
0.500694 0.059395 0.094193
0.504828 0.058215 0.095359
0.508914 0.057086 0.096591
0.512956 0.056004 0.097892
0.516958 0.054959 0.099262
0.520923 0.053953 0.100704
0.524852 0.052978 0.102220
0.528750 0.052028 0.103813
0.532619 0.051101 0.105485
0.536461 0.050188 0.107237
0.540278 0.049286 0.109075
0.544074 0.048385 0.110999
0.547850 0.047485 0.113013
0.551609 0.046574 0.115122
0.555353 0.045650 0.117328
0.559083 0.044702 0.119636
0.562803 0.043724 0.122050
0.566514 0.042697 0.124574
0.570219 0.041632 0.127214
0.573919 0.040504 0.129974
0.577617 0.039302 0.132860
0.581315 0.038026 0.135881
0.585015 0.036650 0.139041
0.588719 0.035167 0.142349
0.592431 0.033558 0.145811
0.596151 0.031810 0.149438
0.599883 0.029899 0.153239
0.078126 0.225829 0.077080
0.086763 0.224152 0.077997
0.113255 0.220426 0.078051
0.160737 0.213849 0.078462
0.205369 0.205621 0.078761
0.238036 0.196693 0.079145
0.263170 0.187805 0.079516
0.283377 0.179305 0.079867
0.300228 0.171304 0.080184
0.314619 0.164022 0.080593
0.327260 0.157268 0.080972
0.338644 0.150737 0.081193
0.348947 0.145082 0.081459
0.358380 0.140226 0.081783
0.367231 0.135219 0.081881
0.375509 0.130536 0.081971
0.383446 0.124887 0.081681
0.390803 0.120713 0.081796
0.397764 0.117578 0.082162
0.404348 0.115903 0.082902
0.410719 0.113824 0.083489
0.416842 0.112023 0.084130
0.422708 0.110954 0.084959
0.428410 0.109696 0.085723
0.433954 0.108368 0.086465
0.439349 0.107017 0.087202
0.444605 0.105680 0.087951
0.449732 0.104363 0.088717
0.454745 0.103004 0.089487
0.459661 0.101419 0.090216
0.464504 0.099177 0.090795
0.469261 0.096657 0.091331
0.473921 0.094308 0.091944
0.478498 0.091974 0.092595
0.482995 0.089712 0.093302
0.487417 0.087568 0.094079
0.491768 0.085537 0.094926
0.496055 0.083607 0.095842
0.500283 0.081772 0.096830
0.504455 0.080029 0.097888
0.508577 0.078366 0.099019
0.512651 0.076780 0.100223
0.516682 0.075262 0.101502
0.520672 0.073807 0.102857
0.524626 0.072408 0.104291
0.528546 0.071059 0.105805
0.532435 0.069754 0.107401
0.536295 0.068484 0.109082
0.540129 0.067249 0.110851
0.543940 0.066035 0.112710
0.547730 0.064841 0.114662
0.551502 0.063655 0.116710
0.555258 0.062472 0.118858
0.558999 0.061279 0.121111
0.562729 0.060076 0.123471
0.566450 0.058850 0.125945
0.570163 0.057587 0.128536
0.573871 0.056283 0.131250
0.577576 0.054924 0.134093
0.581281 0.053498 0.137070
0.584988 0.051994 0.140189
0.588698 0.050393 0.143457
0.592415 0.048689 0.146884
0.596140 0.046850 0.150475
0.599877 0.044868 0.154241
0.079805 0.246621 0.078363
0.088185 0.245170 0.079890
0.108232 0.243025 0.079727
0.147157 0.238867 0.080162
0.192141 0.233297 0.080590
0.226570 0.226862 0.080900
0.253528 0.220015 0.081311
0.275336 0.213153 0.081693
0.293536 0.206436 0.081985
0.309081 0.200001 0.082282
0.322696 0.193767 0.082466
0.334762 0.187900 0.082717
0.345708 0.182070 0.082812
0.355675 0.176536 0.082969
0.364924 0.170867 0.082985
0.373577 0.164926 0.082873
0.381617 0.159433 0.082953
0.389394 0.152219 0.082481
0.396595 0.146652 0.082507
0.403595 0.139876 0.082110
0.410379 0.132044 0.081400
0.416711 0.126375 0.081289
0.422866 0.120068 0.080993
0.428581 0.118234 0.081843
0.434146 0.116243 0.082627
0.439570 0.114092 0.083354
0.444856 0.111916 0.084065
0.449901 0.111874 0.085323
0.454838 0.111899 0.086601
0.459669 0.112097 0.087931
0.464397 0.112547 0.089340
0.469033 0.113241 0.090829
0.473582 0.114158 0.092397
0.478054 0.115217 0.094027
0.482462 0.116218 0.095668
0.486823 0.116772 0.097220
0.491163 0.116133 0.098484
0.495497 0.113759 0.099324
0.499771 0.111380 0.100207
0.503985 0.109151 0.101175
0.508143 0.107071 0.102231
0.512251 0.105126 0.103374
0.516311 0.103310 0.104605
0.520331 0.101488 0.105893
0.524317 0.099537 0.107210
0.528266 0.097662 0.108612
0.532182 0.095861 0.110102
0.536067 0.094127 0.111682
0.539924 0.092444 0.113353
0.543756 0.090816 0.115119
0.547566 0.089227 0.116982
0.551355 0.087671 0.118946
0.555127 0.086142 0.121013
0.558884 0.084633 0.123188
0.562627 0.083127 0.125474
0.566361 0.081619 0.127877
0.570086 0.080105 0.130400
0.573805 0.078562 0.133048
0.577521 0.076988 0.135828
0.581235 0.075368 0.138746
0.584950 0.073688 0.141807
0.588669 0.071936 0.145022
0.592393 0.070091 0.148395
0.596126 0.068144 0.151936
0.599869 0.066069 0.155655
0.081600 0.263982 0.079726
0.089202 0.262863 0.081337
0.106066 0.261281 0.081525
0.138491 0.258510 0.081934
0.181202 0.254611 0.082433
0.216275 0.249906 0.082863
0.244372 0.244691 0.083179
0.267377 0.239206 0.083583
0.286651 0.233687 0.083954
0.303164 0.228236 0.084242
0.317590 0.222896 0.084438
0.330396 0.217684 0.084570
0.341950 0.212521 0.084569
0.352456 0.207491 0.084577
0.362096 0.202614 0.084619
0.371083 0.197613 0.084505
0.379498 0.192516 0.084325
0.387449 0.187130 0.084016
0.395027 0.181145 0.083500
0.402119 0.175723 0.083347
0.409022 0.168817 0.082719
0.415573 0.161961 0.082290
0.421848 0.154878 0.081949
0.427981 0.146342 0.081275
0.433964 0.136783 0.080357
0.439565 0.130365 0.080250
0.445035 0.123534 0.080035
0.450256 0.119251 0.080427
0.455229 0.118211 0.081586
0.460096 0.117255 0.082761
0.464862 0.116475 0.083982
0.469530 0.115987 0.085281
0.474052 0.117188 0.087010
0.478456 0.119723 0.089097
0.482791 0.122551 0.091291
0.487061 0.125648 0.093588
0.491272 0.128972 0.095983
0.495434 0.132319 0.098422
0.499558 0.135421 0.100837
0.503657 0.137874 0.103118
0.507747 0.139082 0.105105
0.511851 0.138177 0.106566
0.515957 0.135505 0.107601
0.520016 0.132960 0.108727
0.524031 0.130562 0.109952
0.528007 0.128303 0.111276
0.531946 0.126169 0.112699
0.535852 0.124159 0.114224
0.539728 0.122259 0.115853
0.543576 0.120463 0.117587
0.547401 0.118762 0.119430
0.551203 0.117140 0.121383
0.554987 0.115595 0.123449
0.558755 0.114114 0.125632
0.562508 0.112690 0.127935
0.566250 0.111307 0.130363
0.569988 0.109637 0.132838
0.573721 0.107811 0.135401
0.577450 0.105975 0.138100
0.581177 0.104114 0.140939
0.584903 0.102222 0.143928
0.588632 0.100288 0.147070
0.592367 0.098281 0.150375
0.596108 0.096200 0.153853
0.599860 0.094013 0.157480
0.083483 0.278992 0.081157
0.090199 0.278156 0.082661
0.105506 0.276791 0.083379
0.133124 0.274856 0.083767
0.172455 0.272046 0.084273
0.207441 0.268532 0.084796
0.236051 0.264520 0.085223
0.259848 0.260182 0.085548
0.279956 0.255655 0.085933
0.297247 0.251089 0.086277
0.312375 0.246542 0.086506
0.325813 0.242034 0.086615
0.337892 0.237590 0.086664
0.348876 0.233200 0.086642
0.359001 0.228751 0.086430
0.368329 0.224441 0.086336
0.377129 0.219781 0.085851
0.385327 0.215254 0.085546
0.393122 0.210382 0.085019
0.400427 0.205816 0.084794
0.407440 0.200775 0.084338
0.414236 0.194814 0.083513
0.420629 0.189541 0.083201
0.426860 0.183205 0.082555
0.432927 0.175692 0.081672
0.438633 0.169653 0.081504
0.444225 0.162361 0.081092
0.449710 0.153373 0.080432
0.455084 0.143269 0.079600
0.460140 0.137095 0.079719
0.465086 0.130969 0.079843
0.469932 0.124874 0.079972
0.474478 0.125134 0.081565
0.478923 0.126399 0.083409
0.483292 0.128017 0.085362
0.487590 0.130041 0.087441
0.491820 0.132511 0.089662
0.495984 0.135499 0.092049
0.500030 0.140965 0.095108
0.504038 0.146462 0.098234
0.508013 0.151823 0.101381
0.511964 0.156793 0.104483
0.515899 0.160927 0.107460
0.519829 0.163849 0.110181
0.523768 0.165184 0.112494
0.527730 0.164403 0.114216
0.531705 0.161753 0.115449
0.535645 0.159083 0.116770
0.539553 0.156466 0.118201
0.543431 0.153905 0.119744
0.547282 0.151464 0.121402
0.551109 0.149133 0.123176
0.554915 0.146909 0.125069
0.558703 0.144780 0.127083
0.562476 0.142735 0.129223
0.566235 0.140762 0.131491
0.569985 0.138845 0.133893
0.573726 0.136986 0.136431
0.577462 0.135159 0.139114
0.581194 0.133356 0.141944
0.584927 0.131555 0.144928
0.588661 0.129755 0.148074
0.592401 0.127928 0.151389
0.596147 0.126063 0.154881
0.599903 0.124133 0.158494
0.085425 0.292295 0.082645
0.091542 0.291639 0.084090
0.106833 0.290321 0.085714
0.129823 0.289008 0.085593
0.165599 0.286924 0.086092
0.199993 0.284248 0.086662
0.228730 0.281113 0.087209
0.252943 0.277654 0.087642
0.273635 0.273975 0.087978
0.291534 0.270156 0.088322
0.307236 0.266299 0.088623
0.321190 0.262445 0.088836
0.333748 0.258606 0.088916
0.345170 0.254782 0.088882
0.355659 0.250957 0.088727
0.365405 0.247036 0.088326
0.374443 0.243175 0.088027
0.382899 0.239327 0.087736
0.390911 0.235284 0.087222
0.398499 0.231150 0.086682
0.405711 0.226899 0.086122
0.412624 0.222357 0.085426
0.419280 0.217395 0.084568
0.425561 0.212968 0.084229
0.431749 0.207248 0.083238
0.437598 0.202338 0.082884
0.443295 0.196823 0.082364
0.448895 0.190111 0.081504
0.454223 0.184392 0.081242
0.459383 0.178894 0.081183
0.464448 0.172636 0.080997
0.469431 0.165195 0.080628
0.474324 0.156665 0.080187
0.478976 0.151474 0.080673
0.483526 0.147047 0.081336
0.488002 0.142831 0.082050
0.492345 0.141065 0.083336
0.496474 0.145098 0.086002
0.500551 0.149456 0.088799
0.504579 0.154157 0.091734
0.508561 0.159063 0.094799
0.512503 0.163917 0.097983
0.516409 0.168615 0.101260
0.520268 0.173585 0.104767
0.524086 0.178690 0.108485
0.527899 0.182858 0.112027
0.531715 0.185970 0.115294
0.535542 0.187869 0.118171
0.539385 0.188502 0.120608
0.543270 0.186969 0.122238
0.547152 0.184714 0.123676
0.551007 0.182499 0.125239
0.554839 0.180322 0.126926
0.558651 0.178182 0.128740
0.562445 0.176071 0.130686
0.566225 0.173987 0.132765
0.569993 0.171922 0.134982
0.573751 0.169875 0.137340
0.577503 0.167828 0.139846
0.581250 0.165773 0.142503
0.584997 0.163701 0.145319
0.588744 0.161599 0.148299
0.592495 0.159445 0.151450
0.596252 0.157223 0.154782
0.600019 0.154906 0.158247
0.087394 0.304305 0.084177
0.093161 0.303763 0.085622
0.108625 0.302518 0.087997
0.127868 0.301591 0.087401
0.160305 0.300007 0.087884
0.193795 0.297930 0.088486
0.222362 0.295448 0.089105
0.246759 0.292658 0.089657
0.267794 0.289646 0.090091
0.286140 0.286480 0.090449
0.302300 0.283207 0.090754
0.316700 0.279897 0.091002
0.329668 0.276579 0.091154
0.341461 0.273263 0.091197
0.352288 0.269940 0.091091
0.362310 0.266597 0.090840
0.371650 0.263210 0.090446
0.380396 0.259792 0.089991
0.388654 0.256265 0.089369
0.396435 0.252751 0.088838
0.403833 0.249146 0.088241
0.410908 0.245359 0.087508
0.417700 0.241344 0.086648
0.424212 0.237188 0.085805
0.430401 0.233310 0.085355
0.436520 0.228320 0.084136
0.442224 0.224664 0.084084
0.447920 0.219469 0.083097
0.453332 0.215164 0.082831
0.458596 0.210698 0.082579
0.463781 0.205450 0.082052
0.468834 0.199997 0.081594
0.473642 0.196309 0.082011
0.478377 0.192245 0.082326
0.483035 0.187894 0.082601
0.487635 0.182878 0.082729
0.492162 0.177517 0.082858
0.496518 0.174559 0.083810
0.500777 0.172695 0.085117
0.504982 0.170981 0.086492
0.509136 0.169462 0.087950
0.513115 0.172422 0.090731
0.516985 0.177747 0.094351
0.520824 0.182804 0.098067
0.524636 0.187577 0.101858
0.528426 0.191995 0.105684
0.532199 0.196014 0.109503
0.535959 0.199568 0.113262
0.539692 0.203164 0.117178
0.543418 0.206216 0.120965
0.547163 0.208181 0.124312
0.550942 0.208727 0.127007
0.554765 0.207688 0.128959
0.558603 0.205734 0.130549
0.562421 0.203808 0.132274
0.566224 0.201904 0.134136
0.570012 0.200027 0.136140
0.573790 0.198171 0.138291
0.577560 0.196330 0.140593
0.581324 0.194498 0.143051
0.585085 0.192671 0.145671
0.588847 0.190836 0.148459
0.592611 0.188982 0.151421
0.596381 0.187096 0.154566
0.600211 0.183195 0.157181
0.089358 0.315302 0.085742
0.095006 0.314832 0.087252
0.110273 0.313709 0.090037
0.126707 0.313004 0.089136
0.156221 0.311770 0.089624
0.188619 0.310134 0.090223
0.216839 0.308142 0.090898
0.241256 0.305868 0.091546
0.262492 0.303379 0.092113
0.281128 0.300732 0.092572
0.297641 0.297976 0.092949
0.312397 0.295136 0.093204
0.325714 0.292263 0.093400
0.337835 0.289375 0.093501
0.348960 0.286480 0.093480
0.359252 0.283569 0.093307
0.368847 0.280619 0.092936
0.377812 0.277671 0.092570
0.386268 0.274652 0.092011
0.394264 0.271580 0.091374
0.401888 0.268351 0.090496
0.409130 0.265099 0.089701
0.416042 0.261794 0.088932
0.422699 0.258282 0.087986
0.429063 0.254797 0.087223
0.435158 0.251415 0.086695
0.441131 0.247468 0.085678
0.446812 0.243991 0.085275
0.452420 0.239742 0.084302
0.457719 0.236541 0.084323
0.463008 0.232141 0.083521
0.468068 0.228569 0.083432
0.472975 0.225293 0.083603
0.477822 0.221507 0.083524
0.482596 0.217313 0.083309
0.487176 0.214465 0.083899
0.491647 0.212145 0.084784
0.496060 0.209726 0.085640
0.500413 0.207277 0.086508
0.504727 0.204442 0.087238
0.508985 0.201578 0.088008
0.513129 0.200129 0.089424
0.517182 0.199857 0.091361
0.521197 0.199655 0.093352
0.525175 0.199540 0.095409
0.529120 0.199508 0.097537
0.532862 0.203945 0.101681
0.536575 0.208351 0.106004
0.540252 0.213057 0.110685
0.543926 0.217084 0.115214
0.547604 0.220403 0.119516
0.551291 0.223002 0.123528
0.554992 0.224857 0.127191
0.558713 0.225913 0.130442
0.562461 0.226106 0.133224
0.566239 0.225360 0.135499
0.570047 0.223686 0.137303
0.573846 0.221978 0.139224
0.577635 0.220288 0.141299
0.581418 0.218614 0.143533
0.585196 0.216954 0.145932
0.588974 0.215296 0.148502
0.592753 0.213642 0.151250
0.596537 0.211979 0.154183
0.600768 0.197061 0.151372
0.091278 0.325487 0.087324
0.096884 0.325071 0.088906
0.111873 0.324070 0.091948
0.126091 0.323501 0.090824
0.153033 0.322526 0.091276
0.184309 0.321211 0.091901
0.212053 0.319596 0.092603
0.236361 0.317726 0.093308
0.257701 0.315651 0.094000
0.276532 0.313424 0.094583
0.293294 0.311083 0.095065
0.308335 0.308662 0.095470
0.321935 0.306174 0.095668
0.334338 0.303655 0.095790
0.345727 0.301121 0.095847
0.356264 0.298571 0.095747
0.366077 0.295999 0.095490
0.375260 0.293410 0.095129
0.383915 0.290770 0.094576
0.392097 0.288082 0.093908
0.399874 0.285318 0.093091
0.407232 0.282612 0.092510
0.414327 0.279674 0.091472
0.421125 0.276651 0.090411
0.427633 0.273610 0.089474
0.433858 0.270664 0.088813
0.439858 0.267700 0.088213
0.445711 0.264436 0.087304
0.451362 0.261190 0.086556
0.456808 0.258125 0.086126
0.462119 0.254940 0.085653
0.467304 0.251593 0.085121
0.472269 0.248998 0.085362
0.477221 0.245523 0.084888
0.481995 0.242720 0.085050
0.486614 0.240571 0.085751
0.491189 0.238052 0.086191
0.495706 0.235340 0.086531
0.500134 0.232839 0.087061
0.504400 0.231731 0.088532
0.508621 0.230573 0.089968
0.512797 0.229415 0.091411
0.516929 0.228292 0.092890
0.521036 0.226870 0.094206
0.525103 0.225489 0.095577
0.529100 0.224746 0.097362
0.533010 0.225069 0.099807
0.536894 0.225408 0.102296
0.540732 0.226371 0.105205
0.544552 0.227188 0.108081
0.548325 0.228447 0.111293
0.551946 0.232154 0.116186
0.555574 0.235267 0.120862
0.559213 0.237799 0.125278
0.562867 0.239750 0.129393
0.566541 0.241085 0.133151
0.570241 0.241771 0.136507
0.573972 0.241757 0.139419
0.577738 0.240971 0.141848
0.581536 0.239495 0.143890
0.585333 0.237968 0.146049
0.589128 0.236456 0.148381
0.592923 0.234953 0.150893
0.596722 0.233450 0.153592
0.601632 0.204118 0.141641
0.093121 0.335006 0.088912
0.098685 0.334636 0.090546
0.113452 0.333743 0.093789
0.127698 0.333180 0.093357
0.150564 0.332484 0.092850
0.180593 0.331419 0.093441
0.207831 0.330092 0.094161
0.231989 0.328538 0.094942
0.253362 0.326795 0.095736
0.272328 0.324907 0.096447
0.289276 0.322906 0.097067
0.304533 0.320824 0.097570
0.318368 0.318683 0.098008
0.330999 0.316487 0.098141
0.342619 0.314263 0.098206
0.353371 0.312023 0.098191
0.363380 0.309768 0.098054
0.372751 0.307496 0.097783
0.381569 0.305200 0.097362
0.389907 0.302867 0.096788
0.397822 0.300494 0.096091
0.405358 0.298073 0.095295
0.412567 0.295582 0.094369
0.419459 0.293065 0.093481
0.426103 0.290419 0.092382
0.432485 0.287748 0.091370
0.438615 0.285106 0.090543
0.444524 0.282485 0.089853
0.450264 0.279751 0.089059
0.455880 0.276738 0.087948
0.461200 0.274402 0.087939
0.466521 0.271253 0.086878
0.471533 0.269150 0.087246
0.476538 0.266362 0.086808
0.481368 0.264031 0.086952
0.486058 0.262085 0.087524
0.490736 0.259515 0.087474
0.495281 0.257421 0.087934
0.499669 0.256186 0.089211
0.504030 0.254645 0.090192
0.508343 0.253009 0.091093
0.512609 0.251312 0.091959
0.516754 0.250498 0.093589
0.520829 0.250087 0.095557
0.524870 0.249654 0.097510
0.528878 0.249225 0.099476
0.532853 0.248814 0.101473
0.536814 0.248196 0.103324
0.540726 0.248029 0.105570
0.544606 0.247948 0.107921
0.548410 0.248665 0.110965
0.552201 0.249228 0.113934
0.555981 0.249643 0.116836
0.559752 0.249911 0.119675
0.563515 0.250033 0.122457
0.567214 0.250900 0.125940
0.570827 0.252927 0.130509
0.574462 0.254450 0.134761
0.578124 0.255455 0.138661
0.581817 0.255928 0.142186
0.585546 0.255818 0.145295
0.589318 0.255047 0.147937
0.593132 0.253640 0.150174
0.597148 0.248907 0.149860
0.602704 0.208927 0.129446
0.094843 0.343970 0.090489
0.100382 0.343640 0.092167
0.115007 0.342840 0.095586
0.129357 0.342288 0.095747
0.148452 0.341799 0.094282
0.177418 0.340917 0.094929
0.204104 0.339820 0.095634
0.228062 0.338517 0.096461
0.249417 0.337044 0.097326
0.268471 0.335434 0.098148
0.285564 0.333715 0.098895
0.300995 0.331915 0.099532
0.315021 0.330054 0.100084
0.327849 0.328150 0.100557
0.339657 0.326200 0.100611
0.350598 0.324226 0.100636
0.360790 0.322235 0.100545
0.370331 0.320230 0.100357
0.379309 0.318205 0.100010
0.387795 0.316157 0.099516
0.395854 0.314066 0.098825
0.403509 0.311970 0.098173
0.410833 0.309815 0.097319
0.417874 0.307560 0.096183
0.424574 0.305389 0.095467
0.431063 0.303080 0.094396
0.437320 0.300726 0.093325
0.443346 0.298386 0.092411
0.449155 0.296104 0.091725
0.454795 0.293770 0.091000
0.460313 0.291245 0.089990
0.465595 0.289095 0.089763
0.470771 0.286811 0.089339
0.475808 0.284608 0.089100
0.480730 0.282438 0.088945
0.485488 0.280669 0.089391
0.490236 0.278373 0.089126
0.494779 0.276950 0.090031
0.499246 0.275601 0.091003
0.503703 0.273808 0.091422
0.508065 0.272294 0.092187
0.512273 0.271723 0.094034
