OCIO/luts/ACES2_Candidates_rev060/ACES2 Candidate CAMDRT rev060 Rec2020 HLG (P3D65 1000nit Limited)_inverse.cube
TITLE "Generated by Foundry::LUT"
LUT_3D_SIZE 9
0.072906 0.072906 0.072906
0.305255 0.056081 0.072035
0.397339 0.018653 0.069877
0.474800 -0.018493 0.072487
0.554174 -0.041263 0.096732
0.640168 -0.026337 0.185961
0.742372 -0.053227 0.299727
0.966288 -28.400053 0.502650
1.468035 1.468035 1.468035
0.070572 0.277536 0.075780
0.265684 0.256259 0.048168
0.382184 0.211515 0.086156
0.468852 0.171033 0.095649
0.553209 0.069280 0.107120
0.640075 0.044721 0.188724
0.742398 0.012491 0.300069
0.966498 -28.239792 0.502871
1.468035 1.468035 1.468035
0.072247 0.373683 0.084735
0.219727 0.368153 0.111401
0.365285 0.356743 0.009784
0.465208 0.328168 0.077699
0.576372 -1.033123 -0.025180
0.639637 0.299480 0.202430
0.742605 0.294096 0.302621
0.968126 -26.988575 0.504571
1.468035 1.468035 1.468035
0.113925 0.459219 0.122955
0.212558 0.457955 0.142893
0.906720 1.040317 -15569.391602
0.454115 0.448193 -0.059033
0.551003 0.431903 0.057192
0.640309 0.426832 0.197589
0.745107 0.405312 0.268693
0.976419 -30.347134 0.483712
1.468035 1.468035 1.468035
0.231992 0.546820 0.219854
0.257782 0.546662 0.223098
0.337127 0.546319 0.224870
-3.316576 0.578996 -2.764014
0.545439 0.541626 -0.311170
0.643711 0.537561 0.095501
0.749499 0.542283 0.264487
1.010761 -44.630726 -0.253442
1.468035 1.468035 1.468035
0.339557 0.641983 0.320835
0.345675 0.641984 0.321021
0.369654 0.642374 0.312046
0.442710 0.643220 0.291028
0.460853 0.656217 -1.318538
0.649850 0.647260 -1.016630
0.763643 0.663935 0.305023
1.468035 1.468035 1.468035
1.468035 1.468035 1.468035
0.395525 0.771888 0.429623
0.396985 0.771943 0.428829
0.407486 0.772359 0.422475
0.446217 0.774072 0.390476
0.567069 0.777843 0.356122
0.520566 0.819292 -10.495727
0.843558 0.842375 0.235127
1.468035 1.468035 1.468035
1.468035 1.468035 1.468035
1.468035 1.468035 1.468035
1.468035 1.468035 1.468035
1.468035 1.468035 1.468035
1.468035 1.468035 1.468035
1.468035 1.468035 1.468035
1.468035 1.468035 1.468035
1.468035 1.468035 1.468035
1.468035 1.468035 1.468035
1.468035 1.468035 1.468035
1.468035 1.468035 1.468035
1.468035 1.468035 1.468035
1.468035 1.468035 1.468035
1.468035 1.468035 1.468035
1.468035 1.468035 1.468035
1.468035 1.468035 1.468035
1.468035 1.468035 1.468035
1.468035 1.468035 1.468035
1.468035 1.468035 1.468035
0.055508 0.040812 0.347839
0.282461 0.065806 0.283825
0.393397 0.033580 0.203898
0.474156 -0.010728 0.151561
0.554073 -0.037841 0.157399
0.640161 -0.024789 0.217685
0.742386 -0.052242 0.309939
0.966386 -28.449869 0.506474
1.468035 1.468035 1.468035
0.078190 0.265925 0.265554
0.250074 0.250074 0.250074
0.369885 0.238024 0.234081
0.468270 0.173523 0.183790
0.553109 0.072166 0.169095
0.640068 0.046222 0.219690
0.742412 0.013468 0.310247
0.966596 -28.289907 0.506694
1.468035 1.468035 1.468035
0.076747 0.372365 0.198072
0.234239 0.364683 0.224273
0.355241 0.355860 0.230411
0.457636 0.343161 0.217517
0.574977 -0.939432 0.012030
0.639636 0.299542 0.229656
0.742619 0.294290 0.312546
0.968225 -27.038513 0.508381
1.468035 1.468035 1.468035
0.116063 0.459039 0.190723
0.213180 0.457783 0.203594
0.177278 0.466540 -0.037509
0.449397 0.449320 0.195372
0.547152 0.439127 0.206816
0.640538 0.425363 0.219211
0.745143 0.404846 0.281665
0.976529 -30.417521 0.488616
1.468035 1.468035 1.468035
0.232500 0.546800 0.243670
0.258183 0.546641 0.246200
0.336941 0.546320 0.247047
0.375394 0.553479 -0.274995
0.544084 0.542514 -0.078410
0.642602 0.538614 0.201576
0.749700 0.541278 0.270999
1.011037 -46.452099 -0.201942
1.468035 1.468035 1.468035
0.339674 0.641990 0.328253
0.345673 0.641993 0.328369
0.369698 0.642382 0.320144
0.441327 0.643328 0.297548
0.491179 0.653639 -1.196816
0.649430 0.647379 -0.777882
0.763773 0.663796 0.308939
1.468035 1.468035 1.468035
1.468035 1.468035 1.468035
0.395570 0.771908 0.432596
0.397020 0.771963 0.431828
0.407495 0.772380 0.425682
0.443960 0.774126 0.393479
0.566141 0.777924 0.358382
0.543314 0.818254 -10.154749
0.843631 0.842434 0.245259
1.468035 1.468035 1.468035
1.468035 1.468035 1.468035
1.468035 1.468035 1.468035
1.468035 1.468035 1.468035
1.468035 1.468035 1.468035
1.468035 1.468035 1.468035
1.468035 1.468035 1.468035
1.468035 1.468035 1.468035
1.468035 1.468035 1.468035
1.468035 1.468035 1.468035
1.468035 1.468035 1.468035
1.468035 1.468035 1.468035
1.468035 1.468035 1.468035
1.468035 1.468035 1.468035
1.468035 1.468035 1.468035
1.468035 1.468035 1.468035
1.468035 1.468035 1.468035
1.468035 1.468035 1.468035
1.468035 1.468035 1.468035
1.468035 1.468035 1.468035
-0.005811 -0.067200 0.443277
0.221360 -0.009527 0.425007
0.377567 0.055772 0.378802
0.470158 0.023953 0.339363
0.553375 -0.016007 0.315857
0.640110 -0.013405 0.320333
0.742490 -0.044599 0.362673
0.967127 -28.830332 0.531306
1.468035 1.468035 1.468035
0.085667 0.228461 0.405126
0.247041 0.251221 0.375107
0.366552 0.229064 0.366000
0.465388 0.184404 0.341518
0.552452 0.090533 0.318513
0.640019 0.057224 0.321078
0.742517 0.021169 0.362857
0.967339 -28.670551 0.531518
1.468035 1.468035 1.468035
0.097904 0.364888 0.364498
0.232627 0.360450 0.359979
0.353308 0.353308 0.353308
0.453846 0.346241 0.345840
0.574952 -0.890158 0.118753
0.639636 0.300084 0.324446
0.742724 0.295778 0.364235
0.968981 -27.420385 0.533147
1.468035 1.468035 1.468035
0.131006 0.457826 0.333447
0.217476 0.456698 0.335473
-2.233900 0.498474 -0.112885
0.448287 0.448476 0.338757
0.547188 0.438762 0.321126
0.644424 0.404536 0.284533
0.745307 0.404089 0.345352
0.977360 -30.962389 0.519207
1.468035 1.468035 1.468035
0.236098 0.546660 0.332163
0.260631 0.546505 0.333100
0.337212 0.546231 0.332921
0.438025 0.545984 0.321887
0.543236 0.543029 0.321306
0.642402 0.538244 0.308026
0.751203 0.533324 0.306806
1.012860 -56.496590 0.333003
1.468035 1.468035 1.468035
0.340490 0.642040 0.370052
0.346055 0.642051 0.370000
0.369996 0.642444 0.364812
0.433339 0.643941 0.339781
0.536948 0.646425 0.253291
0.648336 0.647632 0.292297
0.764748 0.662757 0.333583
1.468035 1.468035 1.468035
1.468035 1.468035 1.468035
0.395403 0.772065 0.452381
0.396923 0.772120 0.451779
0.407783 0.772534 0.446988
0.442235 0.774313 0.421773
0.558711 0.778538 0.374042
0.608177 0.812935 -9.243505
0.844184 0.842884 0.297309
1.468035 1.468035 1.468035
1.468035 1.468035 1.468035
1.468035 1.468035 1.468035
1.468035 1.468035 1.468035
1.468035 1.468035 1.468035
1.468035 1.468035 1.468035
1.468035 1.468035 1.468035
1.468035 1.468035 1.468035
1.468035 1.468035 1.468035
1.468035 1.468035 1.468035
1.468035 1.468035 1.468035
1.468035 1.468035 1.468035
1.468035 1.468035 1.468035
1.468035 1.468035 1.468035
1.468035 1.468035 1.468035
1.468035 1.468035 1.468035
1.468035 1.468035 1.468035
1.468035 1.468035 1.468035
1.468035 1.468035 1.468035
1.468035 1.468035 1.468035
-0.034174 -0.130025 0.508792
0.108653 -0.102674 0.505173
0.352426 0.003766 0.487223
0.461425 0.070779 0.462267
0.551168 0.045722 0.443121
0.639942 0.029990 0.435926
0.742892 -0.012174 0.453875
0.970171 -30.446598 0.594713
1.468035 1.468035 1.468035
0.106856 0.192615 0.490015
0.207469 0.201562 0.487091
0.352403 0.208793 0.476648
0.459325 0.196259 0.459702
0.550479 0.143246 0.443219
0.639860 0.099336 0.436140
0.742919 0.053823 0.453961
0.970390 -30.287663 0.594916
1.468035 1.468035 1.468035
0.134741 0.349983 0.474575
0.235976 0.351974 0.468554
0.352828 0.354472 0.455414
0.452539 0.345151 0.452268
0.572818 -0.892797 0.423981
0.639660 0.302796 0.436703
0.743130 0.301778 0.454612
0.972093 -29.046434 0.596491
1.468035 1.468035 1.468035
0.175152 0.454213 0.453797
0.230884 0.453618 0.453191
-2.849360 0.481254 0.486305
0.447529 0.447529 0.447529
0.548502 0.435458 0.437350
0.645181 0.401977 0.422238
0.745825 0.404159 0.445881
0.980788 -33.281094 0.591310
1.468035 1.468035 1.468035
0.249055 0.546194 0.441811
0.269904 0.546059 0.441982
0.338960 0.545925 0.441542
0.414525 0.549794 0.421762
0.543891 0.543563 0.425674
0.647094 0.531688 0.401610
0.756143 0.500032 0.385094
1.018035 -65.034233 0.559118
1.468035 1.468035 1.468035
0.343833 0.642251 0.451771
0.347849 0.642294 0.451560
0.371248 0.642696 0.449426
0.431351 0.644389 0.438788
0.534971 0.647216 0.411259
0.649249 0.648408 0.407678
0.768515 0.658597 0.392331
1.468035 1.468035 1.468035
1.468035 1.468035 1.468035
0.394590 0.772720 0.506121
0.396065 0.772775 0.505784
0.406753 0.773196 0.503144
0.441954 0.774988 0.490589
0.523453 0.780856 0.427546
0.645892 0.807501 -6.824283
0.846481 0.844780 0.385973
1.468035 1.468035 1.468035
1.468035 1.468035 1.468035
1.468035 1.468035 1.468035
1.468035 1.468035 1.468035
1.468035 1.468035 1.468035
1.468035 1.468035 1.468035
1.468035 1.468035 1.468035
1.468035 1.468035 1.468035
1.468035 1.468035 1.468035
1.468035 1.468035 1.468035
1.468035 1.468035 1.468035
1.468035 1.468035 1.468035
1.468035 1.468035 1.468035
1.468035 1.468035 1.468035
1.468035 1.468035 1.468035
1.468035 1.468035 1.468035
1.468035 1.468035 1.468035
1.468035 1.468035 1.468035
1.468035 1.468035 1.468035
1.468035 1.468035 1.468035
0.043750 -0.059503 0.573794
0.129127 -0.050867 0.573200
0.329006 0.002982 0.569254
0.450388 0.109151 0.559342
0.547439 0.167307 0.547970
0.639705 0.157472 0.542126
0.744167 0.100697 0.554183
0.980448 -36.664837 0.690170
1.468035 1.468035 1.468035
0.108053 0.118851 0.570216
0.183957 0.124422 0.569722
0.333379 0.159462 0.566400
0.450158 0.206820 0.557861
0.547167 0.219160 0.547634
0.639655 0.205290 0.542142
0.744195 0.166573 0.554231
0.980696 -36.515934 0.690391
1.468035 1.468035 1.468035
0.211153 0.340285 0.561447
0.253022 0.344177 0.559645
-0.174960 -0.779803 0.603613
0.448981 0.343143 0.552552
0.568039 -2.152606 0.577580
0.639822 0.313899 0.542135
0.744419 0.319766 0.554595
0.982698 -36.113590 0.691681
1.468035 1.468035 1.468035
0.235598 0.448914 0.553143
0.261423 0.448932 0.552653
0.345727 0.448637 0.550766
0.444454 0.444200 0.551673
0.546505 0.434813 0.547117
0.645998 0.397251 0.540818
0.747367 0.405105 0.551381
0.992482 -42.472256 0.693413
1.468035 1.468035 1.468035
0.279570 0.545349 0.544915
0.291154 0.545333 0.544902
0.345544 0.545346 0.544946
0.313501 0.551886 0.552062
0.543258 0.543258 0.543258
0.653250 0.521236 0.526957
0.758127 0.499504 0.532986
1.036046 -94.072968 0.702810
1.468035 1.468035 1.468035
0.350939 0.643090 0.547662
0.354188 0.643143 0.547599
0.375714 0.643546 0.547099
0.432890 0.645248 0.544597
0.517637 0.651657 0.526876
0.652184 0.650990 0.506383
0.779728 0.643673 0.474344
1.468035 1.468035 1.468035
1.468035 1.468035 1.468035
0.392557 0.774899 0.589152
0.394122 0.774955 0.589029
0.405060 0.775387 0.588054
0.440600 0.777229 0.583582
0.510229 0.783700 0.562845
0.623108 0.815266 -2.844891
0.854123 0.851320 0.481618
1.468035 1.468035 1.468035
1.468035 1.468035 1.468035
1.468035 1.468035 1.468035
1.468035 1.468035 1.468035
1.468035 1.468035 1.468035
1.468035 1.468035 1.468035
1.468035 1.468035 1.468035
1.468035 1.468035 1.468035
1.468035 1.468035 1.468035
1.468035 1.468035 1.468035
1.468035 1.468035 1.468035
1.468035 1.468035 1.468035
1.468035 1.468035 1.468035
1.468035 1.468035 1.468035
1.468035 1.468035 1.468035
1.468035 1.468035 1.468035
1.468035 1.468035 1.468035
1.468035 1.468035 1.468035
1.468035 1.468035 1.468035
1.468035 1.468035 1.468035
0.267160 0.246636 0.648048
0.281825 0.247359 0.647973
0.348371 0.252431 0.647422
0.446549 0.266858 0.645542
0.544902 0.284956 0.642171
0.640660 0.292705 0.641045
0.748202 0.283448 0.654830
1.019161 -76.446182 0.819905
1.468035 1.468035 1.468035
0.272242 0.272316 0.647610
0.286039 0.272813 0.647537
0.350022 0.276081 0.647019
0.446818 0.285848 0.645236
0.544882 0.298593 0.642034
0.640656 0.303823 0.641036
0.748236 0.296887 0.654867
1.019583 -77.004311 0.820176
1.468035 1.468035 1.468035
0.298675 0.359373 0.644895
0.308573 0.359425 0.644846
0.359855 0.359724 0.644501
0.448556 0.360548 0.643306
0.554445 -9.950195 0.714775
0.640984 0.349194 0.641428
0.748650 0.351130 0.655125
1.022899 -81.568687 0.822320
1.468035 1.468035 1.468035
0.309499 0.449913 0.642986
0.317073 0.449723 0.643057
0.358764 0.447907 0.643764
0.443319 0.441262 0.645752
0.544566 0.435234 0.644836
0.645760 0.394379 0.647236
0.751734 0.411505 0.655879
1.038377 -107.174301 0.832472
1.468035 1.468035 1.468035
0.327562 0.545992 0.641170
0.332669 0.545963 0.641274
0.363811 0.545724 0.642099
-21.351505 -8.011714 0.775998
0.535674 0.532400 0.658705
0.650705 0.520691 0.652584
0.762494 0.500264 0.656852
1.128530 -536.852844 0.895140
1.468035 1.468035 1.468035
0.370289 0.646012 0.645588
0.372772 0.646054 0.645633
0.389793 0.646374 0.645973
0.438937 0.647705 0.647384
0.498269 0.653786 0.653793
0.653071 0.653070 0.653071
0.797324 0.612795 0.634591
1.468035 1.468035 1.468035
1.468035 1.468035 1.468035
0.381840 0.781720 0.687120
0.383584 0.781778 0.687111
0.395970 0.782226 0.687042
0.434731 0.784144 0.686670
0.507473 0.790938 0.684377
-175.350708 0.873492 -11.048446
0.878750 0.873685 0.583981
1.468035 1.468035 1.468035
1.468035 1.468035 1.468035
1.468035 1.468035 1.468035
1.468035 1.468035 1.468035
1.468035 1.468035 1.468035
1.468035 1.468035 1.468035
1.468035 1.468035 1.468035
1.468035 1.468035 1.468035
1.468035 1.468035 1.468035
1.468035 1.468035 1.468035
1.468035 1.468035 1.468035
1.468035 1.468035 1.468035
1.468035 1.468035 1.468035
1.468035 1.468035 1.468035
1.468035 1.468035 1.468035
1.468035 1.468035 1.468035
1.468035 1.468035 1.468035
1.468035 1.468035 1.468035
1.468035 1.468035 1.468035
1.468035 1.468035 1.468035
0.390278 0.390978 0.736640
0.393521 0.391002 0.736645
0.414906 0.391184 0.736683
0.470993 0.391897 0.736865
0.554103 0.393717 0.737726
0.649177 0.396669 0.741977
0.762729 0.376578 0.763419
1.468035 1.468035 1.468035
1.468035 1.468035 1.468035
0.390596 0.394582 0.736627
0.393824 0.394601 0.736632
0.415138 0.394774 0.736670
0.471104 0.395436 0.736856
0.554142 0.397155 0.737728
0.649204 0.400049 0.741997
0.762809 0.378459 0.763511
1.468035 1.468035 1.468035
1.468035 1.468035 1.468035
0.392899 0.417831 0.736541
0.396037 0.417846 0.736547
0.416821 0.417950 0.736593
0.471919 0.418373 0.736807
0.554445 0.419561 0.737754
0.694623 -104.884880 0.884045
0.763427 0.391663 0.764215
1.468035 1.468035 1.468035
1.468035 1.468035 1.468035
0.389570 0.470374 0.737625
0.391565 0.469732 0.737764
0.406155 0.464923 0.738760
0.465571 0.462437 0.739466
0.552703 0.457544 0.741476
0.652573 0.422141 0.750309
0.766065 0.432555 0.767210
1.468035 1.468035 1.468035
1.468035 1.468035 1.468035
0.394374 0.555620 0.739933
0.396128 0.555446 0.740061
0.408588 0.554065 0.741047
0.447788 0.547112 0.745360
0.524873 0.494585 0.770100
0.658763 0.479341 0.771028
0.775379 0.507046 0.777665
1.468035 1.468035 1.468035
1.468035 1.468035 1.468035
0.408794 0.656748 0.749775
0.410139 0.656751 0.749868
0.419754 0.656766 0.750587
0.452087 0.656732 0.753690
-11.539430 0.644360 0.808488
0.637560 0.603311 0.827936
0.807305 0.611708 0.812480
1.468035 1.468035 1.468035
1.468035 1.468035 1.468035
-0.311114 0.805533 0.805287
-0.285127 0.805596 0.805351
-0.084950 0.806078 0.805845
0.332741 0.808146 0.807962
0.474300 0.815546 0.815526
0.980108 -383.560577 0.411483
1.000472 1.000472 1.000472
1.468035 1.468035 1.468035
1.468035 1.468035 1.468035
1.468035 1.468035 1.468035
1.468035 1.468035 1.468035
1.468035 1.468035 1.468035
1.468035 1.468035 1.468035
1.468035 1.468035 1.468035
1.468035 1.468035 1.468035
1.468035 1.468035 1.468035
1.468035 1.468035 1.468035
1.468035 1.468035 1.468035
1.468035 1.468035 1.468035
1.468035 1.468035 1.468035
1.468035 1.468035 1.468035
1.468035 1.468035 1.468035
1.468035 1.468035 1.468035
1.468035 1.468035 1.468035
1.468035 1.468035 1.468035
1.468035 1.468035 1.468035
1.468035 1.468035 1.468035
0.496808 0.467705 0.865632
0.498118 0.467614 0.865664
0.507590 0.466925 0.865907
0.539271 0.463851 0.866950
0.603249 0.451045 0.870680
0.696261 0.355071 0.883671
0.841387 -20.228251 0.942921
1.468035 1.468035 1.468035
1.468035 1.468035 1.468035
0.496220 0.468252 0.865736
0.497541 0.468161 0.865768
0.507081 0.467470 0.866011
0.538943 0.464405 0.867055
0.603133 0.451664 0.870787
0.696276 0.356644 0.883786
0.841514 -20.284973 0.943100
1.468035 1.468035 1.468035
1.468035 1.468035 1.468035
0.491514 0.472351 0.866534
0.492915 0.472259 0.866566
0.503009 0.471554 0.866812
0.536349 0.468573 0.867861
0.602223 0.456300 0.871608
0.696382 0.367842 0.884670
0.842494 -20.737270 0.944489
1.468035 1.468035 1.468035
1.468035 1.468035 1.468035
0.465841 0.487871 0.869960
0.467805 0.487789 0.869992
0.481522 0.487184 0.870242
0.523440 0.484555 0.871310
0.597908 0.473820 0.875126
0.696775 0.403612 0.888469
0.846776 -22.946287 0.950554
1.468035 1.468035 1.468035
1.468035 1.468035 1.468035
0.436135 0.578121 0.877234
0.437032 0.577589 0.877341
0.443722 0.573344 0.878156
0.467500 0.550762 0.881674
0.574317 0.516792 0.887759
0.697168 0.467747 0.902226
0.863410 -35.893456 0.974073
1.468035 1.468035 1.468035
1.468035 1.468035 1.468035
0.252118 0.699882 0.901525
0.259662 0.699788 0.901634
0.301151 0.699044 0.902475
0.383198 0.695509 0.906101
0.482341 0.676670 0.919277
0.674172 0.501865 0.954103
0.962498 -624.355896 1.115539
1.468035 1.468035 1.468035
1.468035 1.468035 1.468035
1.468035 1.468035 1.468035
1.468035 1.468035 1.468035
1.468035 1.468035 1.468035
1.468035 1.468035 1.468035
1.468035 1.468035 1.468035
1.468035 1.468035 1.468035
1.468035 1.468035 1.468035
1.468035 1.468035 1.468035
1.468035 1.468035 1.468035
1.468035 1.468035 1.468035
1.468035 1.468035 1.468035
1.468035 1.468035 1.468035
1.468035 1.468035 1.468035
1.468035 1.468035 1.468035
1.468035 1.468035 1.468035
1.468035 1.468035 1.468035
1.468035 1.468035 1.468035
1.468035 1.468035 1.468035
1.468035 1.468035 1.468035
1.468035 1.468035 1.468035
1.468035 1.468035 1.468035
1.468035 1.468035 1.468035
1.468035 1.468035 1.468035
1.468035 1.468035 1.468035
1.468035 1.468035 1.468035
1.468035 1.468035 1.468035
1.468035 1.468035 1.468035
1.468035 1.468035 1.468035
1.468035 1.468035 1.468035
1.468035 1.468035 1.468035
1.468035 1.468035 1.468035
1.468035 1.468035 1.468035
1.468035 1.468035 1.468035
1.468035 1.468035 1.468035
1.468035 1.468035 1.468035
1.468035 1.468035 1.468035
1.468035 1.468035 1.468035
1.468035 1.468035 1.468035
1.468035 1.468035 1.468035
1.468035 1.468035 1.468035
1.468035 1.468035 1.468035
1.468035 1.468035 1.468035
1.468035 1.468035 1.468035
1.468035 1.468035 1.468035
1.468035 1.468035 1.468035
1.468035 1.468035 1.468035
1.468035 1.468035 1.468035
1.468035 1.468035 1.468035
1.468035 1.468035 1.468035
1.468035 1.468035 1.468035
1.468035 1.468035 1.468035
1.468035 1.468035 1.468035
1.468035 1.468035 1.468035
1.468035 1.468035 1.468035
1.468035 1.468035 1.468035
1.468035 1.468035 1.468035
1.468035 1.468035 1.468035
1.468035 1.468035 1.468035
1.468035 1.468035 1.468035
1.468035 1.468035 1.468035
1.468035 1.468035 1.468035
1.468035 1.468035 1.468035
1.468035 1.468035 1.468035
1.468035 1.468035 1.468035
1.468035 1.468035 1.468035
1.468035 1.468035 1.468035
1.468035 1.468035 1.468035
1.468035 1.468035 1.468035
1.468035 1.468035 1.468035
1.468035 1.468035 1.468035
1.468035 1.468035 1.468035
1.468035 1.468035 1.468035
1.468035 1.468035 1.468035
1.468035 1.468035 1.468035
1.468035 1.468035 1.468035
1.468035 1.468035 1.468035
1.468035 1.468035 1.468035
1.468035 1.468035 1.468035
1.468035 1.468035 1.468035
1.468035 1.468035 1.468035
1.468035 1.468035 1.468035
1.468035 1.468035 1.468035
1.468035 1.468035 1.468035
1.468035 1.468035 1.468035
1.468035 1.468035 1.468035
1.468035 1.468035 1.468035
1.468035 1.468035 1.468035
1.468035 1.468035 1.468035
1.468035 1.468035 1.468035
1.468035 1.468035 1.468035
1.468035 1.468035 1.468035
1.468035 1.468035 1.468035
1.468035 1.468035 1.468035
1.468035 1.468035 1.468035
1.468035 1.468035 1.468035
1.468035 1.468035 1.468035
1.468035 1.468035 1.468035
1.468035 1.468035 1.468035
1.468035 1.468035 1.468035
1.468035 1.468035 1.468035
1.468035 1.468035 1.468035
1.468035 1.468035 1.468035
1.468035 1.468035 1.468035
1.468035 1.468035 1.468035
1.468035 1.468035 1.468035
1.468035 1.468035 1.468035
1.468035 1.468035 1.468035
1.468035 1.468035 1.468035
