OCIO/luts/ACES2_Candidates_rev060/ACES2 Candidate CAMDRT rev060 Rec2100 (P3D65 10000nit Limited).cube
TITLE "Generated by Foundry::LUT"
LUT_3D_SIZE 9
0.000001 0.000001 0.000001
0.015178 0.003761 0.001716
0.079968 0.026527 0.013621
0.230103 0.100171 0.058992
0.423839 0.221780 0.144372
0.615961 0.362907 0.252077
0.798978 0.507902 0.365328
0.958513 0.655244 0.447625
0.977756 0.862336 0.798492
0.010572 0.021020 0.007727
0.031006 0.031208 0.004303
0.097163 0.053073 0.004205
0.240735 0.107839 0.035849
0.426380 0.224229 0.136010
0.616500 0.363595 0.249310
0.799110 0.508102 0.364460
0.958553 0.655278 0.447304
0.977747 0.862348 0.798496
0.058901 0.099489 0.045955
0.066206 0.110632 0.023384
0.128087 0.128729 0.027531
0.256999 0.168406 0.023055
0.435770 0.233709 0.083633
0.618612 0.366361 0.237430
0.799637 0.508902 0.360910
0.958684 0.655421 0.446026
0.977756 0.862405 0.798530
0.170412 0.253355 0.140556
0.173465 0.257067 0.133831
0.187293 0.270384 0.080889
0.287460 0.288534 0.085801
0.445721 0.321642 0.063973
0.627368 0.378199 0.145724
0.801928 0.512526 0.343660
0.959302 0.656031 0.440143
0.977770 0.862620 0.798665
0.317260 0.434439 0.271491
0.318096 0.435304 0.269242
0.321406 0.438689 0.258950
0.338586 0.451784 0.169980
0.463396 0.464698 0.171653
0.633519 0.488644 0.129592
0.812292 0.527347 0.054802
0.961980 0.658705 0.409113
0.977853 0.863648 0.799291
0.478005 0.619285 0.419229
0.478223 0.619463 0.418580
0.479070 0.620202 0.415888
0.482919 0.623383 0.402404
0.503823 0.635835 0.279986
0.644305 0.645640 0.277381
0.814914 0.660182 0.220071
0.970256 0.666997 0.000001
0.978193 0.868104 0.801966
0.639959 0.798026 0.570273
0.640014 0.798063 0.570090
0.640216 0.798206 0.569370
0.641131 0.798846 0.566083
0.645487 0.801709 0.549342
0.671095 0.812874 0.399902
0.815655 0.816855 0.392889
0.965651 0.809380 0.318478
0.980043 0.889167 0.819561
0.773752 0.940572 0.688130
0.773755 0.940572 0.688082
0.773781 0.940607 0.687890
0.773880 0.940718 0.687027
0.774358 0.941280 0.682864
0.776694 0.944020 0.659022
0.808028 0.952009 0.524511
0.941745 0.942902 0.504318
0.986532 0.942232 0.871252
0.919080 0.995821 0.874717
0.919072 0.995821 0.874717
0.919080 0.995821 0.874717
0.919132 0.995821 0.874712
0.919353 0.995826 0.874675
0.920353 0.995849 0.874515
0.924397 0.995966 0.873157
0.941661 0.996528 0.867716
0.995503 0.998840 0.781996
0.001929 0.002303 0.007881
0.020708 0.006335 0.020345
0.084541 0.028554 0.048414
0.231466 0.100649 0.104986
0.423865 0.221598 0.178807
0.615918 0.362815 0.267875
0.798963 0.507880 0.371014
0.958504 0.655238 0.449800
0.977747 0.862336 0.798560
0.014423 0.025540 0.025496
0.034591 0.034592 0.034591
0.107805 0.045061 0.046328
0.242061 0.108328 0.096690
0.426422 0.224073 0.172926
0.616460 0.363503 0.265412
0.799095 0.508080 0.370175
0.958535 0.655275 0.449489
0.977756 0.862340 0.798568
0.061990 0.102055 0.071132
0.069621 0.112445 0.067502
0.132269 0.131685 0.048417
0.267684 0.154594 0.052642
0.435803 0.234030 0.143333
0.618576 0.366269 0.254968
0.799622 0.508885 0.366776
0.958675 0.655414 0.448233
0.977756 0.862397 0.798602
0.171542 0.253759 0.159827
0.174522 0.257424 0.155455
0.186260 0.271391 0.120149
0.289081 0.289325 0.094676
0.449738 0.315553 0.071033
0.627140 0.379246 0.188581
0.801917 0.512516 0.350298
0.959297 0.656025 0.442448
0.977770 0.862628 0.798737
0.317510 0.434391 0.279652
0.318342 0.435244 0.277639
0.321628 0.438631 0.268440
0.334514 0.452909 0.174427
0.463781 0.464821 0.175959
0.634547 0.486909 0.126987
0.812158 0.527847 0.165741
0.961976 0.658702 0.412061
0.977853 0.863648 0.799358
0.478046 0.619252 0.421768
0.478266 0.619440 0.421127
0.479127 0.620167 0.418532
0.482976 0.623353 0.405432
0.502735 0.636081 0.281867
0.644381 0.645646 0.279242
0.815175 0.659779 0.219222
0.970256 0.666997 0.000001
0.978193 0.868104 0.802034
0.639983 0.798015 0.570989
0.640032 0.798052 0.570805
0.640231 0.798195 0.570087
0.641143 0.798846 0.566823
0.645487 0.801705 0.550190
0.670826 0.812931 0.399959
0.815671 0.816851 0.392883
0.965714 0.809297 0.318239
0.980043 0.889150 0.819577
0.773752 0.940563 0.688322
0.773759 0.940572 0.688277
0.773781 0.940599 0.688082
0.773887 0.940718 0.687221
0.774361 0.941280 0.683067
0.776690 0.944020 0.659318
0.807971 0.952022 0.524531
0.941745 0.942911 0.504313
0.986532 0.942223 0.871265
0.919089 0.995821 0.874754
0.919098 0.995821 0.874754
0.919098 0.995812 0.874754
0.919150 0.995821 0.874741
0.919370 0.995826 0.874712
0.920361 0.995859 0.874544
0.924414 0.995966 0.873199
0.941679 0.996519 0.867748
0.995513 0.998840 0.782077
0.015098 0.017644 0.048843
0.036449 0.019748 0.065270
0.099000 0.039663 0.097639
0.237094 0.104647 0.160166
0.424440 0.221703 0.233907
0.615830 0.362546 0.307402
0.798910 0.507820 0.390178
0.958477 0.655225 0.458013
0.977756 0.862336 0.798839
0.028035 0.042555 0.066621
0.041472 0.040821 0.092996
0.114917 0.052142 0.115091
0.246651 0.111571 0.160936
0.426976 0.224152 0.230879
0.616375 0.363244 0.305595
0.799042 0.508018 0.389447
0.958513 0.655260 0.457720
0.977756 0.862348 0.798846
0.073272 0.112839 0.112689
0.079952 0.120479 0.120495
0.136356 0.136356 0.136356
0.275210 0.148167 0.150966
0.436335 0.234145 0.216468
0.618503 0.366059 0.298052
0.799569 0.508818 0.386473
0.958653 0.655399 0.456533
0.977761 0.862397 0.798876
0.175833 0.256215 0.197892
0.178632 0.259609 0.196955
0.190354 0.272572 0.186908
0.292457 0.291716 0.151309
0.456182 0.305484 0.161228
0.627116 0.379216 0.256778
0.801864 0.512468 0.372325
0.959261 0.656012 0.451118
0.977779 0.862628 0.799012
0.318500 0.434379 0.303050
0.319316 0.435228 0.301631
0.322549 0.438568 0.295183
0.337354 0.452454 0.242733
0.465040 0.465276 0.195415
0.637701 0.481343 0.158453
0.811695 0.529721 0.265625
0.961949 0.658689 0.422980
0.977853 0.863656 0.799637
0.478271 0.619147 0.430947
0.478488 0.619331 0.430376
0.479327 0.620061 0.427999
0.483162 0.623247 0.416190
0.498482 0.637020 0.289191
0.644670 0.645679 0.286614
0.816163 0.658263 0.215947
0.970256 0.666997 0.000001
0.978193 0.868112 0.802310
0.640044 0.797981 0.573774
0.640098 0.798015 0.573603
0.640295 0.798165 0.572900
0.641191 0.798812 0.569693
0.645527 0.801671 0.553491
0.669753 0.813150 0.400189
0.815736 0.816851 0.392876
0.965978 0.808976 0.317295
0.980034 0.889083 0.819658
0.773763 0.940563 0.689096
0.773770 0.940563 0.689047
0.773792 0.940599 0.688859
0.773894 0.940709 0.688001
0.774369 0.941271 0.683890
0.776683 0.943989 0.660494
0.807723 0.952080 0.524593
0.941763 0.942902 0.504313
0.986532 0.942215 0.871330
0.919141 0.995826 0.874902
0.919150 0.995821 0.874902
0.919158 0.995821 0.874902
0.919202 0.995826 0.874885
0.919422 0.995835 0.874865
0.920413 0.995859 0.874696
0.924466 0.995976 0.873342
0.941705 0.996519 0.867891
0.995513 0.998840 0.782416
0.069741 0.078853 0.169835
0.080274 0.069960 0.186832
0.137202 0.083644 0.206311
0.255507 0.127306 0.252909
0.428009 0.225475 0.316595
0.615956 0.362311 0.380915
0.798771 0.507669 0.442560
0.958355 0.655160 0.487466
0.977770 0.862340 0.800048
0.078736 0.097477 0.178770
0.084601 0.090163 0.197424
0.141168 0.090704 0.221650
0.261068 0.132227 0.259225
0.430260 0.227665 0.316477
0.616500 0.363007 0.379985
0.798899 0.507873 0.442054
0.958396 0.655198 0.487228
0.977761 0.862356 0.800052
0.109478 0.150906 0.206266
0.113737 0.152285 0.217488
0.144561 0.142369 0.259554
0.279135 0.156685 0.279607
0.438699 0.236815 0.315011
0.618623 0.365840 0.376166
0.799426 0.508688 0.440018
0.958535 0.655337 0.486277
0.977766 0.862405 0.800089
0.193120 0.268485 0.268218
0.195434 0.270808 0.270607
0.204953 0.279414 0.279469
0.294346 0.294347 0.294346
0.459808 0.302043 0.302858
0.627237 0.379181 0.356803
0.801724 0.512370 0.430538
0.959149 0.655947 0.481953
0.977789 0.862628 0.800218
0.322937 0.435639 0.355357
0.323685 0.436422 0.354946
0.326732 0.439513 0.353007
0.341929 0.452331 0.337063
0.466724 0.466412 0.305700
0.638551 0.480173 0.325470
0.811274 0.531677 0.378311
0.961845 0.658627 0.460267
0.977867 0.863656 0.800833
0.479234 0.618910 0.460271
0.479445 0.619088 0.459865
0.480276 0.619809 0.458198
0.484054 0.622973 0.449956
0.502728 0.635967 0.384913
0.645493 0.645780 0.329196
0.818662 0.655083 0.294087
0.970361 0.673267 0.322271
0.978207 0.868124 0.803490
0.640237 0.797864 0.584804
0.640289 0.797902 0.584649
0.640489 0.798045 0.584019
0.641403 0.798692 0.581160
0.645731 0.801554 0.566700
0.665159 0.814089 0.411707
0.815997 0.816863 0.400237
0.967041 0.807689 0.313398
0.980131 0.889904 0.822048
0.773807 0.940528 0.692456
0.773814 0.940537 0.692406
0.773836 0.940563 0.692223
0.773938 0.940691 0.691381
0.774405 0.941227 0.687458
0.776639 0.943869 0.665530
0.806635 0.952322 0.524877
0.941829 0.942911 0.504306
0.986588 0.942503 0.872537
0.919379 0.995835 0.875532
0.919388 0.995826 0.875532
0.919396 0.995835 0.875532
0.919444 0.995835 0.875524
0.919664 0.995835 0.875495
0.920651 0.995868 0.875335
0.924697 0.995981 0.874009
0.941825 0.996528 0.868472
0.995522 0.998840 0.783911
0.184747 0.203316 0.363149
0.187918 0.199286 0.368707
0.206420 0.181793 0.386295
0.295124 0.199594 0.401949
0.440480 0.252294 0.437146
0.618161 0.365546 0.485933
0.798711 0.507606 0.535402
0.957968 0.654984 0.561078
0.977811 0.862384 0.805037
0.187657 0.210806 0.365198
0.189823 0.206581 0.371209
0.204354 0.184758 0.391507
0.295939 0.201785 0.405932
0.441703 0.253738 0.438604
0.618644 0.366188 0.485846
0.798839 0.507811 0.535161
0.957999 0.655018 0.560938
0.977811 0.862397 0.805044
0.199743 0.237085 0.371836
0.201362 0.234737 0.377216
0.209265 0.218903 0.398598
0.297826 0.210164 0.421288
0.446371 0.259701 0.444160
0.620527 0.368789 0.485422
0.799355 0.508637 0.534216
0.958139 0.655154 0.560378
0.977811 0.862453 0.805071
0.241283 0.310386 0.394116
0.242530 0.310588 0.397064
0.247644 0.310422 0.409136
0.295825 0.293608 0.452447
0.460612 0.303990 0.460828
0.628279 0.381463 0.482662
0.801618 0.512395 0.529904
0.958761 0.655764 0.557858
0.977834 0.862669 0.805196
0.341873 0.445226 0.444886
0.342488 0.445740 0.445423
0.344967 0.447761 0.447519
0.357060 0.455933 0.456003
0.467343 0.467343 0.467345
0.638153 0.482177 0.479936
0.811026 0.532292 0.508880
0.961451 0.658437 0.545774
0.977908 0.863697 0.805773
0.483790 0.619440 0.524705
0.483980 0.619610 0.524578
0.484764 0.620281 0.524059
0.488327 0.623212 0.521429
0.508680 0.634898 0.502912
0.645194 0.645460 0.492989
0.811936 0.665675 0.526132
0.967423 0.693388 0.533337
0.978497 0.870949 0.812609
0.641225 0.797518 0.620216
0.641270 0.797556 0.620108
0.641470 0.797702 0.619665
0.642362 0.798334 0.617688
0.646614 0.801180 0.607805
0.671254 0.812342 0.539278
0.816028 0.816540 0.500142
0.964217 0.815006 0.528495
0.980845 0.896060 0.836466
0.773982 0.940386 0.706179
0.773985 0.940395 0.706136
0.774007 0.940417 0.705976
0.774109 0.940537 0.705236
0.774580 0.941090 0.701693
0.776646 0.943536 0.683784
0.803846 0.953173 0.525818
0.941918 0.942911 0.510741
0.986843 0.943740 0.877653
0.920089 0.995859 0.877781
0.920089 0.995859 0.877794
0.920123 0.995859 0.877810
0.920236 0.995868 0.877909
0.920686 0.995873 0.878240
0.921657 0.995906 0.878079
0.925685 0.996023 0.876893
0.942343 0.996552 0.871072
0.995564 0.998854 0.790595
0.327509 0.354264 0.563114
0.328173 0.352715 0.564550
0.332069 0.346962 0.569583
0.355645 0.316787 0.587900
0.467862 0.336072 0.597990
0.627065 0.392980 0.623565
0.800425 0.510911 0.657405
0.957108 0.654956 0.675101
0.977995 0.862685 0.821533
0.328176 0.356433 0.563461
0.328796 0.354905 0.564906
0.332224 0.348906 0.570160
0.354831 0.317522 0.589061
0.467971 0.336582 0.598890
0.627323 0.393386 0.623887
0.800542 0.511104 0.657387
0.957148 0.654990 0.675047
0.977995 0.862705 0.821537
0.331002 0.364868 0.564710
0.331495 0.363458 0.566161
0.333855 0.357388 0.571808
0.351150 0.320298 0.593683
0.468326 0.338631 0.602461
0.628332 0.395021 0.625136
0.800976 0.511880 0.657306
0.957274 0.655120 0.674830
0.977995 0.862754 0.821560
0.344658 0.397232 0.568828
0.345103 0.396481 0.570079
0.346718 0.392986 0.575201
0.355276 0.367836 0.598202
0.468446 0.347286 0.617849
0.632603 0.402837 0.630400
0.802926 0.515403 0.656909
0.957869 0.655706 0.673846
0.978009 0.862977 0.821668
0.392062 0.482868 0.584456
0.392372 0.482866 0.585142
0.393691 0.482809 0.587878
0.400102 0.481505 0.600169
0.468461 0.467962 0.634631
0.641052 0.480485 0.640589
0.811033 0.534936 0.654706
0.960498 0.658276 0.669221
0.978087 0.863986 0.822141
0.503654 0.627291 0.626917
0.503809 0.627398 0.627030
0.504449 0.627825 0.627478
0.507344 0.629697 0.629435
0.523300 0.637086 0.637176
0.646290 0.646290 0.646290
0.806974 0.672711 0.668391
0.966659 0.693597 0.666918
0.978694 0.871466 0.828447
0.645606 0.797443 0.694007
0.645652 0.797477 0.693971
0.645838 0.797612 0.693827
0.646687 0.798195 0.693182
0.650672 0.800836 0.689913
0.680119 0.809758 0.673633
0.813035 0.813932 0.691880
0.946211 0.836225 0.739557
0.982876 0.911665 0.872808
0.774737 0.939882 0.748348
0.774748 0.939882 0.748323
0.774767 0.939909 0.748214
0.774865 0.940028 0.747710
0.775311 0.940563 0.745371
0.777309 0.942968 0.733605
0.827659 0.947017 0.717054
0.938875 0.940820 0.726269
0.987590 0.947168 0.893054
0.920041 0.995873 0.882537
0.920050 0.995868 0.882554
0.920080 0.995873 0.882571
0.920192 0.995873 0.882666
0.920712 0.995896 0.883082
0.922984 0.995966 0.884863
0.929074 0.996158 0.887256
0.944251 0.996650 0.880886
0.995213 0.998877 0.819739
0.479461 0.513034 0.755957
0.479625 0.512548 0.756271
0.480305 0.510598 0.757506
0.484511 0.501969 0.762524
0.512016 0.450134 0.782593
0.644865 0.473593 0.788845
0.807411 0.533971 0.804278
0.956604 0.657489 0.809098
0.978621 0.865186 0.858883
0.479602 0.513615 0.756025
0.479763 0.513131 0.756339
0.480444 0.511194 0.757574
0.484532 0.502519 0.762635
0.511730 0.450247 0.782862
0.644877 0.473676 0.789046
0.807468 0.534085 0.804346
0.956635 0.657517 0.809091
0.978621 0.865199 0.858883
0.480210 0.515930 0.756275
0.480351 0.515454 0.756589
0.480976 0.513532 0.757842
0.484642 0.504725 0.763064
0.510562 0.450717 0.783933
0.644920 0.474022 0.789868
0.807681 0.534558 0.804619
0.956743 0.657623 0.809087
0.978630 0.865247 0.858903
0.483297 0.526069 0.757167
0.483416 0.525636 0.757485
0.483815 0.523813 0.758783
0.486261 0.515202 0.764367
0.504863 0.452892 0.788655
0.645054 0.475619 0.793499
0.808633 0.536684 0.805822
0.957216 0.658080 0.809049
0.978648 0.865451 0.858980
0.498995 0.564839 0.760018
0.499095 0.564598 0.760287
0.499474 0.563629 0.761356
0.501310 0.558907 0.766172
0.509322 0.522413 0.790773
0.644320 0.482314 0.809873
0.812717 0.547433 0.810980
0.959329 0.660129 0.808824
0.978717 0.866409 0.859324
0.551620 0.659917 0.771624
0.551703 0.659904 0.771770
0.552059 0.659860 0.772359
0.553616 0.659592 0.774989
0.561496 0.657151 0.786843
0.652960 0.654724 0.804805
0.812146 0.670902 0.810693
0.965129 0.691724 0.811534
0.979403 0.874544 0.864861
0.663863 0.802291 0.801928
0.663900 0.802313 0.801951
0.664051 0.802393 0.802034
0.664729 0.802756 0.802412
0.667908 0.804346 0.804108
0.690526 0.809762 0.809853
0.814016 0.814016 0.814016
0.934162 0.845906 0.841155
0.983412 0.912630 0.896904
0.777753 0.938548 0.829966
0.777753 0.938548 0.829958
0.777779 0.938575 0.829916
0.777863 0.938676 0.829744
0.778255 0.939157 0.828943
0.780000 0.941298 0.824934
0.846026 0.938583 0.836367
0.932748 0.934149 0.867969
0.988719 0.951172 0.919786
0.919812 0.995920 0.898611
0.919820 0.995920 0.898611
0.919842 0.995929 0.898632
0.919954 0.995929 0.898704
0.920457 0.995943 0.898996
0.922624 0.996004 0.900321
0.930820 0.996280 0.904997
0.950336 0.996983 0.910096
0.989509 0.992406 0.917184
0.631113 0.659970 0.930574
0.631125 0.659804 0.930653
0.631178 0.659131 0.930986
0.631420 0.656096 0.932419
0.632421 0.640994 0.938658
0.651918 0.501714 0.964648
0.808972 0.562738 0.962555
0.956199 0.668372 0.953308
0.980804 0.879129 0.918160
0.631155 0.660141 0.930579
0.631172 0.659973 0.930658
0.631229 0.659306 0.930986
0.631468 0.656270 0.932428
0.632472 0.641179 0.938667
0.651817 0.501738 0.964716
0.808976 0.562760 0.962614
0.956204 0.668384 0.953317
0.980813 0.879129 0.918160
0.631360 0.660821 0.930596
0.631375 0.660653 0.930671
0.631429 0.659991 0.931003
0.631671 0.656968 0.932445
0.632681 0.641919 0.938729
0.651395 0.501828 0.964984
0.808988 0.562842 0.962808
0.956240 0.668428 0.953375
0.980813 0.879167 0.918177
0.632238 0.663831 0.930658
0.632253 0.663668 0.930741
0.632307 0.663020 0.931074
0.632558 0.660060 0.932533
0.633603 0.645249 0.938919
0.649480 0.502230 0.966196
0.809030 0.563210 0.963687
0.956419 0.668615 0.953613
0.980827 0.879328 0.918221
0.636147 0.676748 0.930872
0.636165 0.676614 0.930951
0.636220 0.676052 0.931271
0.636478 0.673505 0.932722
0.637610 0.660285 0.939343
0.644061 0.504937 0.971667
0.809159 0.564876 0.967682
0.957207 0.669452 0.954681
0.980891 0.880094 0.918406
0.652276 0.721977 0.931459
0.652282 0.721909 0.931512
0.652334 0.721654 0.931766
0.652547 0.720490 0.932862
0.653503 0.714622 0.937974
0.658780 0.658524 0.967300
0.807419 0.571205 0.982377
0.960168 0.672622 0.958860
0.981657 0.888230 0.922103
0.702707 0.819218 0.934887
0.702714 0.819214 0.934922
0.702754 0.819191 0.935041
0.702916 0.819098 0.935600
0.703643 0.818616 0.938155
0.711086 0.816290 0.949152
0.826330 0.830291 0.934377
0.938129 0.847533 0.934993
0.984925 0.917806 0.936828
0.788637 0.936427 0.936022
0.788637 0.936427 0.936022
0.788648 0.936440 0.936031
0.788704 0.936485 0.936093
0.788953 0.936727 0.936357
0.790740 0.937780 0.937538
0.846724 0.935987 0.935851
0.932888 0.932897 0.932888
0.987196 0.954838 0.952497
0.918475 0.996051 0.935274
0.918480 0.996051 0.935283
0.918497 0.996051 0.935292
0.918592 0.996060 0.935309
0.919037 0.996065 0.935437
0.920985 0.996130 0.935952
0.928799 0.996374 0.937957
0.959676 0.988087 0.954191
0.985003 0.985726 0.968324
0.824142 0.853598 0.998723
0.824157 0.853594 0.998723
0.824212 0.853585 0.998723
0.824452 0.853549 0.998723
0.825552 0.853377 0.998713
0.830322 0.852509 0.998713
0.848416 0.847593 0.998685
0.921622 0.870412 0.998732
0.986760 0.918095 0.986264
0.824157 0.853618 0.998723
0.824173 0.853618 0.998723
0.824223 0.853606 0.998723
0.824464 0.853569 0.998723
0.825564 0.853397 0.998723
0.830330 0.852525 0.998708
0.848424 0.847609 0.998685
0.921622 0.870428 0.998723
0.986760 0.918100 0.986264
0.824204 0.853686 0.998713
0.824212 0.853686 0.998723
0.824270 0.853682 0.998723
0.824511 0.853634 0.998723
0.825611 0.853469 0.998713
0.830373 0.852597 0.998713
0.848440 0.847669 0.998676
0.921631 0.870469 0.998732
0.986760 0.918151 0.986273
0.824406 0.854008 0.998723
0.824417 0.854008 0.998723
0.824472 0.854008 0.998723
0.824717 0.853967 0.998723
0.825813 0.853791 0.998723
0.830569 0.852931 0.998713
0.848504 0.847929 0.998676
0.921639 0.870662 0.998723
0.986783 0.918337 0.986287
0.825327 0.855457 0.998732
0.825342 0.855457 0.998732
0.825401 0.855453 0.998732
0.825638 0.855416 0.998732
0.826720 0.855255 0.998732
0.831445 0.854430 0.998723
0.848816 0.849091 0.998685
0.921709 0.871564 0.998732
0.986885 0.919184 0.986384
0.829333 0.861694 0.998760
0.829345 0.861694 0.998760
0.829400 0.861686 0.998755
0.829630 0.861654 0.998760
0.830690 0.861528 0.998760
0.835281 0.860855 0.998755
0.851919 0.855996 0.998713
0.922025 0.875516 0.998755
0.987289 0.922711 0.986787
0.843984 0.884171 0.998877
0.844000 0.884180 0.998877
0.844052 0.884171 0.998882
0.844271 0.884159 0.998882
0.845265 0.884134 0.998877
0.849607 0.883943 0.998877
0.870678 0.886597 0.998877
0.928135 0.899097 0.998901
0.988644 0.933749 0.988031
0.881068 0.936005 0.999281
0.881085 0.936005 0.999281
0.881105 0.936005 0.999272
0.881238 0.936005 0.999272
0.881886 0.936022 0.999272
0.884688 0.936049 0.999272
0.903683 0.939727 0.999295
0.944451 0.947271 0.986226
0.988017 0.958770 0.985355
0.908261 0.996219 0.995957
0.908261 0.996215 0.995957
0.908287 0.996219 0.995957
0.908385 0.996219 0.995952
0.908817 0.996238 0.995929
0.910833 0.996280 0.995784
0.920166 0.995428 0.994750
0.962745 0.986078 0.985786
0.985466 0.985466 0.985466
