OCIO/luts/ACES2_Candidates_rev060/ACES2 Candidate CAMDRT rev060 Rec2020.cube
TITLE "Generated by Foundry::LUT"
LUT_3D_SIZE 5
0.000000 0.000000 0.000000
0.061162 0.010755 0.000008
0.584733 0.116939 0.000000
1.000000 0.597760 0.459949
1.000000 0.991966 0.988863
0.013086 0.079173 0.000000
0.098279 0.098509 0.000000
0.589917 0.194541 0.000000
1.000000 0.601251 0.461868
1.000000 0.991975 0.988872
0.118924 0.602036 0.000000
0.197892 0.602898 0.000000
0.604396 0.606065 0.000000
1.000000 0.663267 0.498712
1.000000 0.992128 0.989044
0.728823 1.000000 0.620544
0.730111 1.000000 0.621017
0.753946 1.000000 0.629559
0.999017 1.000000 0.549418
0.999978 0.994524 0.991760
0.999162 0.999938 0.998745
0.999162 0.999938 0.998745
0.999175 0.999938 0.998762
0.999418 0.999948 0.999086
1.000000 1.000000 1.000000
0.000000 0.003733 0.042476
0.076318 0.000000 0.076034
0.593918 0.051028 0.161713
1.000000 0.597735 0.471893
1.000000 0.991986 0.988904
0.000000 0.089288 0.089450
0.105190 0.105190 0.105190
0.606753 0.150306 0.149981
1.000000 0.603358 0.476350
1.000000 0.991993 0.988912
0.000358 0.605101 0.155311
0.120972 0.609244 0.133468
0.603291 0.603805 0.140012
1.000000 0.668723 0.516503
1.000000 0.992146 0.989083
0.732089 1.000000 0.628221
0.733362 1.000000 0.628688
0.756833 1.000000 0.636994
0.999123 1.000000 0.553140
0.999976 0.994531 0.991781
0.999163 0.999938 0.998746
0.999164 0.999938 0.998747
0.999175 0.999939 0.998763
0.999418 0.999948 0.999087
1.000000 1.000000 1.000000
0.000341 0.050673 0.512766
0.143717 0.000000 0.529021
0.606522 0.000000 0.604085
1.000000 0.589597 0.575364
1.000000 0.992326 0.989614
0.000341 0.155715 0.530416
0.113557 0.105358 0.571689
0.611379 0.138364 0.610284
1.000000 0.594960 0.578352
1.000000 0.992334 0.989622
0.000000 0.602133 0.603219
0.094055 0.604002 0.605295
0.593822 0.593822 0.593822
1.000000 0.692330 0.641470
1.000000 0.992472 0.989770
0.740424 1.000000 0.689067
0.742491 1.000000 0.690373
0.779754 1.000000 0.714833
0.999370 1.000000 0.614118
0.999953 0.994673 0.992161
0.999171 0.999938 0.998769
0.999171 0.999939 0.998770
0.999184 0.999939 0.998786
0.999426 0.999948 0.999106
1.000000 1.000000 1.000000
0.564937 0.613052 1.000000
0.568287 0.613732 1.000000
0.625935 0.625221 1.000000
1.000000 0.712385 0.993584
0.999905 0.993201 0.992588
0.566657 0.616301 1.000000
0.570586 0.617526 1.000000
0.627959 0.629102 1.000000
1.000000 0.715491 0.993636
0.999904 0.993209 0.992595
0.595662 0.670758 1.000000
0.599902 0.672365 1.000000
0.669977 0.699797 1.000000
1.000000 0.768975 0.994712
0.999894 0.993373 0.992748
0.756716 1.000000 1.000000
0.757764 1.000000 1.000000
0.777084 1.000000 0.999783
0.963224 0.963224 0.963224
0.999770 0.995719 0.994954
0.999306 0.999945 0.999097
0.999306 0.999945 0.999098
0.999319 0.999946 0.999112
0.999556 0.999955 0.999395
1.000000 1.000000 1.000000
0.980476 0.983610 1.000000
0.980498 0.983624 1.000000
0.980911 0.983887 1.000000
0.985627 0.986484 1.000000
0.999908 0.998346 0.999640
0.980490 0.983624 1.000000
0.980511 0.983638 1.000000
0.980924 0.983900 1.000000
0.985638 0.986498 1.000000
0.999908 0.998348 0.999641
0.980746 0.983895 1.000000
0.980767 0.983908 1.000000
0.981172 0.984164 1.000000
0.985866 0.986762 1.000000
0.999908 0.998376 0.999646
0.984986 0.988283 1.000000
0.984999 0.988291 1.000000
0.985258 0.988435 1.000000
0.989404 0.990800 1.000000
0.999920 0.998886 0.999755
1.000000 1.000000 1.000000
1.000000 1.000000 1.000000
1.000000 1.000000 1.000000
1.000000 1.000000 1.000000
1.000000 1.000000 1.000000
