OCIO/luts/ACES2_Candidates_rev060/ACES2 Candidate CAMDRT rev060 Rec2020 HLG (P3D65 1000nit Limited).cube
TITLE "Generated by Foundry::LUT"
LUT_3D_SIZE 65
0.000000 0.000000 0.000000
0.000000 0.000000 0.000000
0.000000 0.000000 0.000000
0.000000 0.000000 0.000000
0.000000 0.000000 0.000000
0.001189 0.000297 0.000137
0.004467 0.001125 0.000524
0.007612 0.001928 0.000901
0.010681 0.002715 0.001272
0.013692 0.003491 0.001638
0.016658 0.004257 0.002001
0.019913 0.005099 0.002400
0.023788 0.006105 0.002878
0.028391 0.007302 0.003447
0.033850 0.008724 0.004123
0.040307 0.010408 0.004925
0.047923 0.012397 0.005873
0.056876 0.014735 0.006986
0.067357 0.017473 0.008290
0.079567 0.020660 0.009807
0.093719 0.024351 0.011561
0.110022 0.028597 0.013577
0.128677 0.033448 0.015875
0.149871 0.038947 0.018477
0.173771 0.045136 0.021400
0.200522 0.052046 0.024657
0.230241 0.059704 0.028259
0.263029 0.068128 0.032212
0.298974 0.077334 0.036520
0.338158 0.087334 0.041186
0.380681 0.098138 0.046208
0.426658 0.109760 0.051584
0.476183 0.122210 0.057314
0.528006 0.135499 0.063386
0.575591 0.149629 0.069788
0.619266 0.164602 0.076498
0.659932 0.180397 0.083485
0.698176 0.196984 0.090702
0.733730 0.213635 0.097634
0.767340 0.230529 0.104364
0.799547 0.249779 0.111114
0.830471 0.270822 0.117814
0.860223 0.292971 0.124371
0.888832 0.316167 0.130705
0.916320 0.340347 0.136729
0.942644 0.365404 0.142360
0.967792 0.391156 0.147498
0.990420 0.416005 0.157798
0.992915 0.451754 0.216868
0.991966 0.536920 0.294289
0.991148 0.597122 0.364810
0.990449 0.642229 0.430598
0.989867 0.678891 0.494007
0.989381 0.710207 0.551413
0.989007 0.738046 0.599602
0.988721 0.764131 0.643048
0.988559 0.789034 0.683383
0.988535 0.813183 0.721659
0.988698 0.836874 0.758597
0.989088 0.860189 0.794423
0.989737 0.882919 0.828923
0.990673 0.904598 0.861450
0.991865 0.924784 0.891439
0.993209 0.942410 0.917348
0.994547 0.956941 0.938508
0.000000 0.000000 0.000000
0.000000 0.000000 0.000000
0.000000 0.000000 0.000000
0.000000 0.000000 0.000000
0.000000 0.000000 0.000000
0.001189 0.000297 0.000137
0.004467 0.001125 0.000524
0.007612 0.001928 0.000901
0.010681 0.002715 0.001272
0.013692 0.003491 0.001638
0.016658 0.004257 0.002001
0.019913 0.005099 0.002400
0.023788 0.006105 0.002878
0.028391 0.007302 0.003447
0.033850 0.008724 0.004123
0.040307 0.010408 0.004925
0.047923 0.012397 0.005873
0.056876 0.014735 0.006986
0.067357 0.017473 0.008290
0.079567 0.020660 0.009807
0.093719 0.024351 0.011561
0.110022 0.028597 0.013577
0.128677 0.033448 0.015875
0.149871 0.038947 0.018477
0.173771 0.045136 0.021400
0.200522 0.052046 0.024657
0.230241 0.059704 0.028259
0.263029 0.068128 0.032212
0.298974 0.077334 0.036520
0.338158 0.087334 0.041185
0.380681 0.098138 0.046208
0.426658 0.109760 0.051584
0.476197 0.122211 0.057313
0.528006 0.135499 0.063386
0.575591 0.149629 0.069788
0.619266 0.164602 0.076498
0.659946 0.180396 0.083484
0.698176 0.196984 0.090702
0.733730 0.213635 0.097634
0.767340 0.230529 0.104366
0.799547 0.249779 0.111114
0.830471 0.270822 0.117814
0.860223 0.292971 0.124371
0.888832 0.316167 0.130705
0.916320 0.340347 0.136729
0.942644 0.365404 0.142360
0.967792 0.391149 0.147498
0.990420 0.416005 0.157798
0.992915 0.451754 0.216868
0.991966 0.536920 0.294289
0.991148 0.597122 0.364810
0.990448 0.642238 0.430613
0.989867 0.678891 0.494007
0.989381 0.710207 0.551413
0.989007 0.738046 0.599602
0.988721 0.764131 0.643048
0.988559 0.789034 0.683383
0.988535 0.813183 0.721659
0.988698 0.836874 0.758597
0.989088 0.860189 0.794432
0.989737 0.882928 0.828922
0.990673 0.904598 0.861450
0.991865 0.924784 0.891439
0.993209 0.942410 0.917348
0.994547 0.956941 0.938508
0.000000 0.000000 0.000000
0.000000 0.000000 0.000000
0.000000 0.000000 0.000000
0.000000 0.000000 0.000000
0.000000 0.000000 0.000000
0.001189 0.000297 0.000137
0.004467 0.001125 0.000524
0.007612 0.001928 0.000901
0.010681 0.002715 0.001272
0.013692 0.003491 0.001638
0.016658 0.004257 0.002001
0.019913 0.005099 0.002400
0.023788 0.006105 0.002878
0.028391 0.007302 0.003447
0.033850 0.008724 0.004123
0.040307 0.010408 0.004925
0.047923 0.012397 0.005873
0.056876 0.014735 0.006986
0.067357 0.017473 0.008290
0.079567 0.020660 0.009807
0.093719 0.024351 0.011561
0.110022 0.028597 0.013577
0.128677 0.033448 0.015875
0.149871 0.038947 0.018477
0.173771 0.045136 0.021400
0.200522 0.052046 0.024657
0.230241 0.059704 0.028259
0.263029 0.068128 0.032212
0.298974 0.077334 0.036520
0.338158 0.087334 0.041186
0.380681 0.098138 0.046208
0.426658 0.109760 0.051584
0.476183 0.122210 0.057314
0.528006 0.135499 0.063386
0.575591 0.149629 0.069788
0.619266 0.164602 0.076498
0.659946 0.180396 0.083484
0.698176 0.196984 0.090702
0.733730 0.213635 0.097634
0.767340 0.230529 0.104366
0.799547 0.249779 0.111114
0.830471 0.270822 0.117814
0.860223 0.292971 0.124371
0.888832 0.316167 0.130705
0.916320 0.340347 0.136729
0.942644 0.365404 0.142360
0.967792 0.391149 0.147498
0.990420 0.416005 0.157798
0.992915 0.451754 0.216868
0.991966 0.536920 0.294289
0.991148 0.597122 0.364810
0.990449 0.642229 0.430598
0.989867 0.678891 0.494007
0.989381 0.710207 0.551413
0.989007 0.738046 0.599602
0.988721 0.764131 0.643048
0.988559 0.789034 0.683383
0.988535 0.813184 0.721659
0.988698 0.836874 0.758597
0.989088 0.860189 0.794423
0.989737 0.882928 0.828922
0.990673 0.904598 0.861450
0.991865 0.924784 0.891439
0.993209 0.942410 0.917348
0.994547 0.956941 0.938508
0.000000 0.000000 0.000000
0.000000 0.000000 0.000000
0.000000 0.000000 0.000000
0.000000 0.000000 0.000000
0.000000 0.000000 0.000000
0.001189 0.000297 0.000137
0.004467 0.001125 0.000524
0.007612 0.001928 0.000901
0.010681 0.002715 0.001272
0.013692 0.003491 0.001638
0.016658 0.004257 0.002001
0.019913 0.005099 0.002400
0.023788 0.006105 0.002878
0.028391 0.007302 0.003447
0.033850 0.008724 0.004123
0.040307 0.010408 0.004925
0.047923 0.012397 0.005873
0.056877 0.014735 0.006986
0.067357 0.017473 0.008290
0.079567 0.020660 0.009807
0.093719 0.024351 0.011561
0.110022 0.028597 0.013577
0.128677 0.033448 0.015875
0.149871 0.038947 0.018477
0.173771 0.045136 0.021400
0.200522 0.052046 0.024657
0.230241 0.059704 0.028259
0.263029 0.068128 0.032212
0.298974 0.077334 0.036520
0.338158 0.087334 0.041186
0.380681 0.098138 0.046208
0.426658 0.109760 0.051584
0.476197 0.122211 0.057313
0.528006 0.135499 0.063386
0.575591 0.149629 0.069788
0.619266 0.164602 0.076498
0.659932 0.180397 0.083485
0.698176 0.196984 0.090702
0.733730 0.213635 0.097634
0.767340 0.230529 0.104366
0.799547 0.249779 0.111114
0.830471 0.270822 0.117814
0.860223 0.292967 0.124372
0.888832 0.316167 0.130704
0.916320 0.340353 0.136729
0.942644 0.365404 0.142360
0.967792 0.391149 0.147498
0.990420 0.416005 0.157798
0.992915 0.451762 0.216868
0.991966 0.536920 0.294289
0.991148 0.597122 0.364810
0.990449 0.642229 0.430598
0.989867 0.678891 0.494007
0.989381 0.710207 0.551413
0.989007 0.738046 0.599602
0.988721 0.764131 0.643048
0.988559 0.789034 0.683383
0.988535 0.813183 0.721659
0.988698 0.836874 0.758597
0.989088 0.860189 0.794423
0.989737 0.882928 0.828922
0.990673 0.904598 0.861450
0.991865 0.924784 0.891439
0.993209 0.942410 0.917348
0.994547 0.956941 0.938508
0.000000 0.000000 0.000000
0.000000 0.000000 0.000000
0.000000 0.000000 0.000000
0.000000 0.000000 0.000000
0.000000 0.000000 0.000000
0.001189 0.000297 0.000137
0.004467 0.001125 0.000524
0.007612 0.001928 0.000901
0.010681 0.002715 0.001272
0.013692 0.003491 0.001638
0.016658 0.004257 0.002001
0.019913 0.005099 0.002400
0.023788 0.006105 0.002878
0.028391 0.007302 0.003447
0.033850 0.008724 0.004123
0.040307 0.010408 0.004925
0.047923 0.012397 0.005873
0.056876 0.014735 0.006986
0.067357 0.017473 0.008290
0.079567 0.020660 0.009807
0.093719 0.024351 0.011561
0.110022 0.028597 0.013577
0.128677 0.033448 0.015875
0.149871 0.038947 0.018477
0.173771 0.045136 0.021400
0.200522 0.052046 0.024657
0.230241 0.059704 0.028259
0.263029 0.068128 0.032212
0.298974 0.077334 0.036520
0.338158 0.087334 0.041185
0.380681 0.098138 0.046208
0.426658 0.109760 0.051584
0.476197 0.122211 0.057313
0.528006 0.135499 0.063386
0.575591 0.149629 0.069788
0.619266 0.164602 0.076498
0.659932 0.180397 0.083485
0.698176 0.196984 0.090702
0.733730 0.213635 0.097634
0.767340 0.230529 0.104366
0.799547 0.249779 0.111114
0.830471 0.270822 0.117814
0.860223 0.292967 0.124372
0.888832 0.316167 0.130705
0.916320 0.340347 0.136729
0.942644 0.365404 0.142360
0.967792 0.391149 0.147498
0.990420 0.416005 0.157798
0.992915 0.451754 0.216868
0.991966 0.536920 0.294289
0.991148 0.597122 0.364811
0.990449 0.642229 0.430598
0.989867 0.678891 0.494007
0.989381 0.710207 0.551413
0.989007 0.738046 0.599602
0.988721 0.764131 0.643048
0.988559 0.789034 0.683383
0.988535 0.813183 0.721659
0.988698 0.836874 0.758597
0.989088 0.860189 0.794423
0.989737 0.882928 0.828922
0.990673 0.904598 0.861450
0.991865 0.924784 0.891439
0.993209 0.942410 0.917348
0.994547 0.956941 0.938508
0.000681 0.001449 0.000491
0.000681 0.001449 0.000491
0.000681 0.001449 0.000491
0.000681 0.001449 0.000491
0.000681 0.001449 0.000491
0.001975 0.001985 0.000255
0.005551 0.002903 0.000277
0.008899 0.003589 0.000169
0.012154 0.004168 0.000000
0.015345 0.004687 0.000000
0.018488 0.005160 0.000000
0.021885 0.005737 0.000000
0.025724 0.006749 0.000663
0.030287 0.007953 0.001643
0.035701 0.009382 0.002512
0.042108 0.011073 0.003446
0.049668 0.013068 0.004495
0.058574 0.015385 0.005667
0.069003 0.018094 0.007014
0.081156 0.021254 0.008570
0.095242 0.024917 0.010364
0.111470 0.029135 0.012420
0.130042 0.033957 0.014761
0.151148 0.039428 0.017406
0.174958 0.045587 0.020373
0.201614 0.052468 0.023678
0.231238 0.060096 0.027329
0.263932 0.068492 0.031333
0.299783 0.077670 0.035694
0.338884 0.087642 0.040413
0.381329 0.098423 0.045488
0.427223 0.110022 0.050919
0.476692 0.122450 0.056699
0.528401 0.135721 0.062822
0.575889 0.149833 0.069272
0.619503 0.164787 0.076026
0.660119 0.180564 0.083055
0.698314 0.197141 0.090312
0.733834 0.213776 0.097282
0.767431 0.230661 0.104046
0.799620 0.249830 0.110825
0.830538 0.270871 0.117552
0.860276 0.293012 0.124137
0.888885 0.316213 0.130489
0.916352 0.340389 0.136536
0.942684 0.365435 0.142185
0.967824 0.391192 0.147342
0.990436 0.416025 0.157694
0.992912 0.451912 0.216866
0.991963 0.537012 0.294296
0.991146 0.597174 0.364815
0.990455 0.642279 0.430618
0.989865 0.678925 0.494023
0.989388 0.710231 0.551419
0.989005 0.738063 0.599610
0.988719 0.764148 0.643055
0.988559 0.789042 0.683391
0.988534 0.813192 0.721667
0.988706 0.836881 0.758604
0.989088 0.860189 0.794432
0.989737 0.882927 0.828931
0.990673 0.904598 0.861450
0.991864 0.924793 0.891438
0.993208 0.942418 0.917347
0.994547 0.956941 0.938508
0.002567 0.005436 0.001854
0.002567 0.005436 0.001854
0.002567 0.005436 0.001854
0.002567 0.005436 0.001854
0.002567 0.005436 0.001854
0.003389 0.006226 0.000846
0.007392 0.007430 0.000955
0.010891 0.008426 0.001020
0.014216 0.009295 0.001051
0.017439 0.010078 0.001055
0.020591 0.010796 0.001034
0.024036 0.011538 0.000981
0.028125 0.012368 0.000868
0.032975 0.013293 0.000623
0.038716 0.014324 0.000000
0.045500 0.015469 0.000000
0.053499 0.016732 0.000000
0.062896 0.018129 0.000000
0.073884 0.019682 0.000000
0.085960 0.022635 0.000477
0.099821 0.026288 0.004858
0.115804 0.030494 0.007702
0.134109 0.035310 0.010570
0.154932 0.040778 0.013631
0.178451 0.046918 0.016937
0.204833 0.053714 0.020473
0.234183 0.061257 0.024340
0.266602 0.069569 0.028548
0.302189 0.078668 0.033106
0.341037 0.088567 0.038015
0.383242 0.099277 0.043275
0.428922 0.110810 0.048883
0.478199 0.123176 0.054831
0.529607 0.136384 0.061111
0.576788 0.150440 0.067710
0.620192 0.165344 0.074605
0.660650 0.181079 0.081766
0.698735 0.197615 0.089144
0.734167 0.214201 0.096217
0.767711 0.231057 0.103086
0.799861 0.249980 0.109954
0.830738 0.271012 0.116771
0.860457 0.293148 0.123423
0.889031 0.316335 0.129848
0.916484 0.340503 0.135959
0.942795 0.365539 0.141666
0.967921 0.391279 0.146875
0.990493 0.416089 0.157389
0.992902 0.452372 0.216864
0.991963 0.537310 0.294309
0.991140 0.597348 0.364835
0.990450 0.642390 0.430637
0.989869 0.679008 0.494036
0.989393 0.710296 0.551441
0.989011 0.738112 0.599632
0.988716 0.764189 0.643079
0.988555 0.789084 0.683414
0.988541 0.813216 0.721691
0.988695 0.836899 0.758612
0.989087 0.860205 0.794439
0.989736 0.882936 0.828939
0.990672 0.904606 0.861458
0.991864 0.924793 0.891438
0.993199 0.942419 0.917357
0.994547 0.956941 0.938508
0.004378 0.009248 0.003164
0.004378 0.009248 0.003164
0.004378 0.009248 0.003164
0.004378 0.009248 0.003164
0.004378 0.009248 0.003164
0.004801 0.010158 0.001786
0.008882 0.011507 0.001528
0.012537 0.012603 0.001620
0.015953 0.013583 0.001688
0.019234 0.014477 0.001736
0.022423 0.015305 0.001766
0.025893 0.016163 0.001782
0.029996 0.017128 0.001777
0.034846 0.018208 0.001738
0.040570 0.019415 0.001642
0.047326 0.020750 0.001443
0.055279 0.022223 0.001019
0.064609 0.023844 0.000000
0.075523 0.025618 0.000000
0.088239 0.027540 0.000000
0.102969 0.029626 0.000000
0.119924 0.031902 0.000000
0.138173 0.036371 0.001610
0.158747 0.041776 0.007847
0.181995 0.047870 0.012164
0.208068 0.054703 0.016417
0.237104 0.062294 0.020838
0.269223 0.070645 0.025499
0.304555 0.079661 0.030325
0.343160 0.089479 0.035473
0.385136 0.100115 0.040949
0.430606 0.111577 0.046757
0.479700 0.123881 0.052893
0.530798 0.137034 0.059350
0.577687 0.151043 0.066113
0.620874 0.165901 0.073160
0.661182 0.181593 0.080459
0.699149 0.198086 0.087964
0.734500 0.214625 0.095145
0.767984 0.231448 0.102122
0.800096 0.250131 0.109075
0.830953 0.271156 0.115971
0.860630 0.293279 0.122706
0.889192 0.316461 0.129200
0.916616 0.340623 0.135379
0.942906 0.365648 0.141145
0.968009 0.391389 0.146409
0.990551 0.416146 0.157084
0.992901 0.452823 0.216860
0.991955 0.537600 0.294323
0.991141 0.597537 0.364840
0.990444 0.642526 0.430654
0.989865 0.679100 0.494068
0.989389 0.710355 0.551473
0.989008 0.738154 0.599655
0.988731 0.764221 0.643101
0.988562 0.789108 0.683438
0.988539 0.813241 0.721706
0.988694 0.836916 0.758637
0.989084 0.860231 0.794455
0.989735 0.882945 0.828948
0.990671 0.904615 0.861467
0.991863 0.924801 0.891446
0.993208 0.942418 0.917356
0.994547 0.956942 0.938518
0.006142 0.012953 0.004440
0.006142 0.012953 0.004440
0.006142 0.012953 0.004440
0.006142 0.012953 0.004440
0.006142 0.012953 0.004440
0.006561 0.013835 0.003303
0.010198 0.015423 0.002073
0.013997 0.016558 0.002177
0.017500 0.017593 0.002262
0.020839 0.018548 0.002329
0.024070 0.019438 0.002382
0.027572 0.020366 0.002426
0.031699 0.021413 0.002460
0.036561 0.022589 0.002475
0.042289 0.023905 0.002460
0.049028 0.025368 0.002394
0.056949 0.026984 0.002244
0.066230 0.028765 0.001943
0.077086 0.030696 0.001293
0.089708 0.032806 0.000000
0.104333 0.035078 0.000000
0.121191 0.037499 0.000000
0.140491 0.040079 0.000000
0.162403 0.042869 0.000000
0.185478 0.048778 0.003691
0.211291 0.055542 0.010898
0.240065 0.063059 0.016351
0.271915 0.071374 0.021672
0.306937 0.080491 0.027120
0.345257 0.090400 0.032771
0.387013 0.100959 0.038515
0.432279 0.112352 0.044555
0.481170 0.124591 0.050899
0.531966 0.137685 0.057543
0.578565 0.151637 0.064476
0.621556 0.166443 0.071680
0.661714 0.182090 0.079122
0.699564 0.198540 0.086758
0.734833 0.215036 0.094050
0.768265 0.231832 0.101134
0.800345 0.250285 0.108181
0.831153 0.271298 0.115169
0.860811 0.293414 0.121982
0.889337 0.316589 0.128553
0.916749 0.340736 0.134796
0.943018 0.365757 0.140622
0.968098 0.391485 0.145938
0.990600 0.416205 0.156779
0.992891 0.453277 0.216861
0.991956 0.537899 0.294340
0.991143 0.597709 0.364859
0.990447 0.642643 0.430687
0.989860 0.679184 0.494100
0.989385 0.710421 0.551497
0.989005 0.738203 0.599670
0.988727 0.764271 0.643132
0.988560 0.789142 0.683453
0.988537 0.813258 0.721722
0.988700 0.836940 0.758643
0.989093 0.860230 0.794463
0.989734 0.882953 0.828956
0.990670 0.904632 0.861465
0.991862 0.924810 0.891455
0.993207 0.942427 0.917355
0.994546 0.956950 0.938517
0.007868 0.016572 0.005690
0.007868 0.016572 0.005690
0.007868 0.016572 0.005690
0.007868 0.016572 0.005690
0.007868 0.016572 0.005690
0.008287 0.017431 0.004665
0.011405 0.019233 0.002602
0.015332 0.020383 0.002712
0.018919 0.021444 0.002805
0.022314 0.022434 0.002884
0.025584 0.023362 0.002950
0.029119 0.024334 0.003010
0.033271 0.025435 0.003066
0.038152 0.026676 0.003111
0.043888 0.028067 0.003137
0.050624 0.029618 0.003130
0.058525 0.031336 0.003069
0.067776 0.033223 0.002920
0.078571 0.035286 0.002621
0.091114 0.037536 0.002029
0.105665 0.039934 0.000000
0.122411 0.042505 0.000000
0.141582 0.045236 0.000000
0.163376 0.048133 0.000000
0.188018 0.051133 0.000000
0.214461 0.056364 0.000000
0.242981 0.063820 0.010284
0.274578 0.072062 0.017080
0.309360 0.081117 0.023298
0.347427 0.091003 0.029500
0.388889 0.101723 0.035855
0.433928 0.113131 0.042265
0.482646 0.125303 0.048844
0.533125 0.138337 0.055694
0.579448 0.152234 0.062812
0.622231 0.166989 0.070178
0.662232 0.182590 0.077769
0.699992 0.199001 0.085539
0.735167 0.215448 0.092945
0.768546 0.232209 0.100140
0.800586 0.250439 0.107282
0.831361 0.271443 0.114361
0.860984 0.293550 0.121259
0.889491 0.316716 0.127902
0.916874 0.340858 0.134213
0.943128 0.365873 0.140099
0.968195 0.391580 0.145469
0.990658 0.416277 0.156474
0.992882 0.453730 0.216859
0.991947 0.538197 0.294359
0.991128 0.597893 0.364886
0.990442 0.642762 0.430705
0.989856 0.679268 0.494123
0.989381 0.710488 0.551528
0.989002 0.738254 0.599702
0.988725 0.764304 0.643156
0.988557 0.789175 0.683477
0.988544 0.813282 0.721737
0.988707 0.836956 0.758668
0.989092 0.860247 0.794480
0.989741 0.882969 0.828963
0.990669 0.904632 0.861483
0.991862 0.924810 0.891464
0.993207 0.942427 0.917365
0.994546 0.956951 0.938517
0.009561 0.020120 0.006916
0.009561 0.020120 0.006916
0.009561 0.020120 0.006916
0.009561 0.020120 0.006916
0.009561 0.020120 0.006916
0.009982 0.020958 0.005961
0.012536 0.022959 0.003118
0.016574 0.024112 0.003232
0.020240 0.025185 0.003330
0.023690 0.026193 0.003416
0.026998 0.027144 0.003490
0.030563 0.028144 0.003560
0.034742 0.029282 0.003630
0.039643 0.030568 0.003695
0.045390 0.032014 0.003747
0.052127 0.033627 0.003776
0.060017 0.035417 0.003766
0.069239 0.037391 0.003694
0.079986 0.039552 0.003521
0.092478 0.041896 0.003178
0.106932 0.044421 0.002510
0.123583 0.047109 0.000625
0.142646 0.049953 0.000000
0.164328 0.052947 0.000000
0.188807 0.056100 0.000000
0.216318 0.059299 0.000000
0.245853 0.064565 0.000000
0.277209 0.072744 0.010902
0.311753 0.081737 0.018817
0.349596 0.091557 0.025830
0.390842 0.102232 0.032721
0.435606 0.113761 0.039701
0.484089 0.126022 0.046721
0.534275 0.138994 0.053799
0.580318 0.152835 0.061113
0.622906 0.167540 0.068654
0.662764 0.183094 0.076400
0.700400 0.199461 0.084308
0.735501 0.215861 0.091832
0.768834 0.232597 0.099140
0.800820 0.250591 0.106380
0.831569 0.271584 0.113549
0.861158 0.293682 0.120532
0.889644 0.316837 0.127251
0.917014 0.340965 0.133626
0.943240 0.365964 0.139573
0.968292 0.391674 0.144997
0.990715 0.416335 0.156172
0.992888 0.454181 0.216859
0.991948 0.538477 0.294372
0.991130 0.598065 0.364905
0.990436 0.642881 0.430723
0.989860 0.679351 0.494145
0.989377 0.710555 0.551552
0.988998 0.738304 0.599726
0.988722 0.764338 0.643181
0.988555 0.789200 0.683492
0.988542 0.813308 0.721753
0.988697 0.836973 0.758676
0.989090 0.860264 0.794487
0.989731 0.882978 0.828980
0.990668 0.904640 0.861491
0.991870 0.924818 0.891472
0.993206 0.942436 0.917364
0.994546 0.956950 0.938526
0.011413 0.023995 0.008257
0.011413 0.023995 0.008257
0.011413 0.023995 0.008257
0.011413 0.023995 0.008257
0.011413 0.023995 0.008257
0.011836 0.024812 0.007358
0.013728 0.027025 0.003682
0.017874 0.028172 0.003796
0.021618 0.029249 0.003898
0.025126 0.030266 0.003988
0.028477 0.031230 0.004068
0.032075 0.032250 0.004146
0.036283 0.033414 0.004227
0.041206 0.034734 0.004306
0.046968 0.036221 0.004378
0.053709 0.037887 0.004434
0.061588 0.039738 0.004462
0.070785 0.041781 0.004443
0.081495 0.044021 0.004350
0.093923 0.046457 0.004137
0.108301 0.049077 0.003725
0.124846 0.051876 0.002935
0.143792 0.054831 0.000753
0.165351 0.057924 0.000000
0.189710 0.061151 0.000000
0.217028 0.064519 0.000000
0.247536 0.067895 0.000000
0.280101 0.073494 0.000000
0.314393 0.082415 0.012224
0.351985 0.092175 0.021114
0.392999 0.102783 0.028883
0.437564 0.114264 0.036441
0.485778 0.126618 0.044030
0.535531 0.139729 0.051624
0.581271 0.153507 0.059180
0.623642 0.168155 0.066928
0.663344 0.183656 0.074854
0.700870 0.199974 0.082921
0.735861 0.216325 0.090582
0.769135 0.233028 0.098019
0.801091 0.250766 0.105365
0.831792 0.271749 0.112641
0.861354 0.293835 0.119716
0.889805 0.316979 0.126520
0.917154 0.341106 0.132971
0.943359 0.366091 0.138987
0.968397 0.391795 0.144470
0.990781 0.416405 0.155833
0.992878 0.454685 0.216856
0.991947 0.538803 0.294393
0.991123 0.598265 0.364924
0.990439 0.643015 0.430762
0.989863 0.679451 0.494184
0.989382 0.710621 0.551573
0.989012 0.738352 0.599738
0.988720 0.764379 0.643213
0.988552 0.789242 0.683524
0.988540 0.813332 0.721777
0.988705 0.836990 0.758691
0.989088 0.860281 0.794495
0.989740 0.882986 0.828988
0.990667 0.904649 0.861500
0.991869 0.924826 0.891471
0.993215 0.942435 0.917364
0.994555 0.956950 0.938526
0.013605 0.028581 0.009844
0.013605 0.028581 0.009844
0.013605 0.028581 0.009844
0.013605 0.028581 0.009844
0.013605 0.028581 0.009844
0.014022 0.029379 0.008984
0.015097 0.031832 0.004347
0.019352 0.032967 0.004462
0.023180 0.034039 0.004565
0.026753 0.035057 0.004659
0.030153 0.036027 0.004743
0.033792 0.037057 0.004827
0.038031 0.038238 0.004916
0.042980 0.039584 0.005008
0.048760 0.041106 0.005096
0.055507 0.042813 0.005175
0.063379 0.044716 0.005234
0.072554 0.046821 0.005258
0.083222 0.049131 0.005226
0.095591 0.051645 0.005104
0.109878 0.054360 0.004843
0.126318 0.057257 0.004348
0.145133 0.060320 0.003417
0.166543 0.063525 0.000899
0.190752 0.066844 0.000000
0.217926 0.070276 0.000000
0.248204 0.073827 0.000000
0.281820 0.077344 0.000000
0.317534 0.083228 0.000000
0.354844 0.092910 0.013609
0.395585 0.103447 0.023553
0.439885 0.114857 0.032121
0.487891 0.127157 0.040376
0.537149 0.140346 0.048589
0.582427 0.154327 0.056778
0.624531 0.168902 0.064797
0.664041 0.184339 0.072956
0.701421 0.200600 0.081227
0.736306 0.216886 0.089054
0.769514 0.233545 0.096651
0.801413 0.250971 0.104131
0.832067 0.271938 0.111538
0.861595 0.294011 0.118726
0.890020 0.317146 0.125633
0.917318 0.341257 0.132179
0.943509 0.366233 0.138273
0.968518 0.391920 0.143832
0.990847 0.416490 0.155428
0.992873 0.455299 0.216858
0.991937 0.539202 0.294410
0.991123 0.598506 0.364953
0.990432 0.643169 0.430787
0.989857 0.679568 0.494215
0.989377 0.710704 0.551605
0.989008 0.738418 0.599778
0.988724 0.764445 0.643243
0.988557 0.789282 0.683546
0.988537 0.813366 0.721801
0.988701 0.837023 0.758715
0.989087 0.860298 0.794520
0.989739 0.882995 0.829005
0.990667 0.904649 0.861509
0.991868 0.924835 0.891479
0.993205 0.942445 0.917373
0.994546 0.956951 0.938527
0.016193 0.033993 0.011718
0.016193 0.033993 0.011718
0.016193 0.033993 0.011718
0.016193 0.033993 0.011718
0.016193 0.033993 0.011718
0.016599 0.034771 0.010887
0.017635 0.037159 0.006722
0.021031 0.038615 0.005245
0.024947 0.039675 0.005349
0.028588 0.040686 0.005444
0.032042 0.041653 0.005531
0.035727 0.042685 0.005619
0.040008 0.043872 0.005715
0.044986 0.045232 0.005815
0.050787 0.046776 0.005917
0.057543 0.048515 0.006015
0.065411 0.050457 0.006099
0.074560 0.052613 0.006158
0.085186 0.054982 0.006175
0.097492 0.057565 0.006123
0.111694 0.060355 0.005966
0.128011 0.063344 0.005645
0.146688 0.066502 0.005053
0.167933 0.069811 0.003959
0.191958 0.073238 0.001062
0.218955 0.076752 0.000000
0.249070 0.080350 0.000000
0.282426 0.084049 0.000000
0.319265 0.087666 0.000000
0.358250 0.093788 0.000000
0.398685 0.104238 0.015035
0.442679 0.115572 0.026119
0.490392 0.127794 0.035529
0.539132 0.140926 0.044505
0.583923 0.154956 0.053355
0.625591 0.169816 0.062151
0.664868 0.185175 0.070613
0.702084 0.201363 0.079143
0.736848 0.217571 0.087184
0.769963 0.234179 0.094981
0.801797 0.251331 0.102628
0.832401 0.272173 0.110190
