OCIO/luts/ACES2_Candidates_rev060/ACES2 Candidate CAMDRT rev060 Rec2020_inverse.cube
TITLE "Generated by Foundry::LUT"
LUT_3D_SIZE 5
0.072906 0.072906 0.072906
0.389239 0.054962 0.075707
0.475468 0.040079 0.085080
0.540433 0.031017 0.107275
0.599889 0.014798 0.152225
0.098984 0.368301 0.095053
0.353745 0.353994 0.108232
0.468363 0.329948 0.097417
0.540469 0.315669 0.111349
0.605730 0.278058 0.101123
0.119945 0.465697 0.129165
0.329881 0.464117 0.124360
0.461036 0.460944 0.149777
0.542419 0.461534 0.154367
0.613480 0.467173 0.111727
0.223024 0.543720 0.217242
0.329340 0.545497 0.178213
0.468008 0.548075 0.190763
0.556304 0.555948 0.203942
0.635406 0.574773 0.134379
0.173788 0.628255 0.272059
0.256873 0.633700 0.136370
0.491800 0.640617 0.132369
0.598181 0.658096 0.137247
0.703881 0.702867 0.107982
0.094738 0.091082 0.411421
0.371268 0.089583 0.371743
0.472295 0.066995 0.337026
0.540070 0.049754 0.327240
0.600427 0.029350 0.335883
0.122986 0.360269 0.359823
0.350159 0.350159 0.350159
0.460385 0.344611 0.344156
0.538522 0.328459 0.332535
0.603472 0.306997 0.332489
0.158381 0.464746 0.334337
0.345253 0.461623 0.341495
0.461163 0.461172 0.335235
0.544232 0.460706 0.323448
0.623853 0.453717 0.271452
0.226494 0.544210 0.344930
0.337836 0.545514 0.340547
0.466002 0.549745 0.327486
0.557882 0.557223 0.324042
0.641392 0.574670 0.279964
0.176423 0.629369 0.377206
0.318465 0.632411 0.364335
0.474192 0.645521 0.293548
0.597370 0.661220 0.315857
0.708463 0.706908 0.315574
0.142865 0.138677 0.490248
0.349276 0.130487 0.481936
0.466311 0.110844 0.466891
0.539613 0.109185 0.461128
0.602627 0.084214 0.468097
0.151697 0.346795 0.477636
0.351813 0.353783 0.459331
0.461076 0.343980 0.460928
0.539880 0.328974 0.461577
0.606888 0.305808 0.468536
0.195759 0.463437 0.463017
0.344769 0.462224 0.461853
0.462198 0.462198 0.462198
0.552555 0.454333 0.456727
0.629911 0.443065 0.458262
0.238040 0.546342 0.468406
0.339445 0.547886 0.468200
0.456165 0.555974 0.459725
0.563443 0.562481 0.445879
0.658028 0.572075 0.426573
0.172760 0.634031 0.498702
0.316079 0.637320 0.496876
0.421856 0.658024 0.473215
0.590433 0.676822 0.438796
0.728241 0.725017 0.434890
0.205099 0.202833 0.547558
0.343552 0.202989 0.545402
0.462915 0.196576 0.541279
0.541480 0.180075 0.542036
0.607989 0.152486 0.552304
0.215963 0.344682 0.543994
0.351560 0.354247 0.537394
0.462475 0.345187 0.539238
0.543101 0.331894 0.543770
0.612955 0.307855 0.555966
0.232002 0.464166 0.541231
0.346588 0.464242 0.541154
0.461174 0.460108 0.552553
0.554571 0.454943 0.555946
0.638515 0.438946 0.571104
0.255556 0.551157 0.550771
0.343320 0.552815 0.552492
0.457032 0.560326 0.560214
0.568095 0.568095 0.568095
0.679487 0.557396 0.564984
0.143362 0.643853 0.586358
0.312923 0.647324 0.588092
0.402010 0.668974 0.595609
0.559999 0.702977 0.583724
0.769073 0.764767 0.566567
0.252340 0.248337 0.597621
0.351106 0.247489 0.597545
0.465854 0.240480 0.598647
0.547731 0.220970 0.604491
0.618671 0.179880 0.619528
0.231762 0.343184 0.600102
0.338556 0.329524 0.603585
0.466567 0.319435 0.605716
0.552153 0.305507 0.611632
0.624821 0.286529 0.626285
0.229910 0.468282 0.603412
0.303897 0.465199 0.612435
0.449827 0.427093 0.649870
0.575730 0.406197 0.653870
0.664751 0.337979 0.669633
0.227360 0.560909 0.617697
0.311511 0.563178 0.622544
0.397836 0.575176 0.655819
0.569211 0.554721 0.710497
0.735622 0.491055 0.744796
-0.003117 0.662144 0.661877
0.288945 0.666030 0.665828
0.327923 0.688838 0.689046
0.494117 0.739073 0.739918
0.954339 0.954339 0.954339
