OCIO/luts/ACES2_Candidates_rev060/ACES2 Candidate CAMDRT rev060 Rec2020_inverse.cube
TITLE "Generated by Foundry::LUT"
LUT_3D_SIZE 9
0.072906 0.072906 0.072906
0.317607 0.065743 0.074152
0.389239 0.054962 0.075707
0.436958 0.046462 0.079162
0.475468 0.040079 0.085080
0.509266 0.035244 0.094138
0.540433 0.031017 0.107275
0.570277 0.025496 0.125875
0.599889 0.014798 0.152225
0.085425 0.292295 0.082645
0.273635 0.273975 0.087978
0.374443 0.243175 0.088027
0.431749 0.207248 0.083238
0.474324 0.156665 0.080187
0.508561 0.159063 0.094799
0.539385 0.188502 0.120608
0.569993 0.171922 0.134982
0.600019 0.154906 0.158247
0.098984 0.368301 0.095053
0.239265 0.363946 0.101152
0.353745 0.353994 0.108232
0.420243 0.342432 0.104730
0.468363 0.329948 0.097417
0.506975 0.319941 0.098710
0.540469 0.315669 0.111349
0.571522 0.315321 0.131158
0.605730 0.278058 0.101123
0.101744 0.421608 0.106341
0.216442 0.420146 0.106439
0.339645 0.416253 0.118488
0.411480 0.411662 0.137697
0.463096 0.407014 0.124046
0.504689 0.403248 0.121808
0.540530 0.401607 0.129089
0.573275 0.402489 0.144911
0.608510 0.396770 0.105200
0.119945 0.465697 0.129165
0.203219 0.465448 0.118995
0.329881 0.464117 0.124360
0.406704 0.462277 0.138855
0.461036 0.460944 0.149777
0.504679 0.460541 0.149090
0.542419 0.461534 0.154367
0.576947 0.464452 0.165676
0.613480 0.467173 0.111727
0.181100 0.505372 0.176589
0.227794 0.505597 0.165582
0.326195 0.505920 0.143071
0.405723 0.505713 0.154881
0.462470 0.506115 0.166721
0.507832 0.507601 0.175233
0.547302 0.510717 0.180439
0.583647 0.515775 0.188227
0.621758 0.523122 0.121513
0.223024 0.543720 0.217242
0.254368 0.544096 0.210305
0.329340 0.545497 0.178213
0.409647 0.546356 0.183685
0.468008 0.548075 0.190763
0.515134 0.551106 0.197637
0.556304 0.555948 0.203942
0.594891 0.563400 0.211386
0.635406 0.574773 0.134379
0.241854 0.583239 0.249610
0.270830 0.583611 0.244925
0.334579 0.585728 0.211067
0.418093 0.587442 0.213521
0.478571 0.590418 0.217298
0.527870 0.595141 0.222282
0.571596 0.602293 0.228360
0.613457 0.612938 0.235726
0.658622 0.629854 0.147070
0.173788 0.628255 0.272059
0.181473 0.629386 0.256285
0.256873 0.633700 0.136370
0.416054 0.636291 0.131447
0.491800 0.640617 0.132369
0.548465 0.647473 0.134915
0.598181 0.658096 0.137247
0.647465 0.674790 0.135265
0.703881 0.702867 0.107982
0.082060 0.080365 0.343090
0.296527 0.079078 0.297033
0.383972 0.066810 0.247609
0.435135 0.055038 0.218713
0.474737 0.046383 0.204983
0.508975 0.040086 0.201685
0.540351 0.034904 0.205783
0.570311 0.028750 0.215401
0.600000 0.017672 0.229477
0.092973 0.281945 0.281495
0.268066 0.268066 0.268066
0.358581 0.264349 0.262429
0.422269 0.250483 0.244750
0.468784 0.230835 0.227037
0.506346 0.209959 0.216681
0.539309 0.190526 0.214897
0.570048 0.173413 0.220552
0.600145 0.156566 0.232242
0.107487 0.366138 0.237794
0.263051 0.357002 0.256315
0.351218 0.351772 0.256927
0.413846 0.347431 0.252674
0.462451 0.342577 0.244118
0.502844 0.336450 0.234599
0.538332 0.328649 0.226333
0.570979 0.319283 0.221852
0.603529 0.300607 0.216239
0.115276 0.420841 0.220992
0.253916 0.417080 0.241295
0.346223 0.413485 0.250383
0.410726 0.411105 0.243546
0.461268 0.408393 0.238926
0.503017 0.405957 0.232884
0.539550 0.403929 0.227452
0.573172 0.402536 0.224128
0.609193 0.393522 0.189837
0.132436 0.465441 0.221606
0.250450 0.463899 0.237742
0.342721 0.462346 0.246169
0.408547 0.461677 0.242234
0.461008 0.461068 0.237569
0.504386 0.460980 0.234277
0.542274 0.461857 0.231402
0.577151 0.464116 0.230280
0.614032 0.465893 0.195228
0.185583 0.505351 0.238883
0.253689 0.504990 0.244785
0.340446 0.504913 0.246581
0.408818 0.505302 0.244510
0.463050 0.506175 0.242005
0.508066 0.507873 0.239787
0.547511 0.510831 0.238915
0.584005 0.515607 0.239855
0.622205 0.522562 0.203854
0.223760 0.543814 0.260942
0.261555 0.544011 0.259658
0.338962 0.544943 0.251886
0.411851 0.546090 0.251034
0.468413 0.548099 0.250156
0.515268 0.551310 0.249695
0.556588 0.556198 0.250268
0.595274 0.563463 0.253186
0.635816 0.574595 0.215219
0.242347 0.583393 0.284160
0.271084 0.583765 0.280963
0.340366 0.585316 0.265996
0.418160 0.587314 0.262365
0.478269 0.590457 0.262871
0.527683 0.595324 0.264076
0.571667 0.602560 0.266480
0.613804 0.613221 0.270847
0.659061 0.629981 0.228975
0.178040 0.628436 0.304700
0.240185 0.628779 0.301610
0.302017 0.632337 0.260923
0.411600 0.636462 0.218763
0.490225 0.640754 0.222299
0.547771 0.647610 0.226979
0.597935 0.658231 0.235204
0.647506 0.674962 0.246714
0.704520 0.703433 0.233985
0.094738 0.091082 0.411421
0.265407 0.092688 0.398318
0.371268 0.089583 0.371743
0.429613 0.078283 0.350873
0.472295 0.066995 0.337026
0.507965 0.057509 0.329478
0.540070 0.049754 0.327240
0.570450 0.041746 0.329506
0.600427 0.029350 0.335883
0.106005 0.261457 0.390448
0.269700 0.272387 0.357909
0.357223 0.262617 0.356256
0.420029 0.250170 0.348857
0.467324 0.232693 0.339924
0.505688 0.213675 0.332844
0.539191 0.195552 0.329731
0.570282 0.179296 0.331055
0.600636 0.163163 0.336767
0.122986 0.360269 0.359823
0.261565 0.354722 0.354260
0.350159 0.350159 0.350159
0.410190 0.348961 0.348913
0.460385 0.344611 0.344156
0.502291 0.337356 0.337727
0.538522 0.328459 0.332535
0.571405 0.319403 0.330834
0.603472 0.306997 0.332489
0.138600 0.418725 0.341869
0.254398 0.415790 0.343962
0.349536 0.411094 0.347634
0.409902 0.410081 0.345654
0.460202 0.408617 0.341103
0.503229 0.405756 0.334220
0.541194 0.401122 0.326310
0.575787 0.395271 0.320091
0.616375 0.368391 0.295286
0.158381 0.464746 0.334337
0.251792 0.463534 0.337601
0.345253 0.461623 0.341495
0.409100 0.461280 0.339756
0.461163 0.461172 0.335235
0.505316 0.460941 0.329561
0.544232 0.460706 0.323448
0.580015 0.460812 0.318228
0.623853 0.453717 0.271452
0.194979 0.505380 0.336182
0.255156 0.505118 0.337729
0.340401 0.505154 0.337976
0.407180 0.506121 0.333308
0.462759 0.507067 0.329973
0.508911 0.508565 0.326136
0.549368 0.510913 0.322129
0.586697 0.514608 0.319487
0.630082 0.519306 0.270865
0.226494 0.544210 0.344930
0.262868 0.544429 0.344365
0.337836 0.545514 0.340547
0.404731 0.547818 0.329373
0.466002 0.549745 0.327486
0.515153 0.552738 0.325514
0.557882 0.557223 0.324042
0.597565 0.563876 0.324195
0.641392 0.574670 0.279964
0.243915 0.584034 0.359055
0.272194 0.584415 0.357693
0.338894 0.586087 0.350804
0.403224 0.589542 0.331350
0.472560 0.592639 0.330237
0.525963 0.597339 0.330256
0.572072 0.604326 0.331264
0.615585 0.614669 0.334132
0.663138 0.631671 0.296018
0.176423 0.629369 0.377206
0.239352 0.629728 0.375853
0.318465 0.632411 0.364335
0.367396 0.640458 0.310899
0.474192 0.645521 0.293548
0.543111 0.651458 0.302281
0.597370 0.661220 0.315857
0.648830 0.677363 0.336150
0.708463 0.706908 0.315574
0.114775 0.110382 0.455483
0.246556 0.110418 0.450775
0.358979 0.096656 0.438451
0.423380 0.095517 0.423959
0.469333 0.085155 0.413592
0.506520 0.085530 0.407392
0.539718 0.075517 0.405089
0.570785 0.065360 0.406446
0.601256 0.051472 0.411482
0.122872 0.246402 0.447076
0.267599 0.273531 0.425468
0.353756 0.264570 0.422103
0.417802 0.249879 0.417402
0.465728 0.235888 0.411781
0.504934 0.219914 0.407512
0.539161 0.204055 0.405639
0.570798 0.189366 0.406922
0.601586 0.174578 0.411797
0.132979 0.353214 0.429770
0.265631 0.352502 0.419167
0.351228 0.351923 0.409511
0.410738 0.349089 0.410401
0.460547 0.344182 0.409681
0.502522 0.336959 0.407823
0.539017 0.328468 0.406315
0.572211 0.319974 0.406870
0.604871 0.306233 0.410100
0.159457 0.416099 0.415666
0.255765 0.414314 0.413854
0.349177 0.411176 0.410862
0.410047 0.410047 0.410047
0.461383 0.407749 0.408125
0.504741 0.404206 0.405434
0.542590 0.399698 0.403022
0.577008 0.394991 0.402428
0.617635 0.370003 0.397736
0.179675 0.463974 0.408876
0.254558 0.463146 0.409150
0.344959 0.461751 0.409369
0.408396 0.461898 0.407983
0.461841 0.461781 0.404589
0.508094 0.460335 0.398966
0.548738 0.457374 0.392651
0.585791 0.452961 0.386560
0.627639 0.442553 0.374440
0.206186 0.505596 0.408535
0.258094 0.505458 0.408899
0.340541 0.505684 0.408850
0.405262 0.507316 0.405664
0.461307 0.509242 0.398747
0.510448 0.510013 0.395396
0.552971 0.511044 0.390106
0.591796 0.512562 0.385958
0.637890 0.513676 0.359912
0.231251 0.545017 0.414149
0.265515 0.545261 0.413932
0.338413 0.546439 0.412449
0.402464 0.549246 0.406588
0.459776 0.553179 0.393838
0.514545 0.555628 0.391611
0.560213 0.559293 0.389426
0.601839 0.564761 0.387807
0.650015 0.574410 0.352345
0.247104 0.585288 0.425694
0.274421 0.585684 0.425137
0.339761 0.587421 0.422299
0.402358 0.591119 0.413925
0.458405 0.596993 0.392957
0.521894 0.601336 0.392440
0.572632 0.607837 0.392631
0.618923 0.617573 0.394429
0.671183 0.635079 0.352118
0.175851 0.631174 0.443795
0.239809 0.631549 0.443247
0.317631 0.634329 0.438457
0.365569 0.642362 0.420230
0.427528 0.654358 0.369024
0.530226 0.659991 0.362921
0.595750 0.668485 0.371689
0.652148 0.683521 0.390722
0.717008 0.714544 0.358892
0.142865 0.138677 0.490248
0.241502 0.139275 0.488151
0.349276 0.130487 0.481936
0.417651 0.111249 0.474300
0.466311 0.110844 0.466891
0.505271 0.118380 0.462357
0.539613 0.109185 0.461128
0.571494 0.099109 0.462951
0.602627 0.084214 0.468097
0.146012 0.240749 0.486710
0.264517 0.271273 0.474558
0.349835 0.264815 0.471617
0.414837 0.253962 0.467850
0.464224 0.240292 0.464336
0.504384 0.227811 0.461766
0.539426 0.214787 0.461176
0.571742 0.202171 0.463152
0.603123 0.189081 0.468291
0.151697 0.346795 0.477636
0.268332 0.351279 0.467927
0.351813 0.353783 0.459331
0.411179 0.349994 0.460241
0.461076 0.343980 0.460928
0.503104 0.336934 0.461026
0.539880 0.328974 0.461577
0.573475 0.321177 0.463699
0.606888 0.305808 0.468536
0.172334 0.413641 0.468126
0.261754 0.412914 0.464988
0.349810 0.411640 0.460715
0.410053 0.410146 0.461856
0.461600 0.407895 0.461771
0.505506 0.403972 0.461733
0.543810 0.399392 0.461769
0.578619 0.394951 0.463231
0.620070 0.368451 0.466732
0.195759 0.463437 0.463017
0.258780 0.462969 0.462542
0.344769 0.462224 0.461853
0.408290 0.462415 0.462203
0.462198 0.462198 0.462198
0.512019 0.458104 0.458796
0.552555 0.454333 0.456727
0.588621 0.451347 0.456931
0.629911 0.443065 0.458262
0.217431 0.506175 0.463100
0.262533 0.506149 0.463182
0.340985 0.506595 0.463362
0.405122 0.508343 0.463134
0.458574 0.511766 0.459137
0.512288 0.512003 0.453948
0.558887 0.510311 0.447295
0.600184 0.507447 0.441751
0.644591 0.501971 0.432058
0.238040 0.546342 0.468406
0.269545 0.546614 0.468406
0.339445 0.547886 0.468200
0.402681 0.550813 0.466649
0.456165 0.555974 0.459725
0.511948 0.560350 0.448286
0.563443 0.562481 0.445879
0.608476 0.565836 0.442299
0.658028 0.572075 0.426573
0.251976 0.587268 0.479638
0.277772 0.587682 0.479489
0.341182 0.589486 0.478650
0.403085 0.593316 0.475766
0.456699 0.599790 0.466654
0.512003 0.607883 0.446667
0.572586 0.613510 0.446235
0.623899 0.622201 0.447050
0.679835 0.638393 0.424836
0.172760 0.634031 0.498702
0.238039 0.634449 0.498531
0.316079 0.637320 0.496876
0.360784 0.645528 0.490249
0.421856 0.658024 0.473215
0.499599 0.669585 0.432348
0.590433 0.676822 0.438796
0.655662 0.691573 0.453471
0.728241 0.725017 0.434890
0.176169 0.173174 0.520291
0.245854 0.173888 0.519273
0.344511 0.174864 0.515754
0.413230 0.168698 0.511354
0.463905 0.157787 0.507547
0.504664 0.153647 0.505159
0.540147 0.144090 0.505164
0.572913 0.132921 0.507809
0.604802 0.118776 0.513567
0.181058 0.246952 0.518280
0.264173 0.269881 0.512302
0.346893 0.265738 0.510397
0.412535 0.258296 0.507871
0.462993 0.248314 0.505740
0.504286 0.237039 0.504678
0.540203 0.226744 0.505235
0.573291 0.216266 0.508093
0.605406 0.204895 0.513896
0.183605 0.343596 0.513875
0.271655 0.350593 0.507181
0.351728 0.354520 0.501452
0.411485 0.350462 0.502165
0.461583 0.344581 0.503134
0.504013 0.337314 0.504320
0.541190 0.330080 0.506077
0.575303 0.323139 0.509370
0.609547 0.306203 0.515777
0.195216 0.411850 0.508571
0.267713 0.412283 0.505667
0.350011 0.412389 0.502389
0.410362 0.410563 0.504067
0.462218 0.407892 0.505450
0.506355 0.404204 0.506909
0.545195 0.399640 0.508758
0.580616 0.395438 0.511759
0.623088 0.365304 0.520569
0.211519 0.463415 0.505732
0.265970 0.463206 0.505028
0.345580 0.463000 0.504616
0.407689 0.463112 0.506795
0.461139 0.460815 0.513584
0.511578 0.458028 0.512219
0.553631 0.454228 0.512067
0.590798 0.451411 0.513438
0.633864 0.441620 0.520149
0.228586 0.507293 0.506886
0.268326 0.507353 0.506953
0.341875 0.507978 0.507628
0.405157 0.509685 0.509437
0.458506 0.512427 0.512296
0.512763 0.512763 0.512763
0.565828 0.506500 0.507647
0.606684 0.502913 0.506825
0.648657 0.500621 0.510697
0.246357 0.548330 0.512777
0.274840 0.548624 0.512948
0.341053 0.549963 0.513643
0.403190 0.552919 0.514751
0.456411 0.557975 0.515060
0.507106 0.565069 0.508858
0.567002 0.566395 0.501049
0.618630 0.565393 0.494093
0.669131 0.564340 0.487095
0.258042 0.590130 0.524577
0.282255 0.590557 0.524691
0.343252 0.592417 0.525089
0.404248 0.596344 0.525389
0.457615 0.602968 0.523936
0.507094 0.612978 0.514632
0.569171 0.622103 0.497350
0.630562 0.628781 0.496930
0.691244 0.641718 0.487219
0.165729 0.638148 0.545198
0.235185 0.638605 0.545281
0.314815 0.641539 0.545479
0.356003 0.649793 0.544968
0.412855 0.662918 0.541198
0.493362 0.676367 0.527704
0.573208 0.689618 0.495160
0.659236 0.704032 0.506945
0.744221 0.740392 0.502330
0.205099 0.202833 0.547558
0.255569 0.202938 0.547092
0.343552 0.202989 0.545402
0.411348 0.201215 0.543108
0.462915 0.196576 0.541279
0.504922 0.189275 0.540738
0.541480 0.180075 0.542036
0.575181 0.169330 0.545673
0.607989 0.152486 0.552304
0.214695 0.261336 0.545830
0.267965 0.271717 0.543641
0.346140 0.269099 0.542635
0.411476 0.264109 0.541318
0.462686 0.257015 0.540421
0.504878 0.248487 0.540567
0.541712 0.239337 0.542274
0.575643 0.230649 0.546099
0.608648 0.220157 0.552813
0.215963 0.344682 0.543994
0.276333 0.350739 0.540395
0.351560 0.354247 0.537394
0.411917 0.350504 0.538072
0.462475 0.345187 0.539238
0.505333 0.338751 0.541028
0.543101 0.331894 0.543770
0.577864 0.325902 0.548077
0.612955 0.307855 0.555966
0.221771 0.411622 0.541808
0.274272 0.412514 0.540030
0.350242 0.413092 0.538388
0.410834 0.410842 0.540495
0.463159 0.408071 0.542493
0.507740 0.404415 0.544962
0.547068 0.400296 0.548071
0.583197 0.396539 0.552457
0.626159 0.362764 0.564946
0.232002 0.464166 0.541231
0.273660 0.464184 0.540813
0.346588 0.464242 0.541154
0.407482 0.463767 0.544776
0.461174 0.460108 0.552553
0.511852 0.457612 0.554030
0.554571 0.454943 0.555946
0.593017 0.452417 0.559325
0.638515 0.438946 0.571104
0.243625 0.509118 0.543848
0.275983 0.509238 0.544017
0.343762 0.509931 0.545277
0.405191 0.511427 0.548708
0.457444 0.513092 0.555959
0.510679 0.509829 0.568300
0.564842 0.506419 0.566080
0.608605 0.503301 0.566527
0.654137 0.500128 0.573812
0.255556 0.551157 0.550771
0.281212 0.551459 0.551085
0.343320 0.552815 0.552492
0.404097 0.555681 0.555453
0.457032 0.560326 0.560214
0.507295 0.566274 0.566234
0.568095 0.568095 0.568095
0.630904 0.559178 0.561318
0.679487 0.557396 0.564984
0.264990 0.594075 0.563633
0.287483 0.594512 0.563937
0.345927 0.596410 0.565216
0.405921 0.600384 0.567675
0.459050 0.607032 0.571018
0.508366 0.617035 0.573461
0.561055 0.631142 0.565257
0.638553 0.637239 0.552513
0.709264 0.642741 0.545827
0.143362 0.643853 0.586358
0.227759 0.644345 0.586636
0.312923 0.647324 0.588092
0.351416 0.655489 0.591446
0.402010 0.668974 0.595609
0.483942 0.684630 0.596373
0.559999 0.702977 0.583724
0.657438 0.724120 0.558835
0.769073 0.764767 0.566567
0.230138 0.227516 0.573106
0.268271 0.227450 0.572920
0.345977 0.226972 0.572259
0.411716 0.225290 0.571444
0.463546 0.221689 0.571123
0.506368 0.216055 0.571936
0.543847 0.208551 0.574429
0.578511 0.198696 0.579167
0.612540 0.173352 0.587054
0.241088 0.276228 0.571634
0.275515 0.276907 0.571372
0.347962 0.275172 0.571013
0.412094 0.271741 0.570668
0.463616 0.266619 0.570843
0.506522 0.260138 0.572065
0.544182 0.252758 0.574837
0.579031 0.244590 0.579734
0.613200 0.230472 0.587682
0.243135 0.348935 0.571057
0.282505 0.351922 0.569794
0.352160 0.353759 0.568763
0.413002 0.350610 0.569580
0.464058 0.346134 0.571041
0.507439 0.340727 0.573379
0.545823 0.334966 0.576943
0.581395 0.329446 0.582313
0.617386 0.310719 0.591607
0.246152 0.413235 0.570920
0.281664 0.413718 0.570398
0.350878 0.413828 0.570306
0.411642 0.410908 0.572865
0.464729 0.408304 0.575156
0.509840 0.405011 0.578255
0.549759 0.401435 0.582369
0.586703 0.398212 0.588059
0.629464 0.363060 0.602650
0.251284 0.466013 0.572302
0.281932 0.466065 0.572367
0.348180 0.466023 0.573531
0.407731 0.464576 0.578182
0.462098 0.459918 0.585775
0.513057 0.457926 0.588762
0.556537 0.455773 0.592616
0.596047 0.454128 0.597986
0.643659 0.434764 0.614644
0.258473 0.511882 0.576432
0.284370 0.512028 0.576793
0.346419 0.512648 0.578614
0.406003 0.513655 0.583238
0.457670 0.513667 0.592847
0.511024 0.508521 0.606397
0.565022 0.506461 0.608897
0.610387 0.505248 0.612802
0.660214 0.499380 0.626402
0.266650 0.555018 0.584657
0.288974 0.555321 0.585104
0.346802 0.556627 0.587085
0.405776 0.559277 0.591419
0.457898 0.563277 0.599159
0.506830 0.567406 0.612303
0.565182 0.563321 0.633565
0.630266 0.559949 0.632542
0.686309 0.558350 0.639839
0.272188 0.599375 0.599023
0.293136 0.599819 0.599479
0.349189 0.601736 0.601445
0.408205 0.605715 0.605516
0.461168 0.612276 0.612204
0.510474 0.621924 0.621982
0.562483 0.634802 0.634918
0.642877 0.642877 0.642877
0.735670 0.631398 0.637628
0.096535 0.651601 0.624564
0.208849 0.652137 0.625007
0.309517 0.655163 0.627404
0.347944 0.663158 0.633431
0.390979 0.676750 0.643118
0.472662 0.694086 0.654029
0.551950 0.717053 0.663779
0.637495 0.752565 0.655595
0.814637 0.809803 0.639715
0.252340 0.248337 0.597621
0.282343 0.248188 0.597594
0.351106 0.247489 0.597545
0.414236 0.245486 0.597729
0.465854 0.240480 0.598647
0.509307 0.232332 0.600746
0.547731 0.220970 0.604491
0.583491 0.206100 0.610445
0.618671 0.179880 0.619528
0.246475 0.273538 0.598416
0.285715 0.284361 0.597104
0.352145 0.282813 0.597230
0.414500 0.279501 0.597707
0.466036 0.273896 0.598925
0.509605 0.266518 0.601245
0.548182 0.257479 0.605139
0.584102 0.246630 0.611203
0.619464 0.229630 0.620392
0.231762 0.343184 0.600102
0.272157 0.344624 0.599767
0.338556 0.329524 0.603585
0.410786 0.325018 0.604405
0.466567 0.319435 0.605716
0.512322 0.312551 0.607998
0.552153 0.305507 0.611632
0.588770 0.299266 0.617247
0.624821 0.286529 0.626285
0.230656 0.412647 0.601002
0.269653 0.412793 0.600989
0.304462 0.396178 0.612325
0.386779 0.361979 0.625431
0.464739 0.354149 0.626216
0.519037 0.343766 0.627832
0.563336 0.331246 0.630686
0.602314 0.320485 0.634939
0.640234 0.291078 0.643186
0.229910 0.468282 0.603412
0.267402 0.468277 0.603647
0.303897 0.465199 0.612435
0.353220 0.451393 0.634106
0.449827 0.427093 0.649870
0.523028 0.417854 0.650986
0.575730 0.406197 0.653870
0.620108 0.392811 0.658308
0.664751 0.337979 0.669633
0.229797 0.516107 0.608459
0.266034 0.516202 0.608840
0.306548 0.517088 0.615110
0.338848 0.518132 0.633066
0.417202 0.512993 0.658148
0.510464 0.491811 0.678700
0.584109 0.481531 0.680856
0.639627 0.469926 0.686257
0.699164 0.404775 0.706311
0.227360 0.560909 0.617697
0.264518 0.561140 0.618136
0.311511 0.563178 0.622544
0.328635 0.568937 0.636298
0.397836 0.575176 0.655819
0.476576 0.576413 0.683782
0.569211 0.554721 0.710497
0.652780 0.544226 0.714868
0.735622 0.491055 0.744796
0.208198 0.607242 0.633626
0.254493 0.607628 0.634122
0.313894 0.610145 0.637519
0.333010 0.617174 0.647397
0.380240 0.627871 0.663244
0.454599 0.640440 0.684888
0.534304 0.649844 0.714349
0.639933 0.628672 0.758676
0.773118 0.599495 0.782731
-0.003117 0.662144 0.661877
0.132146 0.662762 0.662504
0.288945 0.666030 0.665828
0.314517 0.674380 0.674334
0.327923 0.688838 0.689046
0.409613 0.709346 0.709852
0.494117 0.739073 0.739918
0.596019 0.786978 0.788141
0.954339 0.954339 0.954339
