OCIO/luts/ACES2_Candidates_rev060/ACES2 Candidate CAMDRT rev060 Rec2020.cube
TITLE "Generated by Foundry::LUT"
LUT_3D_SIZE 65
0.000000 0.000000 0.000000
0.000000 0.000000 0.000000
0.000000 0.000000 0.000000
0.000000 0.000000 0.000000
0.000000 0.000000 0.000000
0.001513 0.000251 0.000000
0.005686 0.000967 0.000000
0.009693 0.001663 0.000000
0.013606 0.002346 0.000002
0.017447 0.003018 0.000000
0.021230 0.003682 0.000000
0.025385 0.004411 0.000001
0.030331 0.005282 0.000005
0.036209 0.006319 0.000003
0.043182 0.007553 0.000009
0.051431 0.009018 0.000000
0.061162 0.010755 0.000008
0.072600 0.012811 0.000000
0.085988 0.015239 0.000000
0.101583 0.018101 0.000000
0.119646 0.021466 0.000009
0.140434 0.025413 0.000021
0.164189 0.030024 0.000000
0.191122 0.035387 0.000000
0.221402 0.041577 0.000040
0.255143 0.048649 0.000041
0.292396 0.056616 0.000000
0.333145 0.065437 0.000000
0.377307 0.075008 0.000052
0.424747 0.085161 0.000000
0.475280 0.095689 0.000034
0.528690 0.106360 0.000000
0.584733 0.116939 0.000000
0.643133 0.127210 0.000000
0.703582 0.136975 0.000000
0.765660 0.145734 0.000118
0.829007 0.153464 0.000000
0.893201 0.160628 0.000000
0.957630 0.167269 0.000088
1.000000 0.211347 0.000151
1.000000 0.300695 0.143311
1.000000 0.364657 0.206023
1.000000 0.413303 0.254851
1.000000 0.453105 0.296312
1.000000 0.487238 0.333081
1.000000 0.517572 0.366719
1.000000 0.545442 0.398417
1.000000 0.571886 0.429190
1.000000 0.597760 0.459949
1.000000 0.623787 0.491532
1.000000 0.650598 0.524716
1.000000 0.678733 0.560223
1.000000 0.708622 0.598656
1.000000 0.740592 0.640531
1.000000 0.774708 0.686020
1.000000 0.810615 0.734707
1.000000 0.847287 0.785186
1.000000 0.882533 0.834309
1.000000 0.913741 0.878202
1.000000 0.938944 0.913845
1.000000 0.957796 0.940564
1.000000 0.971257 0.959638
1.000000 0.980711 0.973009
1.000000 0.987320 0.982332
1.000000 0.991966 0.988863
0.000000 0.000000 0.000000
0.000000 0.000000 0.000000
0.000000 0.000000 0.000000
0.000000 0.000000 0.000000
0.000000 0.000000 0.000000
0.001513 0.000251 0.000000
0.005686 0.000967 0.000000
0.009693 0.001663 0.000000
0.013606 0.002346 0.000002
0.017447 0.003018 0.000000
0.021230 0.003682 0.000000
0.025385 0.004411 0.000002
0.030331 0.005282 0.000005
0.036209 0.006319 0.000003
0.043182 0.007553 0.000009
0.051431 0.009018 0.000000
0.061162 0.010755 0.000008
0.072600 0.012811 0.000000
0.085988 0.015239 0.000000
0.101583 0.018101 0.000000
0.119646 0.021466 0.000009
0.140434 0.025413 0.000021
0.164189 0.030024 0.000000
0.191122 0.035387 0.000000
0.221402 0.041577 0.000040
0.255143 0.048649 0.000041
0.292396 0.056616 0.000000
0.333145 0.065438 0.000000
0.377307 0.075008 0.000052
0.424747 0.085161 0.000000
0.475280 0.095689 0.000034
0.528690 0.106360 0.000000
0.584733 0.116939 0.000000
0.643133 0.127210 0.000000
0.703582 0.136975 0.000000
0.765660 0.145734 0.000118
0.829007 0.153464 0.000000
0.893201 0.160628 0.000000
0.957630 0.167269 0.000088
1.000000 0.211347 0.000000
1.000000 0.300695 0.143311
1.000000 0.364657 0.206023
1.000000 0.413303 0.254851
1.000000 0.453105 0.296312
1.000000 0.487238 0.333081
1.000000 0.517572 0.366718
1.000000 0.545442 0.398417
1.000000 0.571886 0.429190
1.000000 0.597760 0.459949
1.000000 0.623787 0.491532
1.000000 0.650598 0.524716
1.000000 0.678733 0.560222
1.000000 0.708623 0.598657
1.000000 0.740592 0.640531
1.000000 0.774707 0.686020
1.000000 0.810615 0.734707
1.000000 0.847287 0.785186
1.000000 0.882533 0.834309
1.000000 0.913741 0.878202
1.000000 0.938944 0.913844
1.000000 0.957797 0.940565
1.000000 0.971257 0.959638
1.000000 0.980711 0.973009
1.000000 0.987320 0.982332
1.000000 0.991966 0.988863
0.000000 0.000000 0.000000
0.000000 0.000000 0.000000
0.000000 0.000000 0.000000
0.000000 0.000000 0.000000
0.000000 0.000000 0.000000
0.001513 0.000251 0.000000
0.005686 0.000967 0.000000
0.009693 0.001663 0.000000
0.013606 0.002346 0.000002
0.017447 0.003018 0.000000
0.021230 0.003682 0.000000
0.025385 0.004411 0.000001
0.030331 0.005282 0.000005
0.036209 0.006319 0.000003
0.043182 0.007553 0.000009
0.051431 0.009018 0.000000
0.061162 0.010755 0.000008
0.072600 0.012811 0.000000
0.085988 0.015239 0.000000
0.101583 0.018101 0.000000
0.119646 0.021466 0.000009
0.140434 0.025413 0.000000
0.164189 0.030024 0.000000
0.191122 0.035387 0.000000
0.221402 0.041577 0.000040
0.255143 0.048649 0.000041
0.292396 0.056616 0.000000
0.333145 0.065438 0.000000
0.377307 0.075008 0.000052
0.424747 0.085161 0.000000
0.475280 0.095689 0.000034
0.528690 0.106360 0.000000
0.584733 0.116939 0.000000
0.643133 0.127210 0.000000
0.703582 0.136975 0.000000
0.765660 0.145734 0.000118
0.829007 0.153464 0.000000
0.893201 0.160628 0.000000
0.957630 0.167269 0.000088
1.000000 0.211347 0.000000
1.000000 0.300695 0.143311
1.000000 0.364657 0.206023
1.000000 0.413303 0.254851
1.000000 0.453105 0.296312
1.000000 0.487238 0.333081
1.000000 0.517572 0.366718
1.000000 0.545442 0.398417
1.000000 0.571886 0.429190
1.000000 0.597760 0.459949
1.000000 0.623787 0.491532
1.000000 0.650598 0.524716
1.000000 0.678733 0.560223
1.000000 0.708623 0.598657
1.000000 0.740592 0.640531
1.000000 0.774708 0.686020
1.000000 0.810616 0.734707
1.000000 0.847287 0.785186
1.000000 0.882533 0.834309
1.000000 0.913741 0.878202
1.000000 0.938944 0.913844
1.000000 0.957797 0.940565
1.000000 0.971256 0.959637
1.000000 0.980710 0.973009
1.000000 0.987320 0.982332
1.000000 0.991966 0.988863
0.000000 0.000000 0.000000
0.000000 0.000000 0.000000
0.000000 0.000000 0.000000
0.000000 0.000000 0.000000
0.000000 0.000000 0.000000
0.001513 0.000251 0.000000
0.005686 0.000967 0.000000
0.009693 0.001663 0.000000
0.013606 0.002346 0.000002
0.017447 0.003018 0.000000
0.021230 0.003682 0.000000
0.025385 0.004411 0.000001
0.030331 0.005282 0.000005
0.036209 0.006319 0.000003
0.043182 0.007553 0.000009
0.051431 0.009018 0.000000
0.061162 0.010755 0.000008
0.072600 0.012811 0.000011
0.085988 0.015239 0.000000
0.101583 0.018101 0.000000
0.119646 0.021466 0.000009
0.140434 0.025413 0.000000
0.164189 0.030024 0.000000
0.191122 0.035387 0.000000
0.221402 0.041577 0.000040
0.255143 0.048649 0.000041
0.292396 0.056616 0.000000
0.333145 0.065438 0.000000
0.377307 0.075008 0.000052
0.424747 0.085161 0.000000
0.475280 0.095689 0.000034
0.528690 0.106360 0.000000
0.584733 0.116939 0.000000
0.643133 0.127210 0.000000
0.703582 0.136975 0.000000
0.765660 0.145734 0.000118
0.829007 0.153464 0.000000
0.893201 0.160628 0.000000
0.957630 0.167269 0.000088
1.000000 0.211347 0.000000
1.000000 0.300695 0.143311
1.000000 0.364657 0.206023
1.000000 0.413303 0.254851
1.000000 0.453106 0.296313
1.000000 0.487238 0.333082
1.000000 0.517572 0.366718
1.000000 0.545442 0.398417
1.000000 0.571886 0.429190
1.000000 0.597760 0.459950
1.000000 0.623787 0.491532
1.000000 0.650598 0.524716
1.000000 0.678733 0.560222
1.000000 0.708622 0.598656
1.000000 0.740592 0.640531
1.000000 0.774708 0.686020
1.000000 0.810616 0.734707
1.000000 0.847287 0.785185
1.000000 0.882533 0.834309
1.000000 0.913741 0.878202
1.000000 0.938944 0.913844
1.000000 0.957797 0.940565
1.000000 0.971256 0.959637
1.000000 0.980711 0.973009
1.000000 0.987320 0.982332
1.000000 0.991966 0.988863
0.000000 0.000000 0.000000
0.000000 0.000000 0.000000
0.000000 0.000000 0.000000
0.000000 0.000000 0.000000
0.000000 0.000000 0.000000
0.001513 0.000251 0.000000
0.005686 0.000967 0.000000
0.009693 0.001663 0.000000
0.013606 0.002346 0.000002
0.017447 0.003018 0.000000
0.021230 0.003682 0.000000
0.025385 0.004411 0.000002
0.030331 0.005282 0.000005
0.036209 0.006319 0.000003
0.043182 0.007553 0.000009
0.051431 0.009018 0.000000
0.061162 0.010755 0.000008
0.072600 0.012811 0.000000
0.085988 0.015239 0.000000
0.101583 0.018101 0.000000
0.119646 0.021466 0.000009
0.140434 0.025413 0.000000
0.164189 0.030024 0.000000
0.191122 0.035387 0.000000
0.221402 0.041577 0.000040
0.255143 0.048649 0.000041
0.292396 0.056616 0.000000
0.333145 0.065438 0.000000
0.377307 0.075008 0.000000
0.424747 0.085161 0.000000
0.475280 0.095689 0.000034
0.528690 0.106360 0.000000
0.584733 0.116939 0.000000
0.643133 0.127210 0.000000
0.703582 0.136975 0.000000
0.765660 0.145734 0.000118
0.829007 0.153464 0.000000
0.893201 0.160628 0.000000
0.957630 0.167269 0.000088
1.000000 0.211347 0.000000
1.000000 0.300695 0.143311
1.000000 0.364657 0.206023
1.000000 0.413303 0.254851
1.000000 0.453105 0.296312
1.000000 0.487238 0.333081
1.000000 0.517572 0.366719
1.000000 0.545442 0.398417
1.000000 0.571886 0.429190
1.000000 0.597760 0.459949
1.000000 0.623787 0.491532
1.000000 0.650598 0.524716
1.000000 0.678733 0.560222
1.000000 0.708623 0.598657
1.000000 0.740592 0.640531
1.000000 0.774708 0.686020
1.000000 0.810616 0.734707
1.000000 0.847287 0.785186
1.000000 0.882533 0.834309
1.000000 0.913741 0.878202
1.000000 0.938944 0.913845
1.000000 0.957797 0.940565
1.000000 0.971257 0.959638
1.000000 0.980711 0.973009
1.000000 0.987320 0.982332
1.000000 0.991966 0.988863
0.000291 0.002029 0.000000
0.000291 0.002029 0.000000
0.000291 0.002029 0.000000
0.000291 0.002029 0.000000
0.000291 0.002029 0.000000
0.002652 0.002658 0.000001
0.007014 0.004034 0.000000
0.011045 0.005133 0.000000
0.014954 0.006104 0.000000
0.018785 0.006996 0.000000
0.022554 0.007837 0.000003
0.026693 0.008723 0.000002
0.031619 0.009745 0.000003
0.037473 0.010928 0.000000
0.044415 0.012301 0.000000
0.052636 0.013875 0.000000
0.062333 0.015710 0.000000
0.073731 0.017857 0.000000
0.087077 0.020357 0.000009
0.102638 0.023224 0.000000
0.120666 0.026563 0.000000
0.141421 0.030453 0.000000
0.165143 0.034976 0.000000
0.192027 0.040167 0.000000
0.222242 0.046124 0.000000
0.255907 0.052935 0.000000
0.293075 0.060624 0.000000
0.333732 0.069161 0.000019
0.377800 0.078450 0.000057
0.425143 0.088334 0.000060
0.475583 0.098611 0.000000
0.528905 0.109053 0.000000
0.584867 0.119427 0.000000
0.643197 0.129514 0.000000
0.703585 0.139118 0.000000
0.765611 0.147736 0.000000
0.828915 0.155349 0.000076
0.893078 0.162402 0.000000
0.957487 0.168935 0.000000
1.000000 0.212412 0.000000
1.000000 0.301262 0.143400
1.000000 0.365032 0.206097
1.000000 0.413572 0.254912
1.000000 0.453306 0.296360
1.000000 0.487397 0.333129
1.000000 0.517700 0.366764
1.000000 0.545546 0.398460
1.000000 0.571972 0.429231
1.000000 0.597831 0.459989
1.000000 0.623846 0.491568
1.000000 0.650647 0.524750
1.000000 0.678774 0.560254
1.000000 0.708657 0.598685
1.000000 0.740620 0.640557
1.000000 0.774731 0.686044
1.000000 0.810635 0.734728
1.000000 0.847301 0.785201
1.000000 0.882543 0.834321
1.000000 0.913747 0.878209
1.000000 0.938947 0.913848
1.000000 0.957798 0.940566
1.000000 0.971258 0.959639
1.000000 0.980711 0.973009
1.000000 0.987320 0.982332
1.000000 0.991967 0.988864
0.001168 0.007615 0.000000
0.001167 0.007615 0.000000
0.001167 0.007615 0.000000
0.001167 0.007615 0.000000
0.001167 0.007615 0.000000
0.004719 0.008262 0.000000
0.009925 0.009947 0.000000
0.014254 0.011388 0.000000
0.018311 0.012683 0.000000
0.022222 0.013874 0.000000
0.026034 0.014989 0.000000
0.030195 0.016157 0.000000
0.035126 0.017486 0.000000
0.040966 0.018997 0.000000
0.047877 0.020710 0.000000
0.056038 0.022653 0.000000
0.065659 0.024845 0.000006
0.076965 0.027315 0.000000
0.090198 0.030098 0.000000
0.105604 0.033269 0.000000
0.123468 0.036813 0.000000
0.144021 0.040873 0.000021
0.167543 0.045409 0.000000
0.194223 0.050559 0.000000
0.224232 0.056424 0.000000
0.257694 0.063082 0.000022
0.294668 0.070488 0.000000
0.335141 0.078603 0.000000
0.379020 0.087436 0.000000
0.426169 0.096855 0.000040
0.476403 0.106676 0.000000
0.529509 0.116688 0.000000
0.585243 0.126573 0.000000
0.643366 0.136171 0.000088
0.703576 0.145332 0.000060
0.765449 0.153567 0.000066
0.828629 0.160849 0.000127
0.892702 0.167588 0.000123
0.957049 0.173809 0.000000
1.000000 0.215564 0.000080
1.000000 0.302955 0.143669
1.000000 0.366154 0.206320
1.000000 0.414351 0.255054
1.000000 0.453905 0.296501
1.000000 0.487872 0.333270
1.000000 0.518082 0.366901
1.000000 0.545857 0.398591
1.000000 0.572227 0.429355
1.000000 0.598042 0.460104
1.000000 0.624023 0.491677
1.000000 0.650794 0.524851
1.000000 0.678897 0.560347
1.000000 0.708758 0.598769
1.000000 0.740706 0.640635
1.000000 0.774801 0.686112
1.000000 0.810696 0.734794
1.000000 0.847347 0.785253
1.000000 0.882576 0.834360
1.000000 0.913768 0.878234
1.000000 0.938962 0.913866
1.000000 0.957805 0.940574
1.000000 0.971261 0.959643
1.000000 0.980713 0.973012
1.000000 0.987321 0.982333
1.000000 0.991967 0.988865
0.002029 0.012956 0.000000
0.002029 0.012956 0.000000
0.002029 0.012956 0.000000
0.002029 0.012956 0.000000
0.002029 0.012956 0.000000
0.006257 0.013588 0.000000
0.012185 0.015328 0.000000
0.016834 0.016872 0.000004
0.021079 0.018281 0.000000
0.025110 0.019591 0.000000
0.029004 0.020824 0.000000
0.033224 0.022122 0.000000
0.038199 0.023603 0.000006
0.044066 0.025288 0.000000
0.050986 0.027193 0.000000
0.059135 0.029346 0.000000
0.068718 0.031770 0.000008
0.079956 0.034493 0.000000
0.093094 0.037544 0.000000
0.108390 0.040945 0.000000
0.126110 0.044733 0.000000
0.146514 0.048940 0.000000
0.169833 0.053674 0.000000
0.196316 0.058892 0.000000
0.226096 0.064788 0.000000
0.259353 0.071259 0.000000
0.296105 0.078431 0.000030
0.336342 0.086344 0.000000
0.380000 0.094966 0.000025
0.426945 0.104107 0.000000
0.477014 0.113498 0.000086
0.529971 0.123082 0.000000
0.585576 0.132649 0.000000
0.643561 0.141990 0.000000
0.703622 0.150914 0.000000
0.765338 0.158939 0.000000
0.828371 0.166035 0.000095
0.892328 0.172563 0.000000
0.956605 0.178521 0.000102
1.000000 0.218621 0.000127
1.000000 0.304559 0.143850
1.000000 0.367178 0.206425
1.000000 0.415122 0.255188
1.000000 0.454502 0.296642
1.000000 0.488346 0.333411
1.000000 0.518463 0.367037
1.000000 0.546168 0.398721
1.000000 0.572482 0.429478
1.000000 0.598253 0.460220
1.000000 0.624198 0.491785
1.000000 0.650941 0.524952
1.000000 0.679019 0.560440
1.000000 0.708861 0.598854
1.000000 0.740791 0.640712
1.000000 0.774872 0.686181
1.000000 0.810756 0.734858
1.000000 0.847394 0.785306
1.000000 0.882609 0.834398
1.000000 0.913788 0.878258
1.000000 0.938974 0.913880
1.000000 0.957811 0.940582
1.000000 0.971265 0.959647
1.000000 0.980715 0.973014
1.000000 0.987321 0.982333
1.000000 0.991967 0.988864
0.002876 0.018147 0.000004
0.002876 0.018147 0.000004
0.002876 0.018147 0.000004
0.002876 0.018147 0.000004
0.002876 0.018147 0.000004
0.007576 0.018763 0.000000
0.014123 0.020506 0.000000
0.019067 0.022091 0.000000
0.023501 0.023554 0.000000
0.027661 0.024923 0.000000
0.031646 0.026219 0.000000
0.035938 0.027588 0.000000
0.040973 0.029156 0.000000
0.046885 0.030942 0.000000
0.053830 0.032971 0.000000
0.061985 0.035263 0.000000
0.071551 0.037844 0.000011
0.082750 0.040736 0.000000
0.095827 0.043957 0.000000
0.111024 0.047557 0.000000
0.128627 0.051526 0.000000
0.148879 0.055924 0.000000
0.172034 0.060789 0.000000
0.198329 0.066109 0.000000
0.227915 0.072031 0.000037
0.260956 0.078494 0.000019
0.297467 0.085678 0.000000
0.337521 0.093360 0.000000
0.380989 0.101649 0.000000
0.427745 0.110478 0.000000
0.477623 0.119726 0.000000
0.530404 0.129135 0.000000
0.585885 0.138344 0.000053
0.643761 0.147338 0.000000
0.703730 0.155927 0.000134
0.765366 0.163645 0.000000
0.828334 0.170460 0.000000
0.892237 0.176712 0.000000
0.956473 0.182394 0.000000
1.000000 0.221246 0.000164
1.000000 0.306032 0.143885
1.000000 0.368196 0.206527
1.000000 0.415889 0.255320
1.000000 0.455097 0.296782
1.000000 0.488819 0.333551
1.000000 0.518845 0.367174
1.000000 0.546479 0.398852
1.000000 0.572738 0.429601
1.000000 0.598464 0.460336
1.000000 0.624374 0.491894
1.000000 0.651087 0.525053
1.000000 0.679140 0.560530
1.000000 0.708963 0.598938
1.000000 0.740877 0.640789
1.000000 0.774943 0.686251
1.000000 0.810817 0.734923
1.000000 0.847440 0.785358
1.000000 0.882642 0.834436
1.000000 0.913809 0.878284
1.000000 0.938985 0.913894
1.000000 0.957818 0.940590
1.000000 0.971268 0.959651
1.000000 0.980716 0.973016
1.000000 0.987323 0.982335
1.000000 0.991968 0.988865
0.003708 0.023220 0.000000
0.003708 0.023220 0.000000
0.003708 0.023220 0.000000
0.003708 0.023220 0.000000
0.003708 0.023220 0.000000
0.008764 0.023820 0.000006
0.015852 0.025550 0.000000
0.021071 0.027147 0.000000
0.025681 0.028636 0.000000
0.029969 0.030038 0.000000
0.034048 0.031367 0.000000
0.038418 0.032778 0.000000
0.043519 0.034398 0.000000
0.049484 0.036250 0.000000
0.056465 0.038358 0.000000
0.064639 0.040744 0.000000
0.074204 0.043430 0.000000
0.085378 0.046444 0.000000
0.098401 0.049804 0.000000
0.113527 0.053535 0.000000
0.131029 0.057644 0.000000
0.151152 0.062181 0.000000
0.174157 0.067162 0.000000
0.200272 0.072602 0.000000
0.229676 0.078560 0.000025
0.262496 0.085112 0.000034
0.298838 0.092126 0.000034
0.338659 0.099798 0.000000
0.381927 0.107982 0.000000
0.428526 0.116523 0.000025
0.478246 0.125429 0.000000
0.530886 0.134554 0.000034
0.586197 0.143690 0.000045
0.643947 0.152474 0.000000
0.703826 0.160760 0.000000
0.765386 0.168194 0.000000
0.828292 0.174749 0.000000
0.892142 0.180743 0.000000
0.956336 0.186166 0.000000
1.000000 0.223831 0.000164
1.000000 0.307495 0.143919
1.000000 0.369209 0.206627
1.000000 0.416654 0.255453
1.000000 0.455692 0.296922
1.000000 0.489290 0.333691
1.000000 0.519225 0.367310
1.000000 0.546788 0.398981
1.000000 0.572992 0.429724
1.000000 0.598674 0.460451
1.000000 0.624549 0.492002
1.000000 0.651234 0.525154
1.000000 0.679262 0.560623
1.000000 0.709064 0.599022
1.000000 0.740962 0.640866
1.000000 0.775014 0.686321
1.000000 0.810876 0.734986
1.000000 0.847486 0.785410
1.000000 0.882674 0.834473
1.000000 0.913831 0.878309
1.000000 0.938997 0.913908
1.000000 0.957825 0.940598
1.000000 0.971271 0.959655
1.000000 0.980719 0.973019
1.000000 0.987324 0.982337
1.000000 0.991968 0.988865
0.004528 0.028192 0.000000
0.004528 0.028192 0.000000
0.004528 0.028192 0.000000
0.004528 0.028192 0.000000
0.004528 0.028192 0.000000
0.009867 0.028778 0.000000
0.017431 0.030488 0.000000
0.022906 0.032082 0.000000
0.027683 0.033580 0.000000
0.032091 0.034998 0.000000
0.036264 0.036347 0.000008
0.040713 0.037781 0.000000
0.045883 0.039433 0.000000
0.051905 0.041326 0.000000
0.058931 0.043485 0.000000
0.067133 0.045933 0.000000
0.076705 0.048695 0.000000
0.087863 0.051797 0.000000
0.100851 0.055250 0.000014
0.115912 0.059091 0.000000
0.133320 0.063319 0.000000
0.153332 0.067960 0.000000
0.176199 0.073038 0.000000
0.202150 0.078579 0.000000
0.231378 0.084592 0.000034
0.264016 0.091127 0.000000
0.300143 0.098208 0.000000
0.339788 0.105730 0.000000
0.382864 0.113803 0.000000
0.429260 0.122298 0.000000
0.478845 0.130935 0.000000
0.531353 0.139751 0.000000
0.586553 0.148581 0.000000
0.644166 0.157242 0.000060
0.703911 0.165433 0.000000
0.765397 0.172604 0.000000
0.828242 0.178915 0.000000
0.892043 0.184665 0.000088
0.956197 0.189843 0.000000
1.000000 0.226379 0.000000
1.000000 0.308949 0.143955
1.000000 0.370218 0.206728
1.000000 0.417416 0.255585
1.000000 0.456284 0.297061
1.000000 0.489762 0.333831
1.000000 0.519605 0.367446
1.000000 0.547098 0.399112
1.000000 0.573246 0.429847
1.000000 0.598884 0.460567
1.000000 0.624723 0.492110
1.000000 0.651380 0.525255
1.000000 0.679383 0.560713
1.000000 0.709167 0.599107
1.000000 0.741047 0.640943
1.000000 0.775083 0.686388
1.000000 0.810936 0.735051
1.000000 0.847532 0.785461
1.000000 0.882707 0.834512
1.000000 0.913852 0.878334
1.000000 0.939008 0.913921
1.000000 0.957831 0.940606
1.000000 0.971275 0.959659
1.000000 0.980720 0.973020
1.000000 0.987324 0.982337
1.000000 0.991969 0.988866
0.005427 0.033624 0.000000
0.005427 0.033624 0.000000
0.005427 0.033624 0.000000
0.005427 0.033624 0.000000
0.005427 0.033624 0.000000
0.011018 0.034196 0.000000
0.019052 0.035878 0.000000
0.024793 0.037460 0.000000
0.029748 0.038957 0.000000
0.034283 0.040381 0.000000
0.038553 0.041741 0.000000
0.043090 0.043189 0.000000
0.048339 0.044860 0.000011
0.054428 0.046780 0.000000
0.061506 0.048974 0.000000
0.069744 0.051469 0.000000
0.079333 0.054287 0.000000
0.090487 0.057453 0.000000
0.103439 0.060992 0.000000
0.118447 0.064911 0.000014
0.135762 0.069243 0.000000
0.155659 0.073983 0.000000
0.178384 0.079151 0.000000
0.204170 0.084767 0.000000
0.233211 0.090850 0.000000
0.265653 0.097399 0.000000
0.301576 0.104449 0.000000
0.340997 0.111993 0.000000
0.383886 0.119892 0.000000
0.430098 0.128218 0.000000
0.479470 0.136822 0.000045
0.531848 0.145354 0.000000
0.586926 0.153874 0.000000
0.644437 0.162216 0.000000
0.704067 0.170218 0.000000
0.765400 0.177366 0.000000
0.828179 0.183424 0.000000
0.891926 0.188917 0.000000
0.956038 0.193835 0.000181
1.000000 0.229171 0.000000
1.000000 0.310557 0.143994
1.000000 0.371338 0.206841
1.000000 0.418263 0.255732
1.000000 0.456943 0.297217
1.000000 0.490286 0.333987
1.000000 0.520027 0.367598
1.000000 0.547442 0.399256
1.000000 0.573529 0.429984
1.000000 0.599119 0.460695
1.000000 0.624919 0.492230
1.000000 0.651543 0.525367
1.000000 0.679519 0.560815
1.000000 0.709280 0.599201
1.000000 0.741141 0.641028
1.000000 0.775162 0.686466
1.000000 0.811004 0.735123
1.000000 0.847583 0.785519
1.000000 0.882743 0.834553
1.000000 0.913874 0.878361
1.000000 0.939022 0.913937
1.000000 0.957839 0.940615
1.000000 0.971278 0.959662
1.000000 0.980721 0.973022
1.000000 0.987325 0.982338
1.000000 0.991970 0.988866
0.006494 0.040053 0.000000
0.006494 0.040053 0.000000
0.006494 0.040053 0.000000
0.006494 0.040053 0.000000
0.006494 0.040053 0.000000
0.012329 0.040610 0.000000
0.020861 0.042256 0.000000
0.026896 0.043816 0.000000
0.032053 0.045301 0.000011
0.036737 0.046721 0.000000
0.041120 0.048081 0.000000
0.045753 0.049536 0.000000
0.051098 0.051216 0.000000
0.057271 0.053150 0.000000
0.064417 0.055367 0.000000
0.072703 0.057893 0.000000
0.082319 0.060754 0.000000
0.093476 0.063973 0.000000
0.106403 0.067571 0.000019
0.121349 0.071571 0.000000
0.138579 0.075974 0.000000
0.158346 0.080811 0.000000
0.180917 0.086066 0.000000
0.206517 0.091756 0.000034
0.235349 0.097891 0.000000
0.267564 0.104482 0.000034
0.303253 0.111508 0.000000
0.342437 0.118987 0.000000
0.385076 0.126867 0.000000
0.431079 0.134982 0.000000
0.480258 0.143363 0.000000
0.532401 0.151862 0.000000
0.587345 0.160061 0.000000
0.644736 0.168063 0.000080
0.704271 0.175707 0.000000
0.765501 0.182598 0.000000
0.828100 0.188679 0.000095
0.891776 0.193905 0.000000
0.955838 0.198528 0.000143
1.000000 0.232488 0.000143
1.000000 0.312486 0.144043
1.000000 0.372690 0.206982
1.000000 0.419281 0.255908
1.000000 0.457737 0.297405
1.000000 0.490917 0.334175
1.000000 0.520537 0.367780
1.000000 0.547857 0.399430
1.000000 0.573871 0.430149
1.000000 0.599402 0.460851
1.000000 0.625154 0.492376
1.000000 0.651740 0.525503
1.000000 0.679682 0.560937
1.000000 0.709417 0.599313
1.000000 0.741256 0.641133
1.000000 0.775257 0.686559
1.000000 0.811085 0.735209
1.000000 0.847645 0.785589
1.000000 0.882786 0.834604
1.000000 0.913902 0.878393
1.000000 0.939038 0.913957
1.000000 0.957847 0.940623
1.000000 0.971283 0.959668
1.000000 0.980725 0.973025
1.000000 0.987327 0.982340
1.000000 0.991970 0.988867
0.007759 0.047638 0.000000
0.007759 0.047638 0.000000
0.007759 0.047638 0.000000
0.007759 0.047638 0.000000
0.007759 0.047638 0.000000
0.013825 0.048179 0.000000
0.022873 0.049781 0.000000
0.029232 0.051309 0.000000
0.034614 0.052772 0.000000
0.039466 0.054176 0.000000
0.043980 0.055527 0.000000
0.048727 0.056976 0.000000
0.054177 0.058656 0.000000
0.060452 0.060592 0.000000
0.067683 0.062815 0.000000
0.076034 0.065355 0.000000
0.085689 0.068239 0.000000
0.096858 0.071491 0.000000
0.109766 0.075132 0.000000
0.124660 0.079182 0.000000
0.141792 0.083656 0.000000
0.161435 0.088549 0.000000
0.183830 0.093887 0.000000
0.209229 0.099644 0.000025
0.237827 0.105829 0.000034
0.269787 0.112439 0.000045
0.305205 0.119472 0.000000
0.344120 0.126882 0.000045
0.386489 0.134663 0.000000
0.432220 0.142715 0.000000
0.481172 0.150849 0.000000
0.533119 0.159067 0.000000
0.587804 0.167238 0.000088
0.645060 0.174884 0.000000
0.704475 0.182159 0.000000
0.765621 0.188655 0.000118
0.828136 0.194417 0.000000
0.891627 0.199621 0.000060
0.955589 0.204021 0.000000
1.000000 0.236419 0.000170
1.000000 0.314794 0.144102
1.000000 0.374318 0.207157
