OCIO/luts/ACES_v2.0.0/ACES v2.0.0 Output Rec709_inverse.cube
TITLE "Generated by Foundry::LUT"
LUT_3D_SIZE 5
0.072906 0.072906 0.072906
0.366471 0.116733 0.078495
0.451707 0.159061 0.079198
0.514746 0.249441 0.105504
0.578646 0.290074 0.110136
0.244796 0.361269 0.095643
0.350189 0.352165 0.122219
0.447781 0.340992 0.108592
0.515964 0.349345 0.127159
0.581621 0.365862 0.115778
0.339483 0.460799 0.125086
0.381932 0.459490 0.160716
0.456595 0.458229 0.175752
0.526298 0.464985 0.188633
0.593933 0.479128 0.134361
0.427970 0.547751 0.218846
0.446657 0.547834 0.230866
0.496577 0.549983 0.235881
0.554601 0.556004 0.242357
0.623288 0.577108 0.172035
0.520100 0.652832 0.198201
0.532027 0.653908 0.198326
0.572202 0.659122 0.198752
0.630113 0.673051 0.200462
0.707719 0.708402 0.196426
0.166508 0.105946 0.402166
0.348427 0.105486 0.378750
0.451131 0.122104 0.326208
0.517613 0.219518 0.300209
0.584231 0.243632 0.287904
0.211005 0.356135 0.362839
0.350159 0.350159 0.350159
0.433108 0.363054 0.351272
0.503780 0.381028 0.349454
0.578320 0.377915 0.316264
0.283188 0.465170 0.263240
0.402542 0.456075 0.362104
0.458475 0.460576 0.360996
0.520516 0.469278 0.358931
0.591409 0.479801 0.318994
0.404786 0.552799 0.266592
0.458101 0.545321 0.368004
0.501332 0.548347 0.376341
0.555351 0.557294 0.375259
0.623702 0.576917 0.319349
0.505704 0.659246 0.233265
0.528036 0.654537 0.332602
0.570672 0.658721 0.349064
0.629660 0.673145 0.358456
0.710539 0.711133 0.348126
0.246732 0.159554 0.482665
0.335618 0.152132 0.480362
0.440741 0.146906 0.471619
0.516109 0.224206 0.461222
0.587040 0.238293 0.461489
0.217959 0.307160 0.495347
0.361086 0.355764 0.452584
0.437541 0.365229 0.454727
0.506775 0.381906 0.457770
0.582585 0.374682 0.461397
0.296937 0.461119 0.468248
0.407044 0.457768 0.461070
0.462198 0.462198 0.462198
0.529738 0.466233 0.458335
0.594121 0.473891 0.455033
0.375026 0.558325 0.449066
0.452623 0.550677 0.467583
0.497868 0.555665 0.461544
0.560996 0.562464 0.461180
0.631714 0.577163 0.444836
0.373642 0.677773 0.420081
0.467094 0.671788 0.434719
0.554787 0.671349 0.448849
0.631460 0.683368 0.465306
0.728233 0.727976 0.437165
0.311169 0.244471 0.538044
0.355460 0.245894 0.538295
0.440382 0.246079 0.540610
0.514468 0.252311 0.544675
0.587708 0.232596 0.558575
0.288144 0.281390 0.555639
0.377484 0.360994 0.528833
0.445767 0.369646 0.530874
0.512675 0.385074 0.536334
0.587620 0.366040 0.556926
0.323282 0.452099 0.564053
0.414753 0.460045 0.539959
0.467388 0.461467 0.547186
0.533272 0.467373 0.551469
0.602617 0.472703 0.562064
0.378746 0.557873 0.565305
0.455437 0.554900 0.560369
0.501114 0.560093 0.564072
0.568095 0.568095 0.568095
0.652728 0.568583 0.559812
0.369034 0.682604 0.597068
0.461837 0.680093 0.596356
0.525459 0.690713 0.591985
0.616274 0.714183 0.560211
0.768107 0.767136 0.558656
0.355805 0.269100 0.591439
0.383688 0.268677 0.592566
0.452475 0.264309 0.597690
0.523739 0.252891 0.608057
0.591984 0.231976 0.623936
0.344972 0.281915 0.606268
0.389931 0.332408 0.599319
0.458099 0.329773 0.604645
0.529650 0.325402 0.614838
0.597763 0.327588 0.629487
0.298259 0.427929 0.640586
0.379696 0.435067 0.636653
0.474582 0.438971 0.639540
0.554173 0.438183 0.646938
0.632288 0.420816 0.665964
0.335448 0.565647 0.658811
0.415607 0.564926 0.654763
0.475877 0.566848 0.673473
0.576866 0.558877 0.694311
0.688062 0.547496 0.721425
0.360285 0.696742 0.705553
0.461631 0.697365 0.705722
0.509654 0.713803 0.722180
0.584939 0.756543 0.765082
0.954339 0.954339 0.954339
