OCIO/luts/ACES_v2.0.0/ACES v2.0.0 Output Rec2100 (P3D65 1000nit Limited)_inverse.cube
TITLE "Generated by Foundry::LUT"
LUT_3D_SIZE 9
0.072906 0.072906 0.072906
0.305606 0.055115 0.071910
0.397680 0.015778 0.069525
0.474987 -0.022518 0.071810
0.554244 -0.045194 0.095895
0.640184 -0.028880 0.185540
0.742373 -0.054106 0.299690
0.966288 -28.400053 0.502650
1.468035 1.468035 1.468035
0.069829 0.277668 0.075505
0.255967 0.256315 0.085143
0.380227 0.218276 0.092492
0.530548 -0.490258 -4.224549
0.553249 0.067039 0.106594
0.640088 0.042588 0.188379
0.742400 0.011668 0.300035
0.966498 -28.239792 0.502871
1.468035 1.468035 1.468035
0.070565 0.373777 0.084096
0.286338 0.342648 0.249439
0.357180 0.357452 0.110483
0.460864 0.338161 0.119443
0.553445 0.287402 0.088541
0.639639 0.299406 0.202365
0.742605 0.294032 0.302607
0.968126 -26.988575 0.504571
1.468035 1.468035 1.468035
0.112020 0.459256 0.122193
0.212791 0.457946 0.143101
0.336616 0.455522 0.151604
0.449311 0.449412 0.161371
0.546890 0.439643 0.172866
0.640254 0.427037 0.198689
0.745125 0.404825 0.268079
0.976412 -30.281649 0.483944
1.468035 1.468035 1.468035
0.231514 0.546828 0.219626
0.257630 0.546666 0.223000
0.336940 0.546331 0.224534
0.429018 0.547457 0.049561
0.543071 0.542877 0.209091
0.641488 0.539749 0.217943
0.749490 0.542335 0.264924
1.010738 -44.320415 -0.205780
1.468035 1.468035 1.468035
0.339542 0.641984 0.320828
0.345673 0.641984 0.321020
0.369259 0.642386 0.311713
0.442318 0.643248 0.289921
0.521725 0.649353 -0.708296
0.648282 0.647414 -0.043332
0.763618 0.663971 0.306644
1.468035 1.468035 1.468035
1.468035 1.468035 1.468035
0.395002 0.771893 0.429490
0.396441 0.771947 0.428688
0.406823 0.772365 0.422264
0.445227 0.774087 0.389748
0.566894 0.777853 0.355208
0.521042 0.819318 -10.495253
0.843559 0.842375 0.234981
1.468035 1.468035 1.468035
1.468035 1.468035 1.468035
1.468035 1.468035 1.468035
1.468035 1.468035 1.468035
1.468035 1.468035 1.468035
1.468035 1.468035 1.468035
1.468035 1.468035 1.468035
1.468035 1.468035 1.468035
1.468035 1.468035 1.468035
1.468035 1.468035 1.468035
1.468035 1.468035 1.468035
1.468035 1.468035 1.468035
1.468035 1.468035 1.468035
1.468035 1.468035 1.468035
1.468035 1.468035 1.468035
1.468035 1.468035 1.468035
1.468035 1.468035 1.468035
1.468035 1.468035 1.468035
1.468035 1.468035 1.468035
1.468035 1.468035 1.468035
0.054533 0.039235 0.348583
0.282479 0.065728 0.283849
0.393331 0.034093 0.204036
0.474230 -0.012254 0.151016
0.554127 -0.040827 0.156587
0.640176 -0.027121 0.217400
0.742388 -0.053079 0.309907
0.966386 -28.449869 0.506474
1.468035 1.468035 1.468035
0.078218 0.265922 0.265550
0.250074 0.250074 0.250074
0.369707 0.238417 0.234422
0.517772 -1.093647 -0.677337
0.553140 0.070462 0.168664
0.640080 0.044273 0.219454
0.742414 0.012689 0.310217
0.966596 -28.289907 0.506694
1.468035 1.468035 1.468035
0.077775 0.372306 0.198371
0.360845 0.218715 0.386435
0.355250 0.355866 0.230240
0.457733 0.342999 0.216861
0.556376 0.241097 0.096211
0.639639 0.299469 0.229607
0.742620 0.294227 0.312533
0.968225 -27.038361 0.508381
1.468035 1.468035 1.468035
0.115139 0.459058 0.190455
0.213319 0.457777 0.203671
0.339725 0.454686 0.217946
0.449074 0.449256 0.217783
0.546820 0.439693 0.212958
0.640541 0.425344 0.219137
0.745162 0.404328 0.281095
0.976521 -30.352545 0.488836
1.468035 1.468035 1.468035
0.232095 0.546807 0.243520
0.258060 0.546644 0.246137
0.336678 0.546337 0.246676
0.437180 0.546068 0.212725
0.543030 0.542917 0.244410
0.641229 0.539917 0.245216
0.749691 0.541330 0.271403
1.011013 -46.123104 -0.151404
1.468035 1.468035 1.468035
0.339660 0.641990 0.328247
0.345669 0.641993 0.328367
0.369317 0.642393 0.319850
0.440868 0.643360 0.296366
0.528316 0.648146 -0.442687
0.648103 0.647424 0.172063
0.763747 0.663836 0.310589
1.468035 1.468035 1.468035
1.468035 1.468035 1.468035
0.395047 0.771913 0.432469
0.396483 0.771967 0.431694
0.406838 0.772386 0.425480
0.442932 0.774141 0.392770
0.565956 0.777935 0.357451
0.543200 0.818292 -10.160420
0.843631 0.842434 0.245117
1.468035 1.468035 1.468035
1.468035 1.468035 1.468035
1.468035 1.468035 1.468035
1.468035 1.468035 1.468035
1.468035 1.468035 1.468035
1.468035 1.468035 1.468035
1.468035 1.468035 1.468035
1.468035 1.468035 1.468035
1.468035 1.468035 1.468035
1.468035 1.468035 1.468035
1.468035 1.468035 1.468035
1.468035 1.468035 1.468035
1.468035 1.468035 1.468035
1.468035 1.468035 1.468035
1.468035 1.468035 1.468035
1.468035 1.468035 1.468035
1.468035 1.468035 1.468035
1.468035 1.468035 1.468035
1.468035 1.468035 1.468035
1.468035 1.468035 1.468035
-0.009886 -0.074048 0.444282
0.221541 -0.008327 0.424813
0.377581 0.055577 0.378820
0.470102 0.025111 0.339407
0.553379 -0.016250 0.315840
0.640119 -0.014690 0.320268
0.742491 -0.045288 0.362657
0.967127 -28.830332 0.531306
1.468035 1.468035 1.468035
0.086381 0.228688 0.404957
0.247142 0.251335 0.374974
0.365651 0.233457 0.364924
0.465322 0.033954 0.326752
0.552455 0.090358 0.318501
0.640026 0.056143 0.321024
0.742518 0.020542 0.362841
0.967339 -28.670551 0.531518
1.468035 1.468035 1.468035
0.097958 0.364885 0.364496
0.274125 0.349677 0.349063
0.353308 0.353308 0.353308
0.453847 0.346240 0.345839
0.556615 0.233450 0.291999
0.639638 0.300028 0.324430
0.742724 0.295726 0.364228
0.968981 -27.420334 0.533147
1.468035 1.468035 1.468035
0.132955 0.457787 0.333551
0.217194 0.456710 0.335439
0.305143 0.458851 0.313670
0.448286 0.448476 0.338767
0.547077 0.438934 0.321812
0.643440 0.408996 0.291794
0.745323 0.403624 0.345077
0.977353 -30.899826 0.519362
1.468035 1.468035 1.468035
0.236091 0.546660 0.332162
0.260623 0.546505 0.333099
0.337115 0.546237 0.332866
0.439434 0.545710 0.326242
0.543232 0.543028 0.321452
0.642288 0.538416 0.310000
0.751199 0.533347 0.306911
1.012827 -56.037395 0.340907
1.468035 1.468035 1.468035
0.340484 0.642040 0.370049
0.346045 0.642052 0.369997
0.369711 0.642452 0.364676
0.432319 0.644005 0.338302
0.541221 0.645310 0.313752
0.648117 0.647628 0.329681
0.764708 0.662816 0.335431
1.468035 1.468035 1.468035
1.468035 1.468035 1.468035
0.394933 0.772069 0.452287
0.396426 0.772124 0.451679
0.407176 0.772540 0.446841
0.441242 0.774327 0.421284
0.558435 0.778554 0.372989
0.607819 0.812988 -9.249564
0.844184 0.842884 0.297235
1.468035 1.468035 1.468035
1.468035 1.468035 1.468035
1.468035 1.468035 1.468035
1.468035 1.468035 1.468035
1.468035 1.468035 1.468035
1.468035 1.468035 1.468035
1.468035 1.468035 1.468035
1.468035 1.468035 1.468035
1.468035 1.468035 1.468035
1.468035 1.468035 1.468035
1.468035 1.468035 1.468035
1.468035 1.468035 1.468035
1.468035 1.468035 1.468035
1.468035 1.468035 1.468035
1.468035 1.468035 1.468035
1.468035 1.468035 1.468035
1.468035 1.468035 1.468035
1.468035 1.468035 1.468035
1.468035 1.468035 1.468035
1.468035 1.468035 1.468035
-0.039951 -0.139335 0.509415
0.106378 -0.106718 0.505448
0.352462 0.007165 0.486995
0.461432 0.070531 0.462275
0.551149 0.046840 0.443129
0.639941 0.030134 0.435929
0.742893 -0.012489 0.453871
0.970171 -30.446598 0.594713
1.468035 1.468035 1.468035
0.106251 0.192116 0.490086
0.207286 0.201277 0.487135
0.352403 0.208790 0.476648
0.419838 0.367851 0.416438
0.550471 0.143723 0.443222
0.639859 0.099437 0.436142
0.742920 0.053541 0.453958
0.970390 -30.287663 0.594916
1.468035 1.468035 1.468035
0.135638 0.350018 0.474508
0.235256 0.351897 0.468712
0.352827 0.354470 0.455417
0.452541 0.345145 0.452270
0.555197 0.232643 0.438378
0.639660 0.302796 0.436703
0.743130 0.301755 0.454610
0.972093 -29.046434 0.596491
1.468035 1.468035 1.468035
0.175190 0.454213 0.453797
0.230870 0.453619 0.453191
-0.044100 0.461536 0.461854
0.447529 0.447529 0.447529
0.548525 0.435418 0.437316
0.644025 0.407554 0.424586
0.745835 0.403882 0.445812
0.980782 -33.227886 0.591379
1.468035 1.468035 1.468035
0.249411 0.546186 0.441826
0.269947 0.546058 0.441984
0.339285 0.545905 0.441587
0.427615 0.547819 0.430439
0.543882 0.543557 0.425810
0.646841 0.532116 0.403369
0.756241 0.499058 0.383751
1.018000 -64.518402 0.559876
1.468035 1.468035 1.468035
0.343834 0.642251 0.451771
0.347859 0.642294 0.451562
0.371300 0.642694 0.449436
0.431040 0.644408 0.438635
0.534847 0.647244 0.410846
0.649242 0.648405 0.408001
0.768416 0.658760 0.394742
1.468035 1.468035 1.468035
1.468035 1.468035 1.468035
0.394283 0.772723 0.506087
0.395753 0.772778 0.505748
0.406351 0.773200 0.503091
0.441259 0.774998 0.490427
0.522382 0.780893 0.426166
0.645858 0.807509 -6.827875
0.846481 0.844780 0.385960
1.468035 1.468035 1.468035
1.468035 1.468035 1.468035
1.468035 1.468035 1.468035
1.468035 1.468035 1.468035
1.468035 1.468035 1.468035
1.468035 1.468035 1.468035
1.468035 1.468035 1.468035
1.468035 1.468035 1.468035
1.468035 1.468035 1.468035
1.468035 1.468035 1.468035
1.468035 1.468035 1.468035
1.468035 1.468035 1.468035
1.468035 1.468035 1.468035
1.468035 1.468035 1.468035
1.468035 1.468035 1.468035
1.468035 1.468035 1.468035
1.468035 1.468035 1.468035
1.468035 1.468035 1.468035
1.468035 1.468035 1.468035
1.468035 1.468035 1.468035
0.038474 -0.067568 0.574043
0.124958 -0.057419 0.573402
0.328965 0.002307 0.569275
0.450387 0.112813 0.559247
0.547441 0.167134 0.547972
0.639701 0.158060 0.542127
0.744166 0.100797 0.554183
0.980448 -36.664837 0.690170
1.468035 1.468035 1.468035
0.104515 0.113714 0.570384
0.181920 0.120169 0.569861
0.333346 0.158931 0.566418
0.450157 0.207860 0.557810
0.547168 0.219115 0.547635
0.639652 0.205538 0.542143
0.744195 0.166632 0.554231
0.980696 -36.515934 0.690391
1.468035 1.468035 1.468035
0.211228 0.340302 0.561441
0.253017 0.344175 0.559646
0.336381 0.334195 0.561153
0.448981 0.343135 0.552554
0.549549 0.262609 0.550903
0.639817 0.314021 0.542136
0.744419 0.319769 0.554595
0.982698 -36.111828 0.691682
1.468035 1.468035 1.468035
0.235689 0.448916 0.553137
0.261367 0.448930 0.552658
-2.655341 0.331660 0.624215
0.444425 0.444163 0.551723
0.546489 0.434869 0.547098
0.644604 0.405758 0.540881
0.747366 0.405130 0.551383
0.992479 -42.439621 0.693431
1.468035 1.468035 1.468035
0.279571 0.545349 0.544915
0.291156 0.545333 0.544902
0.345561 0.545346 0.544946
0.402866 0.548360 0.548247
0.543258 0.543258 0.543258
0.653285 0.521159 0.526902
0.758154 0.499231 0.532885
1.036026 -93.713631 0.702951
1.468035 1.468035 1.468035
0.351085 0.643087 0.547667
0.354419 0.643137 0.547607
0.376422 0.643525 0.547135
0.434279 0.645165 0.544761
0.519997 0.651240 0.528298
0.652170 0.650982 0.506667
0.779519 0.644142 0.476536
1.468035 1.468035 1.468035
1.468035 1.468035 1.468035
0.392794 0.774897 0.589163
0.394358 0.774953 0.589039
0.405310 0.775384 0.588067
0.440802 0.777227 0.583600
0.509840 0.783711 0.562746
0.623108 0.815266 -2.844944
0.854123 0.851320 0.481656
1.468035 1.468035 1.468035
1.468035 1.468035 1.468035
1.468035 1.468035 1.468035
1.468035 1.468035 1.468035
1.468035 1.468035 1.468035
1.468035 1.468035 1.468035
1.468035 1.468035 1.468035
1.468035 1.468035 1.468035
1.468035 1.468035 1.468035
1.468035 1.468035 1.468035
1.468035 1.468035 1.468035
1.468035 1.468035 1.468035
1.468035 1.468035 1.468035
1.468035 1.468035 1.468035
1.468035 1.468035 1.468035
1.468035 1.468035 1.468035
1.468035 1.468035 1.468035
1.468035 1.468035 1.468035
1.468035 1.468035 1.468035
1.468035 1.468035 1.468035
0.266337 0.245067 0.648108
0.281183 0.245895 0.648029
0.348207 0.251584 0.647457
0.446552 0.266918 0.645539
0.544901 0.285364 0.642153
0.640660 0.292689 0.641045
0.748202 0.283468 0.654830
1.019162 -76.447525 0.819905
1.468035 1.468035 1.468035
0.271566 0.271329 0.647662
0.285505 0.271887 0.647586
0.349880 0.275532 0.647048
0.446820 0.285880 0.645234
0.544881 0.298869 0.642020
0.640657 0.303814 0.641036
0.748236 0.296906 0.654867
1.019583 -77.005768 0.820176
1.468035 1.468035 1.468035
0.298620 0.359338 0.644901
0.308521 0.359387 0.644853
0.359835 0.359697 0.644506
0.448556 0.360548 0.643306
0.547970 -2.518628 0.671187
0.640985 0.349169 0.641429
0.748649 0.351180 0.655125
1.022899 -81.574089 0.822319
1.468035 1.468035 1.468035
0.309505 0.449914 0.642985
0.317095 0.449727 0.643055
0.358817 0.447925 0.643755
0.443461 0.441475 0.645635
0.544568 0.435484 0.644765
0.644359 0.412223 0.645521
0.751723 0.411839 0.655882
1.038378 -107.198997 0.832469
1.468035 1.468035 1.468035
0.327668 0.545993 0.641163
0.332825 0.545966 0.641263
0.364232 0.545733 0.642058
0.474578 0.551032 0.636686
0.535625 0.532330 0.658782
0.650674 0.520830 0.652546
0.762450 0.500763 0.656873
1.128532 -536.964844 0.895134
1.468035 1.468035 1.468035
0.370307 0.646012 0.645588
0.372796 0.646054 0.645632
0.389828 0.646373 0.645972
0.438994 0.647703 0.647382
0.506960 0.653162 0.653126
0.653071 0.653070 0.653071
0.797352 0.612681 0.634533
1.468035 1.468035 1.468035
1.468035 1.468035 1.468035
0.383493 0.781710 0.687135
0.385258 0.781768 0.687127
0.397749 0.782214 0.687061
0.436763 0.784122 0.686707
0.509630 0.790884 0.684486
-174.310394 0.873366 -10.906431
0.878748 0.873685 0.584088
1.468035 1.468035 1.468035
1.468035 1.468035 1.468035
1.468035 1.468035 1.468035
1.468035 1.468035 1.468035
1.468035 1.468035 1.468035
1.468035 1.468035 1.468035
1.468035 1.468035 1.468035
1.468035 1.468035 1.468035
1.468035 1.468035 1.468035
1.468035 1.468035 1.468035
1.468035 1.468035 1.468035
1.468035 1.468035 1.468035
1.468035 1.468035 1.468035
1.468035 1.468035 1.468035
1.468035 1.468035 1.468035
1.468035 1.468035 1.468035
1.468035 1.468035 1.468035
1.468035 1.468035 1.468035
1.468035 1.468035 1.468035
1.468035 1.468035 1.468035
0.390222 0.390899 0.736646
0.393468 0.390927 0.736651
0.414873 0.391118 0.736688
0.470986 0.391864 0.736867
0.554103 0.393722 0.737726
0.649177 0.396680 0.741976
0.762729 0.376556 0.763420
1.468035 1.468035 1.468035
1.468035 1.468035 1.468035
0.390547 0.394510 0.736632
0.393777 0.394532 0.736637
0.415106 0.394715 0.736675
0.471097 0.395408 0.736859
0.554143 0.397159 0.737728
0.649204 0.400057 0.741996
0.762809 0.378432 0.763511
1.468035 1.468035 1.468035
1.468035 1.468035 1.468035
0.392874 0.417805 0.736544
0.396013 0.417819 0.736550
0.416807 0.417928 0.736596
0.471916 0.418362 0.736808
0.554445 0.419562 0.737754
0.691359 -85.403534 0.870999
0.763427 0.391619 0.764216
1.468035 1.468035 1.468035
1.468035 1.468035 1.468035
0.389547 0.470362 0.737627
0.391537 0.469717 0.737766
0.406084 0.464877 0.738769
0.072906 0.072906 0.072906
0.552698 0.457457 0.741499
0.652565 0.422340 0.750289
0.766066 0.432474 0.767212
1.468035 1.468035 1.468035
1.468035 1.468035 1.468035
0.394509 0.555637 0.739922
0.396273 0.555464 0.740049
0.408780 0.554096 0.741028
0.447960 0.547165 0.745333
0.524836 0.494499 0.770115
0.658764 0.479593 0.771002
0.775381 0.506997 0.777668
1.468035 1.468035 1.468035
1.468035 1.468035 1.468035
0.409185 0.656751 0.749757
0.410546 0.656754 0.749849
0.420266 0.656771 0.750561
0.452905 0.656746 0.753628
-10.769705 0.645189 0.807089
0.637529 0.603229 0.827961
0.807287 0.611893 0.812456
1.468035 1.468035 1.468035
1.468035 1.468035 1.468035
-0.309863 0.805533 0.805287
-0.283809 0.805595 0.805351
-0.083355 0.806078 0.805845
0.332936 0.808146 0.807961
0.474388 0.815545 0.815526
0.980108 -383.561279 0.411483
1.000472 1.000472 1.000472
1.468035 1.468035 1.468035
1.468035 1.468035 1.468035
1.468035 1.468035 1.468035
1.468035 1.468035 1.468035
1.468035 1.468035 1.468035
1.468035 1.468035 1.468035
1.468035 1.468035 1.468035
1.468035 1.468035 1.468035
1.468035 1.468035 1.468035
1.468035 1.468035 1.468035
1.468035 1.468035 1.468035
1.468035 1.468035 1.468035
1.468035 1.468035 1.468035
1.468035 1.468035 1.468035
1.468035 1.468035 1.468035
1.468035 1.468035 1.468035
1.468035 1.468035 1.468035
1.468035 1.468035 1.468035
1.468035 1.468035 1.468035
1.468035 1.468035 1.468035
0.496811 0.467711 0.865632
0.498121 0.467623 0.865663
0.507594 0.466933 0.865907
0.539272 0.463859 0.866950
0.603250 0.451053 0.870680
0.696261 0.355035 0.883671
0.841388 -20.276922 0.942932
1.468035 1.468035 1.468035
1.468035 1.468035 1.468035
0.496225 0.468260 0.865736
0.497546 0.468166 0.865768
0.507084 0.467476 0.866011
0.538945 0.464413 0.867055
0.603134 0.451673 0.870786
0.696275 0.356598 0.883786
0.841515 -20.334965 0.943112
1.468035 1.468035 1.468035
1.468035 1.468035 1.468035
0.491519 0.472364 0.866534
0.492921 0.472270 0.866566
0.503015 0.471565 0.866812
0.536353 0.468584 0.867861
0.602225 0.456313 0.871608
0.696382 0.367798 0.884671
0.842495 -20.794680 0.944502
1.468035 1.468035 1.468035
1.468035 1.468035 1.468035
0.465865 0.487899 0.869958
0.467827 0.487817 0.869991
0.481542 0.487213 0.870241
0.523453 0.484587 0.871308
0.597912 0.473847 0.875125
0.696774 0.403566 0.888470
0.846778 -23.038780 0.950574
1.468035 1.468035 1.468035
1.468035 1.468035 1.468035
0.436141 0.578123 0.877234
0.437045 0.577591 0.877340
0.443737 0.573349 0.878156
0.467558 0.550791 0.881671
0.574356 0.516920 0.887752
0.697168 0.467734 0.902226
0.863411 -36.165730 0.974119
1.468035 1.468035 1.468035
1.468035 1.468035 1.468035
0.247230 0.699862 0.901535
0.255160 0.699767 0.901644
0.298184 0.699021 0.902487
0.381738 0.695475 0.906116
0.481730 0.676601 0.919297
0.674310 0.503861 0.954063
0.962464 -628.850342 1.115690
1.468035 1.468035 1.468035
1.468035 1.468035 1.468035
1.468035 1.468035 1.468035
1.468035 1.468035 1.468035
1.468035 1.468035 1.468035
1.468035 1.468035 1.468035
1.468035 1.468035 1.468035
1.468035 1.468035 1.468035
1.468035 1.468035 1.468035
1.468035 1.468035 1.468035
1.468035 1.468035 1.468035
1.468035 1.468035 1.468035
1.468035 1.468035 1.468035
1.468035 1.468035 1.468035
1.468035 1.468035 1.468035
1.468035 1.468035 1.468035
1.468035 1.468035 1.468035
1.468035 1.468035 1.468035
1.468035 1.468035 1.468035
1.468035 1.468035 1.468035
1.468035 1.468035 1.468035
1.468035 1.468035 1.468035
1.468035 1.468035 1.468035
1.468035 1.468035 1.468035
1.468035 1.468035 1.468035
1.468035 1.468035 1.468035
1.468035 1.468035 1.468035
1.468035 1.468035 1.468035
1.468035 1.468035 1.468035
1.468035 1.468035 1.468035
1.468035 1.468035 1.468035
1.468035 1.468035 1.468035
1.468035 1.468035 1.468035
1.468035 1.468035 1.468035
1.468035 1.468035 1.468035
1.468035 1.468035 1.468035
1.468035 1.468035 1.468035
1.468035 1.468035 1.468035
1.468035 1.468035 1.468035
1.468035 1.468035 1.468035
1.468035 1.468035 1.468035
1.468035 1.468035 1.468035
1.468035 1.468035 1.468035
1.468035 1.468035 1.468035
1.468035 1.468035 1.468035
1.468035 1.468035 1.468035
1.468035 1.468035 1.468035
1.468035 1.468035 1.468035
1.468035 1.468035 1.468035
1.468035 1.468035 1.468035
1.468035 1.468035 1.468035
1.468035 1.468035 1.468035
1.468035 1.468035 1.468035
1.468035 1.468035 1.468035
1.468035 1.468035 1.468035
1.468035 1.468035 1.468035
1.468035 1.468035 1.468035
1.468035 1.468035 1.468035
1.468035 1.468035 1.468035
1.468035 1.468035 1.468035
1.468035 1.468035 1.468035
1.468035 1.468035 1.468035
1.468035 1.468035 1.468035
1.468035 1.468035 1.468035
1.468035 1.468035 1.468035
1.468035 1.468035 1.468035
1.468035 1.468035 1.468035
1.468035 1.468035 1.468035
1.468035 1.468035 1.468035
1.468035 1.468035 1.468035
1.468035 1.468035 1.468035
1.468035 1.468035 1.468035
1.468035 1.468035 1.468035
1.468035 1.468035 1.468035
1.468035 1.468035 1.468035
1.468035 1.468035 1.468035
1.468035 1.468035 1.468035
1.468035 1.468035 1.468035
1.468035 1.468035 1.468035
1.468035 1.468035 1.468035
1.468035 1.468035 1.468035
1.468035 1.468035 1.468035
1.468035 1.468035 1.468035
1.468035 1.468035 1.468035
1.468035 1.468035 1.468035
1.468035 1.468035 1.468035
1.468035 1.468035 1.468035
1.468035 1.468035 1.468035
1.468035 1.468035 1.468035
1.468035 1.468035 1.468035
1.468035 1.468035 1.468035
1.468035 1.468035 1.468035
1.468035 1.468035 1.468035
1.468035 1.468035 1.468035
1.468035 1.468035 1.468035
1.468035 1.468035 1.468035
1.468035 1.468035 1.468035
1.468035 1.468035 1.468035
1.468035 1.468035 1.468035
1.468035 1.468035 1.468035
1.468035 1.468035 1.468035
1.468035 1.468035 1.468035
1.468035 1.468035 1.468035
1.468035 1.468035 1.468035
1.468035 1.468035 1.468035
1.468035 1.468035 1.468035
1.468035 1.468035 1.468035
1.468035 1.468035 1.468035
1.468035 1.468035 1.468035
1.468035 1.468035 1.468035
