OCIO/luts/ACES_v2.0.0/ACES v2.0.0 Output Rec709_inverse.cube
TITLE "Generated by Foundry::LUT"
LUT_3D_SIZE 65
0.072906 0.072906 0.072906
0.122223 0.074816 0.073126
0.173056 0.077019 0.073408
0.208381 0.079519 0.073764
0.233668 0.082276 0.074185
0.253509 0.085236 0.074656
0.269947 0.088336 0.075158
0.284067 0.091516 0.075672
0.296515 0.094714 0.076175
0.307702 0.097882 0.076653
0.317905 0.100975 0.077089
0.327320 0.103962 0.077474
0.336088 0.106815 0.077801
0.344314 0.109525 0.078066
0.352080 0.112079 0.078269
0.359449 0.114477 0.078410
0.366471 0.116733 0.078495
0.373187 0.118858 0.078530
0.379632 0.120861 0.078518
0.385831 0.122781 0.078471
0.391810 0.124651 0.078398
0.397587 0.126503 0.078308
0.403182 0.128371 0.078210
0.408607 0.130314 0.078117
0.413878 0.132370 0.078038
0.419006 0.134593 0.077984
0.424003 0.137027 0.077964
0.428877 0.139738 0.077992
0.433638 0.142771 0.078078
0.438293 0.146181 0.078231
0.442852 0.150014 0.078462
0.447321 0.154321 0.078781
0.451707 0.159061 0.079198
0.456017 0.164054 0.079723
0.460255 0.169261 0.080363
0.464429 0.174675 0.081132
0.468543 0.180241 0.082033
0.472602 0.185943 0.083077
0.476611 0.191731 0.084268
0.480574 0.197586 0.085616
0.484494 0.203480 0.087125
0.488377 0.209383 0.088803
0.492225 0.215276 0.090652
0.496042 0.221129 0.092674
0.499830 0.226936 0.094875
0.503592 0.232679 0.097257
0.507330 0.238354 0.099824
0.511047 0.243940 0.102571
0.514746 0.249441 0.105504
0.518427 0.254850 0.108623
0.522113 0.260495 0.112253
0.525810 0.266393 0.116493
0.529493 0.272057 0.120872
0.533162 0.277507 0.125385
0.536819 0.282762 0.130030
0.540464 0.287840 0.134805
0.544100 0.292759 0.139711
0.547726 0.297532 0.144745
0.551344 0.302169 0.149905
0.554938 0.306799 0.155435
0.558510 0.311405 0.161105
0.562138 0.315535 0.165806
0.566236 0.316876 0.164709
0.571402 0.311789 0.149822
0.578646 0.290074 0.110136
0.082394 0.113727 0.073577
0.105746 0.106488 0.074368
0.159092 0.097375 0.074336
0.200912 0.093978 0.074806
0.228391 0.094206 0.075531
0.248993 0.096426 0.076467
0.265690 0.099753 0.077538
0.279958 0.103565 0.078616
0.292558 0.107511 0.079622
0.303868 0.111578 0.080586
0.314174 0.115684 0.081493
0.323682 0.119766 0.082332
0.332535 0.123780 0.083094
0.340845 0.127693 0.083771
0.349050 0.129608 0.083641
0.356849 0.131059 0.083344
0.364224 0.132452 0.083041
0.371234 0.133790 0.082730
0.377923 0.135087 0.082412
0.384328 0.136361 0.082093
0.390482 0.137632 0.081776
0.396410 0.138926 0.081466
0.402133 0.140286 0.081172
0.407670 0.141749 0.080903
0.413039 0.143351 0.080664
0.418253 0.145146 0.080466
0.423324 0.147179 0.080317
0.428264 0.149506 0.080229
0.433083 0.152177 0.080209
0.437792 0.155227 0.080264
0.442397 0.158656 0.080409
0.446907 0.162399 0.080650
0.451331 0.166440 0.080995
0.455674 0.170766 0.081453
0.459942 0.175363 0.082034
0.464143 0.180188 0.082744
0.468281 0.185225 0.083593
0.472362 0.190433 0.084588
0.476391 0.195780 0.085735
0.480371 0.201232 0.087040
0.484308 0.206761 0.088510
0.488206 0.212332 0.090147
0.492067 0.217927 0.091959
0.495896 0.223517 0.093946
0.499694 0.229088 0.096114
0.503466 0.234621 0.098463
0.507213 0.240104 0.100996
0.510939 0.245522 0.103713
0.514645 0.250874 0.106616
0.518333 0.256152 0.109709
0.522024 0.261675 0.113315
0.525727 0.267455 0.117528
0.529414 0.273013 0.121878
0.533087 0.278376 0.126368
0.536748 0.283552 0.130987
0.540397 0.288564 0.135741
0.544036 0.293418 0.140619
0.547665 0.298135 0.145628
0.551286 0.302723 0.150764
0.554886 0.307283 0.156210
0.558461 0.311849 0.161808
0.562092 0.315942 0.166440
0.566193 0.317258 0.165301
0.571371 0.312135 0.150313
0.578649 0.290244 0.110163
0.092973 0.158046 0.074458
0.105571 0.153016 0.076034
0.141766 0.143383 0.076360
0.187283 0.133149 0.076392
0.220157 0.125430 0.076461
0.243977 0.121270 0.077052
0.262618 0.119718 0.077823
0.277919 0.120162 0.078797
0.291235 0.121407 0.079633
0.302689 0.124304 0.080869
0.313342 0.126762 0.081657
0.322990 0.129885 0.082555
0.331843 0.133583 0.083554
0.340185 0.137152 0.084384
0.348084 0.140575 0.085062
0.355598 0.143815 0.085593
0.362760 0.146947 0.086022
0.369612 0.149977 0.086362
0.376187 0.152913 0.086626
0.382512 0.155766 0.086823
0.388613 0.158498 0.086968
0.394510 0.161108 0.087071
0.400220 0.163633 0.087146
0.405760 0.166105 0.087205
0.411143 0.168559 0.087258
0.416381 0.171029 0.087321
0.421486 0.173544 0.087403
0.426467 0.176133 0.087518
0.431333 0.178821 0.087677
0.436092 0.181630 0.087890
0.440753 0.184573 0.088167
0.445322 0.187670 0.088521
0.449806 0.190922 0.088959
0.454278 0.193504 0.089103
0.458664 0.196383 0.089389
0.462971 0.199563 0.089832
0.467206 0.203021 0.090433
0.471374 0.206733 0.091197
0.475482 0.210671 0.092127
0.479535 0.214812 0.093231
0.483537 0.219121 0.094510
0.487494 0.223577 0.095970
0.491408 0.228146 0.097612
0.495286 0.232800 0.099437
0.499129 0.237522 0.101451
0.502941 0.242283 0.103651
0.506724 0.247072 0.106045
0.510483 0.251866 0.108628
0.514219 0.256651 0.111400
0.517934 0.261417 0.114364
0.521651 0.266472 0.117868
0.525374 0.271790 0.121962
0.529081 0.276947 0.126201
0.532772 0.281950 0.130574
0.536448 0.286813 0.135084
0.540112 0.291546 0.139731
0.543780 0.296038 0.144294
0.547448 0.300356 0.148842
0.551107 0.304577 0.153498
0.554758 0.308723 0.158235
0.558369 0.312999 0.163274
0.562037 0.316824 0.167391
0.566175 0.317919 0.165801
0.571380 0.312679 0.150482
0.578658 0.290969 0.110278
0.104478 0.194008 0.075593
0.114412 0.190847 0.078211
0.138697 0.186257 0.078360
0.176957 0.178933 0.078849
0.209890 0.170803 0.079021
0.236088 0.162931 0.078935
0.257006 0.156281 0.079068
0.273947 0.151827 0.079655
0.288194 0.149472 0.080462
0.300674 0.148379 0.081203
0.311702 0.148634 0.082087
0.321635 0.149939 0.083067
0.331053 0.150677 0.083484
0.339425 0.153475 0.084593
0.347482 0.155606 0.085216
0.355184 0.157356 0.085548
0.362480 0.159200 0.085832
0.369264 0.162132 0.086504
0.375805 0.164795 0.087012
0.382120 0.167254 0.087391
0.388223 0.169560 0.087671
0.394130 0.171744 0.087870
0.399865 0.173777 0.087981
0.405430 0.175777 0.088058
0.410838 0.177779 0.088119
0.416100 0.179815 0.088181
0.421228 0.181910 0.088256
0.426231 0.184092 0.088359
0.431118 0.186384 0.088503
0.435897 0.188807 0.088699
0.440577 0.191376 0.088959
0.445163 0.194105 0.089293
0.449663 0.197001 0.089712
0.454082 0.200067 0.090225
0.458428 0.203305 0.090841
0.462706 0.206710 0.091567
0.466919 0.210274 0.092412
0.471075 0.213987 0.093383
0.475176 0.217833 0.094484
0.479228 0.221804 0.095723
0.483235 0.225880 0.097105
0.487199 0.230047 0.098633
0.491125 0.234286 0.100311
0.495016 0.238586 0.102143
0.498875 0.242931 0.104131
0.502705 0.247307 0.106279
0.506509 0.251700 0.108585
0.510288 0.256102 0.111054
0.514046 0.260500 0.113685
0.517784 0.264889 0.116480
0.521525 0.269580 0.119807
0.525272 0.274517 0.123675
0.529003 0.279319 0.127659
0.532719 0.283993 0.131755
0.536422 0.288550 0.135964
0.540112 0.292995 0.140282
0.543791 0.297338 0.144712
0.547461 0.301584 0.149247
0.551122 0.305742 0.153893
0.554772 0.309844 0.158637
0.558384 0.314063 0.163646
0.562053 0.317842 0.167740
0.566193 0.318929 0.166139
0.571398 0.313768 0.150818
0.578678 0.292419 0.110509
0.116831 0.219974 0.076953
0.126510 0.217360 0.080769
0.143924 0.215030 0.080851
0.173868 0.210864 0.081080
0.203422 0.205447 0.081734
0.228852 0.199681 0.081970
0.250379 0.193957 0.081906
0.268641 0.188599 0.081780
0.284198 0.184005 0.081863
0.297510 0.180657 0.082392
0.309224 0.178385 0.083063
0.319829 0.176773 0.083603
0.329430 0.176067 0.084274
0.338208 0.176243 0.085105
0.346543 0.176297 0.085540
0.354247 0.177209 0.086233
0.361790 0.177182 0.086196
0.368630 0.178972 0.087016
0.375277 0.180339 0.087468
0.381732 0.181351 0.087620
0.387986 0.182152 0.087579
0.394055 0.182731 0.087360
0.399739 0.184619 0.087755
0.405257 0.186552 0.088118
0.410635 0.188426 0.088406
0.415881 0.190289 0.088648
0.421001 0.192178 0.088869
0.426003 0.194124 0.089090
0.430892 0.196157 0.089328
0.435683 0.198236 0.089569
0.440375 0.200435 0.089853
0.444976 0.202783 0.090201
0.449491 0.205292 0.090628
0.453925 0.207970 0.091141
0.458285 0.210821 0.091755
0.462576 0.213841 0.092476
0.466803 0.217028 0.093313
0.470971 0.220370 0.094273
0.475084 0.223860 0.095363
0.479147 0.227483 0.096589
0.483163 0.231227 0.097957
0.487137 0.235076 0.099471
0.491072 0.239017 0.101135
0.494972 0.243032 0.102952
0.498838 0.247108 0.104926
0.502675 0.251232 0.107059
0.506485 0.255390 0.109350
0.510271 0.259573 0.111804
0.514034 0.263767 0.114421
0.517777 0.267965 0.117202
0.521525 0.272492 0.120543
0.525277 0.277240 0.124393
0.529012 0.281872 0.128359
0.532731 0.286393 0.132439
0.536437 0.290810 0.136631
0.540130 0.295130 0.140935
0.543812 0.299357 0.145346
0.547484 0.303499 0.149869
0.551148 0.307559 0.154500
0.554797 0.311595 0.159253
0.558410 0.315727 0.164218
0.562081 0.319435 0.168273
0.566222 0.320512 0.166661
0.571429 0.315475 0.151343
0.578711 0.294679 0.110868
0.129956 0.240520 0.078484
0.140337 0.238127 0.083589
0.153648 0.236790 0.083648
0.176284 0.234280 0.083781
0.201118 0.230739 0.084097
0.224474 0.226533 0.084895
0.245231 0.222157 0.085129
0.263456 0.217774 0.085141
0.279553 0.213470 0.084800
0.293683 0.209521 0.084658
0.306221 0.206026 0.084619
0.317345 0.203285 0.084946
0.327399 0.201204 0.085409
0.336648 0.199607 0.085830
0.345219 0.198475 0.086245
0.353190 0.197882 0.086753
0.360639 0.197849 0.087397
0.367944 0.197124 0.087260
0.374608 0.197845 0.087988
0.381132 0.198114 0.088205
0.387552 0.197706 0.087828
0.393463 0.198874 0.088385
0.399212 0.199980 0.088785
0.404850 0.200777 0.088888
0.410354 0.201457 0.088838
0.415725 0.202084 0.088689
0.420970 0.202675 0.088463
0.426014 0.203896 0.088563
0.430867 0.205855 0.089054
0.435628 0.207864 0.089532
0.440299 0.209953 0.090022
0.444885 0.212148 0.090544
0.449390 0.214467 0.091117
0.453820 0.216922 0.091757
0.458178 0.219523 0.092477
0.462470 0.222274 0.093292
0.466700 0.225159 0.094200
0.470876 0.228143 0.095185
0.474999 0.231271 0.096294
0.479071 0.234538 0.097534
0.483097 0.237929 0.098909
0.487080 0.241435 0.100427
0.491023 0.245042 0.102092
0.494931 0.248736 0.103907
0.498806 0.252507 0.105878
0.502650 0.256340 0.108005
0.506468 0.260220 0.110289
0.510260 0.264140 0.112736
0.514029 0.268087 0.115344
0.517778 0.272054 0.118115
0.521534 0.276377 0.121484
0.525291 0.280891 0.125318
0.529031 0.285309 0.129266
0.532755 0.289636 0.133330
0.536464 0.293875 0.137506
0.540161 0.298031 0.141791
0.543847 0.302110 0.146188
0.547522 0.306114 0.150694
0.551188 0.310051 0.155312
0.554835 0.313998 0.160074
0.558451 0.318016 0.164981
0.562124 0.321631 0.168993
0.566266 0.322695 0.167365
0.571475 0.317826 0.152056
0.578760 0.297767 0.111350
0.143786 0.257677 0.080130
0.155331 0.255407 0.086571
0.165352 0.254573 0.086605
0.182045 0.252961 0.086694
0.202177 0.250588 0.086895
0.222790 0.247593 0.087321
0.242131 0.244211 0.088226
0.259721 0.240741 0.088396
0.275543 0.237244 0.088447
0.289848 0.233766 0.088095
0.302767 0.230395 0.087664
0.314437 0.227258 0.087350
0.325017 0.224470 0.087224
0.334615 0.222217 0.087454
0.343458 0.220408 0.087797
0.351698 0.218962 0.088141
0.359449 0.217796 0.088422
0.366817 0.216762 0.088523
0.373801 0.216001 0.088638
0.380370 0.215804 0.089054
0.386782 0.215333 0.089007
0.392913 0.215162 0.089059
0.398724 0.215616 0.089483
0.404457 0.215674 0.089436
0.410116 0.215245 0.088905
0.415398 0.216168 0.089321
0.420525 0.217360 0.089836
0.425584 0.218284 0.090057
0.430550 0.219181 0.090176
0.435420 0.220101 0.090239
0.440197 0.221084 0.090283
0.444884 0.222169 0.090341
0.449493 0.223291 0.090371
0.453892 0.225655 0.091257
0.458228 0.228114 0.092182
0.462504 0.230679 0.093167
0.466723 0.233362 0.094229
0.470888 0.236165 0.095382
0.475002 0.239088 0.096638
0.479068 0.242128 0.098007
0.483090 0.245283 0.099500
0.487071 0.248543 0.101124
0.491014 0.251897 0.102884
0.494921 0.255340 0.104788
0.498798 0.258839 0.106819
0.502649 0.262375 0.108966
0.506472 0.265971 0.111267
0.510269 0.269617 0.113725
0.514044 0.273302 0.116342
0.517799 0.277017 0.119118
0.521563 0.281120 0.122543
0.525325 0.285373 0.126369
0.529069 0.289551 0.130311
0.532798 0.293655 0.134364
0.536511 0.297690 0.138529
0.540212 0.301659 0.142805
0.543901 0.305564 0.147190
0.547580 0.309408 0.151684
0.551249 0.313195 0.156283
0.554893 0.317036 0.161058
0.558512 0.320918 0.165903
0.562187 0.324421 0.169869
0.566330 0.325473 0.168229
0.571540 0.320817 0.152942
0.578829 0.301657 0.111940
0.158211 0.272522 0.081836
0.169834 0.270347 0.089607
0.176974 0.269786 0.089655
0.189501 0.268693 0.089728
0.205660 0.267048 0.089866
0.223332 0.264899 0.090132
0.240919 0.262348 0.090657
0.257465 0.259556 0.091650
0.272771 0.256721 0.091735
0.286777 0.253852 0.091798
0.299658 0.250973 0.091417
0.311523 0.248098 0.090756
0.322380 0.245365 0.090285
0.332361 0.242828 0.089944
0.341597 0.240505 0.089670
0.350083 0.238633 0.089846
0.358132 0.236808 0.089673
0.365682 0.235294 0.089644
0.372787 0.234122 0.089780
0.379481 0.233391 0.090183
0.385958 0.232625 0.090259
0.392226 0.231835 0.090090
0.398166 0.231566 0.090310
0.403927 0.231364 0.090411
0.409675 0.230508 0.089708
0.414943 0.231261 0.090457
0.420173 0.231645 0.090700
0.425339 0.231790 0.090595
0.430445 0.231637 0.090127
0.435277 0.232585 0.090552
0.439957 0.234018 0.091308
0.444586 0.235334 0.091871
0.449155 0.236619 0.092324
0.453654 0.237972 0.092763
0.458086 0.239422 0.093219
0.462452 0.240992 0.093719
0.466754 0.242698 0.094287
0.471004 0.244489 0.094881
0.475150 0.246823 0.095940
0.479198 0.249707 0.097511
0.483207 0.252675 0.099176
0.487178 0.255727 0.100947
0.491114 0.258861 0.102836
0.495017 0.262071 0.104849
0.498889 0.265350 0.106994
0.502733 0.268693 0.109277
0.506551 0.272092 0.111702
0.510345 0.275538 0.114275
0.514117 0.279025 0.117000
0.517869 0.282546 0.119877
0.521635 0.286478 0.123458
0.525395 0.290507 0.127365
0.529139 0.294465 0.131368
0.532870 0.298340 0.135431
0.536588 0.302161 0.139604
0.540291 0.305929 0.143883
0.543983 0.309647 0.148271
0.547665 0.313317 0.152765
0.551337 0.316942 0.157342
0.554977 0.320663 0.162150
0.558599 0.324394 0.166936
0.562275 0.327772 0.170857
0.566419 0.328818 0.169215
0.571630 0.324409 0.153967
0.578923 0.306280 0.112610
0.171619 0.285693 0.083557
0.182628 0.283622 0.092561
0.188001 0.283209 0.092693
0.197633 0.282434 0.092767
0.210652 0.281253 0.092871
0.225638 0.279674 0.093076
0.241268 0.277751 0.093421
0.256616 0.275557 0.094054
0.271113 0.273206 0.095114
0.284700 0.270840 0.095077
0.297299 0.268432 0.095093
0.309012 0.266015 0.094764
0.319931 0.263587 0.094108
0.330089 0.261196 0.093396
0.339535 0.258906 0.092777
0.348383 0.256695 0.092098
0.356575 0.254800 0.091912
0.364253 0.253164 0.091918
0.371533 0.251689 0.091865
0.378456 0.250395 0.091813
0.385054 0.249298 0.091797
0.391418 0.248249 0.091589
0.397522 0.247383 0.091434
0.403321 0.246969 0.091691
0.409046 0.246262 0.091355
0.414511 0.246016 0.091441
0.419778 0.246113 0.091771
0.425053 0.245648 0.091284
0.430080 0.245876 0.091468
0.434919 0.246609 0.092080
0.439713 0.247187 0.092385
0.444456 0.247635 0.092433
0.449152 0.247925 0.092214
0.453651 0.249054 0.092784
0.458003 0.250820 0.093937
0.462312 0.252582 0.095005
0.466587 0.254282 0.095933
0.470812 0.256063 0.096881
0.474988 0.257939 0.097874
0.479118 0.259928 0.098938
0.483202 0.262032 0.100089
0.487243 0.264258 0.101344
0.491245 0.266590 0.102697
0.495219 0.268967 0.104082
0.499086 0.272017 0.106331
0.502919 0.275188 0.108785
0.506728 0.278405 0.111363
0.510516 0.281661 0.114067
0.514283 0.284955 0.116906
0.518032 0.288280 0.119885
0.521801 0.292038 0.123620
0.525560 0.295838 0.127592
0.529302 0.299588 0.131667
0.533029 0.303290 0.135844
0.536741 0.306946 0.140123
0.540440 0.310558 0.144506
0.544128 0.314128 0.148993
0.547806 0.317657 0.153585
0.551472 0.321163 0.158267
0.555100 0.324787 0.163201
0.558720 0.328377 0.167989
0.562397 0.331631 0.171892
0.566540 0.332674 0.170262
0.571751 0.328546 0.155073
0.579048 0.311541 0.113313
0.183574 0.297597 0.085263
0.192323 0.296011 0.093279
0.198337 0.295302 0.095698
0.205908 0.294734 0.095762
0.216520 0.293855 0.095886
0.229201 0.292669 0.096060
0.242940 0.291199 0.096326
0.256915 0.289483 0.096755
0.270549 0.287580 0.097471
0.283482 0.285571 0.098587
0.295726 0.283565 0.098463
0.307201 0.281517 0.098393
0.317968 0.279451 0.098040
0.328090 0.277372 0.097379
0.337611 0.275293 0.096541
0.346553 0.273258 0.095722
0.354982 0.271271 0.094869
0.362898 0.269434 0.094267
0.370337 0.267809 0.093975
0.377406 0.266322 0.093700
0.384111 0.265061 0.093629
0.390556 0.263882 0.093423
0.396782 0.262744 0.093039
0.402717 0.261905 0.092975
0.408407 0.261344 0.093148
0.414077 0.260374 0.092438
0.419342 0.260386 0.093087
0.424638 0.259864 0.092722
0.429735 0.259717 0.092747
0.434623 0.260099 0.093342
0.439521 0.260065 0.093205
0.444371 0.259867 0.092726
0.448888 0.261035 0.093901
0.453391 0.261997 0.094669
0.457854 0.262906 0.095241
0.462279 0.263755 0.095619
0.466667 0.264536 0.095805
0.470922 0.265893 0.096628
0.475032 0.267977 0.098305
0.479109 0.270092 0.099964
0.483164 0.272172 0.101521
0.487190 0.274289 0.103075
0.491180 0.276484 0.104695
0.495138 0.278764 0.106399
0.499064 0.281132 0.108206
0.502961 0.283588 0.110128
0.506829 0.286129 0.112173
0.510671 0.288754 0.114355
0.514496 0.291405 0.116587
0.518288 0.294209 0.119104
0.522054 0.297843 0.123087
0.525806 0.301455 0.127196
0.529543 0.305020 0.131391
0.533265 0.308541 0.135672
0.536974 0.312021 0.140044
0.540671 0.315464 0.144507
0.544357 0.318870 0.149064
0.548033 0.322243 0.153719
0.551673 0.325723 0.158785
0.555301 0.329191 0.163739
0.558921 0.332631 0.168542
0.562593 0.335780 0.172505
0.566730 0.336845 0.170945
0.571937 0.333021 0.155805
0.579238 0.317155 0.113643
0.194383 0.308511 0.086928
0.201447 0.307275 0.094113
0.207984 0.306369 0.098628
0.214067 0.305940 0.098695
0.222823 0.305269 0.098832
0.233586 0.304361 0.098979
0.245627 0.303215 0.099235
0.258227 0.301862 0.099570
0.270859 0.300332 0.100081
0.283147 0.298666 0.100895
0.294848 0.296929 0.102048
0.306020 0.295209 0.101820
0.316575 0.293448 0.101676
0.326550 0.291668 0.101309
0.335996 0.289871 0.100632
0.344951 0.288060 0.099717
0.353438 0.286255 0.098703
0.361451 0.284520 0.097877
0.369053 0.282853 0.097095
0.376279 0.281275 0.096391
0.383142 0.279847 0.095905
0.389733 0.278475 0.095302
0.395998 0.277346 0.095082
0.402073 0.276227 0.094611
0.407837 0.275478 0.094732
0.413424 0.274843 0.094815
0.418972 0.273925 0.094100
0.424172 0.273748 0.094613
0.429432 0.273006 0.093871
0.434323 0.273284 0.094751
0.439272 0.273017 0.094490
0.444077 0.273027 0.094529
0.448670 0.273689 0.095453
0.453266 0.274078 0.095768
0.457846 0.274264 0.095621
0.462238 0.275161 0.096433
0.466509 0.276472 0.097750
0.470756 0.277736 0.098862
0.474969 0.279004 0.099860
0.479156 0.280246 0.100707
0.483317 0.281468 0.101414
0.487395 0.283032 0.102563
0.491330 0.285353 0.104855
0.495242 0.287702 0.107158
0.499135 0.290067 0.109460
0.503017 0.292400 0.111676
0.506875 0.294791 0.113973
0.510711 0.297242 0.116364
0.514526 0.299754 0.118863
0.518325 0.302365 0.121548
0.522148 0.305398 0.125008
0.525951 0.308437 0.128567
0.529735 0.311476 0.132220
0.533503 0.314509 0.135952
0.537265 0.317491 0.139659
0.540985 0.320622 0.143849
0.544665 0.323889 0.148541
0.548311 0.327244 0.153658
0.551944 0.330593 0.158877
0.555569 0.333916 0.163920
0.559185 0.337219 0.168794
0.562853 0.340257 0.172834
0.566985 0.341341 0.171337
0.572190 0.337812 0.156152
0.579502 0.323037 0.113493
0.204280 0.318627 0.088542
0.210058 0.317652 0.095016
0.217017 0.316615 0.101491
0.221999 0.316283 0.101561
0.229296 0.315765 0.101674
0.238508 0.315050 0.101863
0.249052 0.314146 0.102094
0.260361 0.313068 0.102380
0.271969 0.311829 0.102820
0.283500 0.310460 0.103417
0.294703 0.308995 0.104298
0.305410 0.307478 0.105487
0.315705 0.305991 0.105150
0.325500 0.304463 0.104877
0.334804 0.302919 0.104527
0.343672 0.301355 0.103818
0.352129 0.299771 0.102840
0.360192 0.298182 0.101738
0.367857 0.296633 0.100757
0.375195 0.295088 0.099626
0.382163 0.293657 0.098831
0.388790 0.292376 0.098370
0.395179 0.291138 0.097761
0.401337 0.289966 0.097114
0.407236 0.288980 0.096775
0.412905 0.288180 0.096682
0.418390 0.287529 0.096690
0.423790 0.286781 0.096209
0.428973 0.286350 0.096254
0.434034 0.286012 0.096270
0.438971 0.285805 0.096352
0.443853 0.285513 0.096062
0.448482 0.285930 0.096995
0.453154 0.285949 0.096941
0.457724 0.286147 0.097066
0.462082 0.287079 0.098393
0.466439 0.287848 0.099236
0.470796 0.288424 0.099563
0.475109 0.289037 0.099814
0.479186 0.290704 0.101856
0.483262 0.292252 0.103561
0.487316 0.293803 0.105157
0.491345 0.295382 0.106695
0.495357 0.296950 0.108106
0.499352 0.298517 0.109416
0.503306 0.300232 0.110925
0.507116 0.302696 0.113885
0.510912 0.305179 0.116874
0.514693 0.307690 0.119920
0.518482 0.310263 0.123066
0.522295 0.313110 0.126758
0.526091 0.315953 0.130506
0.529871 0.318794 0.134324
0.533635 0.321635 0.138213
0.537384 0.324477 0.142183
0.541120 0.327320 0.146241
0.544830 0.330228 0.150576
0.548514 0.333206 0.155240
0.552186 0.336189 0.159915
0.555852 0.339158 0.164411
0.559513 0.342118 0.168759
0.563189 0.344993 0.172747
0.567310 0.346114 0.171369
0.572511 0.342894 0.156117
0.579833 0.329205 0.112959
0.213433 0.328091 0.090098
0.218218 0.327311 0.095964
0.225481 0.326197 0.104236
0.229628 0.325936 0.104304
0.235797 0.325525 0.104428
0.243723 0.324957 0.104605
0.252990 0.324232 0.104846
0.263141 0.323358 0.105163
0.273756 0.322349 0.105555
0.284496 0.321221 0.106052
0.295113 0.319995 0.106747
0.305423 0.318698 0.107686
0.315312 0.317365 0.108897
0.324877 0.316072 0.108456
0.334026 0.314742 0.108120
0.342767 0.313391 0.107656
0.351129 0.312025 0.106962
0.359138 0.310644 0.106021
0.366805 0.309261 0.104970
0.374155 0.307881 0.103814
0.381182 0.306543 0.102787
0.387920 0.305253 0.101825
0.394414 0.303986 0.100762
0.400597 0.302898 0.100262
0.406587 0.301847 0.099614
0.412365 0.300903 0.099097
0.417934 0.300111 0.098827
0.423323 0.299465 0.098732
0.428601 0.298823 0.098380
0.433764 0.298218 0.097900
0.438681 0.298079 0.098436
0.443646 0.297553 0.097726
0.448307 0.297795 0.098712
0.453002 0.297725 0.098694
0.457580 0.297873 0.098985
0.461996 0.298467 0.100090
0.466442 0.298774 0.100334
0.470826 0.299172 0.100601
0.474998 0.300343 0.102390
0.479166 0.301428 0.103809
0.483345 0.302339 0.104680
0.487504 0.303232 0.105353
0.491526 0.304687 0.107121
0.495464 0.306473 0.109505
0.499394 0.308234 0.111729
0.503307 0.310014 0.113895
0.507203 0.311831 0.116049
0.511090 0.313636 0.118083
0.514968 0.315446 0.120040
0.518846 0.317463 0.122357
0.522629 0.320252 0.126531
0.526388 0.323072 0.130863
0.530135 0.325871 0.135218
0.533872 0.328642 0.139568
0.537612 0.331337 0.143762
0.541334 0.334062 0.148117
0.545025 0.336870 0.152824
0.548704 0.339684 0.157614
0.552373 0.342501 0.162283
0.556032 0.345326 0.166817
0.559683 0.348156 0.171228
0.563381 0.350798 0.174900
0.567536 0.351782 0.173127
0.572769 0.348759 0.157532
0.580132 0.336101 0.113276
0.221955 0.337014 0.091568
0.225979 0.336380 0.096935
0.233454 0.335226 0.106869
0.236968 0.335015 0.106960
0.242242 0.334684 0.107090
0.249125 0.334224 0.107296
0.257291 0.333637 0.107523
0.266404 0.332922 0.107851
0.276092 0.332092 0.108233
0.286055 0.331157 0.108698
0.296049 0.330131 0.109280
0.305895 0.329031 0.110037
0.315462 0.327877 0.111041
0.324664 0.326700 0.112275
0.333613 0.325571 0.111722
0.342210 0.324409 0.111325
0.350459 0.323227 0.110822
0.358381 0.322032 0.110132
0.365999 0.320822 0.109177
0.373336 0.319596 0.107966
0.380380 0.318383 0.106811
0.387151 0.317195 0.105694
0.393670 0.316035 0.104588
0.399963 0.314905 0.103467
0.405986 0.313911 0.102834
0.411822 0.312967 0.102152
0.417473 0.312101 0.101542
0.422938 0.311354 0.101141
0.428232 0.310740 0.100954
0.433396 0.310203 0.100749
0.438498 0.309590 0.100033
0.443343 0.309452 0.100600
0.448166 0.309188 0.100485
0.452836 0.309199 0.100937
0.457487 0.309092 0.100806
0.461936 0.309500 0.101878
0.466433 0.309597 0.101853
0.470760 0.310173 0.102899
0.475002 0.310955 0.104266
0.479268 0.311534 0.104885
0.483503 0.312124 0.105340
0.487530 0.313495 0.107636
