OCIO/luts/ACES_v2.0.0/ACES v2.0.0 Output Rec2100 (P3D65 4000nit Limited)_inverse.cube
TITLE "Generated by Foundry::LUT"
LUT_3D_SIZE 65
0.072906 0.072906 0.072906
0.125496 0.072294 0.073018
0.170878 0.070698 0.072906
0.205119 0.068046 0.072661
0.231624 0.064215 0.072326
0.253750 0.059134 0.071945
0.272984 0.052816 0.071555
0.290111 0.045362 0.071180
0.305606 0.036950 0.070821
0.319785 0.027801 0.070467
0.332889 0.018138 0.070094
0.345108 0.008162 0.069682
0.356605 -0.001966 0.069213
0.367512 -0.012127 0.068675
0.377948 -0.022242 0.068061
0.388010 -0.032260 0.067366
0.397779 -0.042149 0.066595
0.407324 -0.051892 0.065754
0.416703 -0.061474 0.064858
0.425963 -0.070890 0.063927
0.435143 -0.080121 0.062988
0.444278 -0.089153 0.062069
0.453395 -0.097958 0.061209
0.462514 -0.106502 0.060450
0.471655 -0.114741 0.059841
0.480831 -0.122616 0.059436
0.490056 -0.130069 0.059300
0.499333 -0.137018 0.059504
0.508674 -0.143385 0.060124
0.518076 -0.149065 0.061249
0.527548 -0.153973 0.062974
0.537089 -0.158002 0.065400
0.546696 -0.161048 0.068639
0.556376 -0.163009 0.072812
0.566123 -0.163788 0.078045
0.575939 -0.163288 0.084476
0.585825 -0.161421 0.092255
0.595776 -0.158099 0.101538
0.605801 -0.153251 0.112505
0.615895 -0.146783 0.125348
0.626064 -0.138618 0.140287
0.636311 -0.128664 0.157543
0.646639 -0.116788 0.174944
0.657056 -0.102868 0.191248
0.667570 -0.086695 0.206685
0.678185 -0.068054 0.221427
0.688924 -0.046625 0.235629
0.699789 -0.022059 0.249399
0.710810 0.006103 0.262855
0.721998 0.038370 0.276080
0.733387 0.075383 0.289166
0.745000 0.117678 0.302185
0.756880 0.165276 0.315219
0.769081 0.203272 0.328355
0.781649 0.231614 0.341662
0.794670 0.254152 0.355241
0.808233 0.272172 0.369186
0.822460 0.285615 0.383616
0.837536 0.292876 0.398694
0.853668 0.288676 0.414593
0.871209 0.249908 0.431591
0.890649 -0.126466 0.450057
0.912781 -1.295291 0.470564
0.938987 -4.278062 0.494065
0.972086 -12.755699 0.522416
0.073160 0.110898 0.073394
0.101790 0.101802 0.073703
0.148362 0.092465 0.073856
0.188995 0.087229 0.074213
0.217135 0.084341 0.074588
0.243112 0.077716 0.073541
0.264950 0.070075 0.072581
0.283944 0.061381 0.071754
0.300827 0.051744 0.071070
0.316066 0.041366 0.070504
0.329988 0.030479 0.070011
0.342845 0.019311 0.069545
0.354837 0.008047 0.069062
0.366132 -0.003177 0.068534
0.376870 -0.014269 0.067943
0.387167 -0.025171 0.067278
0.397120 -0.035856 0.066538
0.406807 -0.046302 0.065730
0.416297 -0.056512 0.064865
0.425645 -0.066479 0.063963
0.434893 -0.076196 0.063047
0.444081 -0.085654 0.062148
0.453240 -0.094835 0.061303
0.462393 -0.103709 0.060555
0.471560 -0.112236 0.059953
0.480756 -0.120369 0.059553
0.489997 -0.128045 0.059419
0.499287 -0.135192 0.059621
0.508637 -0.141733 0.060240
0.518047 -0.147573 0.061361
0.527525 -0.152615 0.063080
0.537071 -0.156763 0.065501
0.546682 -0.159920 0.068733
0.556366 -0.161976 0.072899
0.566115 -0.162840 0.078125
0.575933 -0.162410 0.084550
0.585820 -0.160609 0.092322
0.595773 -0.157352 0.101598
0.605798 -0.152549 0.112560
0.615893 -0.146134 0.125396
0.626062 -0.138008 0.140330
0.636310 -0.128086 0.157579
0.646638 -0.116239 0.174969
0.657056 -0.102339 0.191268
0.667569 -0.086198 0.206699
0.678185 -0.067568 0.221437
0.688923 -0.046160 0.235637
0.699789 -0.021619 0.249405
0.710810 0.006541 0.262860
0.721998 0.038792 0.276084
0.733387 0.075788 0.289169
0.745000 0.118109 0.302187
0.756880 0.165640 0.315221
0.769081 0.203487 0.328356
0.781649 0.231770 0.341663
0.794670 0.254278 0.355242
0.808233 0.272264 0.369187
0.822460 0.285687 0.383616
0.837536 0.292941 0.398695
0.853668 0.288773 0.414593
0.871209 0.250071 0.431591
0.890649 -0.126002 0.450057
0.912781 -1.294699 0.470564
0.938987 -4.277445 0.494065
0.972086 -12.754979 0.522416
0.072156 0.144248 0.073350
0.090420 0.136825 0.074538
0.126511 0.126573 0.074544
0.171921 0.116277 0.074775
0.206448 0.108203 0.075100
0.231836 0.102721 0.075661
0.252124 0.099326 0.076386
0.270147 0.096004 0.076671
0.289487 0.085771 0.074607
0.306819 0.074219 0.072862
0.322504 0.061672 0.071463
0.336827 0.048485 0.070363
0.350026 0.034985 0.069479
0.362301 0.021449 0.068723
0.373830 0.008069 0.068021
0.384760 -0.005026 0.067321
0.395216 -0.017756 0.066593
0.405304 -0.030086 0.065820
0.415111 -0.042003 0.065002
0.424708 -0.053504 0.064150
0.434154 -0.064596 0.063281
0.443498 -0.075274 0.062423
0.452780 -0.085537 0.061612
0.462030 -0.095371 0.060889
0.471274 -0.104747 0.060304
0.480531 -0.113630 0.059913
0.489820 -0.121976 0.059781
0.499147 -0.129707 0.059981
0.508528 -0.136771 0.060590
0.517961 -0.143071 0.061698
0.527458 -0.148524 0.063401
0.537019 -0.153040 0.065804
0.546642 -0.156515 0.069016
0.556334 -0.158858 0.073162
0.566090 -0.159971 0.078368
0.575913 -0.159774 0.084771
0.585805 -0.158171 0.092522
0.595761 -0.155086 0.101779
0.605789 -0.150444 0.112722
0.615886 -0.144163 0.125542
0.626057 -0.136165 0.140460
0.636306 -0.126346 0.157691
0.646635 -0.114600 0.175050
0.657053 -0.100775 0.191326
0.667567 -0.084694 0.206742
0.678184 -0.066140 0.221469
0.688923 -0.044774 0.235661
0.699789 -0.020262 0.249424
0.710809 0.007851 0.262874
0.721998 0.040082 0.276094
0.733387 0.077066 0.289177
0.745000 0.119335 0.302193
0.756880 0.166705 0.315226
0.769081 0.204169 0.328361
0.781649 0.232256 0.341666
0.794670 0.254639 0.355245
0.808234 0.272563 0.369190
0.822461 0.285945 0.383618
0.837536 0.293202 0.398696
0.853669 0.289027 0.414595
0.871210 0.250542 0.431592
0.890649 -0.124329 0.450058
0.912782 -1.292949 0.470566
0.938988 -4.275334 0.494066
0.972087 -12.752611 0.522418
0.070074 0.177014 0.072963
0.086487 0.170204 0.075565
0.112572 0.163250 0.075471
0.152669 0.152810 0.075548
0.192421 0.141866 0.075904
0.222162 0.132224 0.076206
0.245495 0.124598 0.076756
0.264739 0.118997 0.077499
0.281298 0.115145 0.078401
0.296162 0.112408 0.079310
0.312056 0.103893 0.077780
0.327991 0.090178 0.075086
0.342656 0.075350 0.072876
0.356224 0.059857 0.071111
0.368864 0.044095 0.069697
0.380733 0.028371 0.068528
0.391970 0.012928 0.067511
0.402698 -0.002084 0.066577
0.413026 -0.016570 0.065680
0.423045 -0.030484 0.064798
0.432829 -0.043803 0.063930
0.442445 -0.056518 0.063086
0.451945 -0.068627 0.062292
0.461368 -0.080122 0.061584
0.470750 -0.090989 0.061008
0.480117 -0.101206 0.060619
0.489493 -0.110738 0.060481
0.498890 -0.119538 0.060665
0.508326 -0.127545 0.061254
0.517802 -0.134692 0.062335
0.527334 -0.140897 0.064007
0.536922 -0.146082 0.066374
0.546566 -0.150155 0.069549
0.556275 -0.153029 0.073656
0.566044 -0.154612 0.078821
0.575878 -0.154837 0.085185
0.585778 -0.153603 0.092899
0.595740 -0.150845 0.102119
0.605773 -0.146490 0.113028
0.615874 -0.140472 0.125815
0.626048 -0.132695 0.140703
0.636299 -0.123074 0.157901
0.646630 -0.111500 0.175200
0.657049 -0.097840 0.191435
0.667564 -0.081880 0.206823
0.678182 -0.063443 0.221528
0.688921 -0.042174 0.235706
0.699787 -0.017754 0.249458
0.710809 0.010288 0.262900
0.721997 0.042477 0.276114
0.733387 0.079396 0.289192
0.745000 0.121672 0.302206
0.756880 0.168686 0.315236
0.769081 0.205421 0.328369
0.781649 0.233156 0.341673
0.794671 0.255337 0.355250
0.808234 0.273131 0.369194
0.822461 0.286433 0.383622
0.837536 0.293664 0.398700
0.853669 0.289533 0.414597
0.871210 0.251387 0.431595
0.890650 -0.121343 0.450060
0.912783 -1.289680 0.470568
0.938989 -4.271524 0.494069
0.972088 -12.747875 0.522420
0.066930 0.202836 0.072284
0.082128 0.197773 0.075169
0.104806 0.192372 0.076662
0.137106 0.186180 0.076569
0.177741 0.177929 0.076719
0.210519 0.168613 0.077195
0.236743 0.158905 0.077512
0.258333 0.149696 0.078018
0.276629 0.142231 0.078761
0.292636 0.136493 0.079671
0.307052 0.132200 0.080688
0.320335 0.129055 0.081771
0.333869 0.122644 0.081265
0.348634 0.107034 0.077808
0.362413 0.090246 0.074911
0.375322 0.072773 0.072546
0.387479 0.055046 0.070624
0.399004 0.037407 0.069040
0.410010 0.020113 0.067696
0.420598 0.003347 0.066518
0.430854 -0.012767 0.065460
0.440857 -0.028160 0.064496
0.450671 -0.042784 0.063626
0.460351 -0.056613 0.062867
0.469939 -0.069625 0.062252
0.479472 -0.081798 0.061827
0.488982 -0.093107 0.061652
0.498486 -0.103507 0.061796
0.508007 -0.112960 0.062339
0.517551 -0.121402 0.063369
0.527137 -0.128774 0.064985
0.536767 -0.135001 0.067292
0.546445 -0.140006 0.070405
0.556181 -0.143712 0.074448
0.565971 -0.146044 0.079549
0.575821 -0.146927 0.085850
0.585734 -0.146287 0.093502
0.595706 -0.144054 0.102663
0.605747 -0.140162 0.113516
0.615854 -0.134549 0.126252
0.626033 -0.127137 0.141093
0.636287 -0.117832 0.158236
0.646621 -0.106536 0.175441
0.657043 -0.093118 0.191610
0.667560 -0.077379 0.206951
0.678178 -0.059101 0.221625
0.688918 -0.037995 0.235777
0.699786 -0.013716 0.249511
0.710807 0.014231 0.262942
0.721996 0.046327 0.276147
0.733386 0.083159 0.289218
0.745000 0.125399 0.302226
0.756880 0.171767 0.315252
0.769081 0.207420 0.328382
0.781649 0.234583 0.341683
0.794671 0.256440 0.355259
0.808234 0.274026 0.369201
0.822461 0.287228 0.383628
0.837537 0.294403 0.398705
0.853670 0.290360 0.414602
0.871211 0.252746 0.431599
0.890651 -0.116529 0.450064
0.912784 -1.284325 0.470571
0.938990 -4.265604 0.494072
0.972090 -12.740721 0.522423
0.062828 0.224275 0.071377
0.076162 0.220757 0.073886
0.100795 0.214923 0.078036
0.126699 0.211121 0.077906
0.163722 0.205691 0.077827
0.198653 0.198873 0.078046
0.226883 0.191287 0.078620
0.250466 0.183336 0.078993
0.270596 0.175364 0.079451
0.288060 0.167889 0.080161
0.303570 0.161201 0.081061
0.317668 0.155397 0.082076
0.330700 0.150750 0.083230
0.342985 0.147088 0.084415
0.355220 0.141646 0.084603
0.369035 0.124201 0.080609
0.382071 0.105618 0.077221
0.394420 0.086351 0.074401
0.406167 0.066869 0.072080
0.417408 0.047529 0.070160
0.428227 0.028613 0.068556
0.438709 0.010318 0.067197
0.448927 -0.007200 0.066043
0.458940 -0.023842 0.065079
0.468804 -0.039536 0.064309
0.478563 -0.054226 0.063763
0.488255 -0.067872 0.063484
0.497907 -0.080432 0.063533
0.507548 -0.091856 0.063984
0.517188 -0.102095 0.064922
0.526851 -0.111098 0.066444
0.536542 -0.118800 0.068656
0.546269 -0.125135 0.071673
0.556044 -0.130042 0.075619
0.565864 -0.133442 0.080624
0.575738 -0.135281 0.086832
0.585669 -0.135496 0.094393
0.595657 -0.134030 0.103467
0.605709 -0.130816 0.114239
0.615825 -0.125806 0.126898
0.626010 -0.118914 0.141668
0.636270 -0.110080 0.158727
0.646609 -0.099193 0.175796
0.657033 -0.086128 0.191869
0.667552 -0.070699 0.207141
0.678173 -0.052694 0.221766
0.688914 -0.031817 0.235884
0.699783 -0.007730 0.249592
0.710805 0.020057 0.263003
0.721995 0.052012 0.276194
0.733385 0.088773 0.289255
0.744999 0.130909 0.302254
0.756880 0.176116 0.315275
0.769081 0.210237 0.328401
0.781649 0.236637 0.341699
0.794671 0.258020 0.355272
0.808235 0.275341 0.369212
0.822462 0.288370 0.383637
0.837538 0.295498 0.398713
0.853671 0.291542 0.414609
0.871212 0.254731 0.431605
0.890652 -0.109424 0.450069
0.912785 -1.276268 0.470576
0.938992 -4.256491 0.494076
0.972093 -12.730168 0.522426
0.057967 0.242855 0.070315
0.069725 0.240341 0.072481
0.094930 0.235126 0.077461
0.120118 0.231386 0.079437
0.151665 0.227770 0.079290
0.187108 0.222973 0.079235
0.216917 0.217159 0.079517
0.241965 0.210751 0.080168
0.263528 0.204024 0.080615
0.282435 0.197143 0.081037
0.299169 0.190482 0.081700
0.314232 0.184295 0.082569
0.328030 0.178739 0.083605
0.340873 0.173895 0.084773
0.353013 0.169722 0.086020
0.364638 0.166104 0.087292
0.376237 0.160786 0.087655
0.389287 0.141724 0.083339
0.401721 0.121432 0.079652
0.413615 0.100482 0.076539
0.425030 0.079400 0.073959
0.436042 0.058550 0.071831
0.446720 0.038227 0.070084
0.457128 0.018656 0.068663
0.467327 0.000009 0.067543
0.477365 -0.017580 0.066721
0.487290 -0.034018 0.066218
0.497133 -0.049217 0.066077
0.506929 -0.063121 0.066360
0.516696 -0.075660 0.067142
0.526461 -0.086781 0.068516
0.536234 -0.096422 0.070583
0.546027 -0.104526 0.073457
0.555854 -0.111033 0.077263
0.565716 -0.115890 0.082132
0.575623 -0.119036 0.088207
0.585580 -0.120424 0.095640
0.595588 -0.120005 0.104593
0.605656 -0.117716 0.115251
0.615784 -0.113535 0.127803
0.625979 -0.107385 0.142475
0.636247 -0.099204 0.159412
0.646590 -0.088883 0.176290
0.657020 -0.076316 0.192229
0.667542 -0.061319 0.207407
0.678165 -0.043695 0.221964
0.688909 -0.023144 0.236032
0.699779 0.000697 0.249705
0.710803 0.028250 0.263089
0.721993 0.060027 0.276261
0.733384 0.096614 0.289307
0.744999 0.138653 0.302296
0.756880 0.181885 0.315307
0.769082 0.214081 0.328427
0.781650 0.239435 0.341721
0.794672 0.260212 0.355289
0.808236 0.277146 0.369227
0.822464 0.289950 0.383651
0.837539 0.296997 0.398724
0.853673 0.293181 0.414618
0.871214 0.257462 0.431614
0.890654 -0.099564 0.450077
0.912788 -1.265328 0.470583
0.938995 -4.243518 0.494083
0.972097 -12.714724 0.522434
0.052587 0.259412 0.069167
0.062951 0.257585 0.071034
0.089593 0.252774 0.076876
0.116213 0.248820 0.081124
0.142872 0.246354 0.080968
0.176740 0.242980 0.080815
0.207107 0.238697 0.080792
0.233377 0.233632 0.081124
0.256083 0.228085 0.081834
0.276062 0.222261 0.082369
0.293948 0.216229 0.082765
0.310038 0.210269 0.083388
0.324688 0.204604 0.084248
0.338230 0.199350 0.085270
0.350920 0.194584 0.086424
0.362943 0.190389 0.087723
0.374485 0.186653 0.089069
0.385670 0.183296 0.090434
0.397010 0.177581 0.090454
0.409457 0.159750 0.086006
0.421413 0.137960 0.082200
0.432950 0.115420 0.078955
0.444107 0.092877 0.076273
0.454944 0.070710 0.074093
0.465516 0.049222 0.072362
0.475876 0.028661 0.071050
0.486075 0.009209 0.070148
0.496147 -0.008962 0.069677
0.506135 -0.025743 0.069677
0.516059 -0.041024 0.070208
0.525953 -0.054727 0.071353
0.535831 -0.066778 0.073206
0.545708 -0.077102 0.075877
0.555603 -0.085657 0.079488
0.565519 -0.092375 0.084168
0.575469 -0.097218 0.090062
0.585461 -0.100138 0.097322
0.595495 -0.101098 0.106112
0.605585 -0.100054 0.116615
0.615729 -0.096969 0.129024
0.625937 -0.091798 0.143564
0.636215 -0.084484 0.160328
0.646566 -0.074924 0.176954
0.657001 -0.063014 0.192715
0.667529 -0.048599 0.207766
0.678155 -0.031477 0.222231
0.688902 -0.011354 0.236233
0.699773 0.012107 0.249857
0.710799 0.039343 0.263206
0.721991 0.070877 0.276351
0.733383 0.107300 0.289378
0.744998 0.149172 0.302352
0.756880 0.189097 0.315353
0.769082 0.219018 0.328463
0.781651 0.243099 0.341750
0.794673 0.263088 0.355314
0.808237 0.279535 0.369248
0.822465 0.292052 0.383668
0.837541 0.298986 0.398739
0.853675 0.295369 0.414632
0.871217 0.260993 0.431625
0.890657 -0.085869 0.450088
0.912791 -1.250191 0.470592
0.938999 -4.226478 0.494092
0.972102 -12.694391 0.522442
0.046934 0.274468 0.067994
0.056066 0.273122 0.069611
0.080420 0.269462 0.074650
0.084747 0.270467 0.070052
0.136935 0.262680 0.082813
0.167979 0.260280 0.082626
0.198081 0.257147 0.082478
0.224859 0.253291 0.082484
0.248546 0.248807 0.082867
0.269459 0.243922 0.083630
0.288181 0.238792 0.084243
0.305200 0.233451 0.084651
0.320730 0.228087 0.085236
0.335021 0.222890 0.086063
0.348329 0.217977 0.087082
0.360856 0.213458 0.088292
0.372805 0.209291 0.089575
0.384282 0.205573 0.091003
0.395410 0.202264 0.092530
0.406339 0.198972 0.093907
0.417628 0.192156 0.093124
0.429601 0.176196 0.088727
0.441188 0.155649 0.084969
0.452450 0.131636 0.081756
0.463410 0.107811 0.079146
0.474116 0.084554 0.077098
0.484616 0.062177 0.075584
0.494949 0.040960 0.074602
0.505158 0.021088 0.074167
0.515268 0.002759 0.074322
0.525316 -0.013902 0.075131
0.535322 -0.028775 0.076680
0.545303 -0.041764 0.079068
0.555282 -0.052802 0.082413
0.565267 -0.061819 0.086841
0.575272 -0.068772 0.092495
0.585306 -0.073621 0.099528
0.595375 -0.076327 0.108102
0.605492 -0.076860 0.118404
0.615658 -0.075187 0.130627
0.625883 -0.071285 0.144994
0.636173 -0.065085 0.161516
0.646535 -0.056518 0.177819
0.656977 -0.045482 0.193350
0.667511 -0.031834 0.208237
0.678142 -0.015365 0.222582
0.688892 0.004191 0.236497
0.699767 0.027175 0.250058
0.710794 0.054022 0.263360
0.721988 0.085218 0.276470
0.733381 0.121391 0.289471
0.744997 0.162747 0.302425
0.756879 0.197776 0.315412
0.769082 0.225110 0.328511
0.781652 0.247710 0.341789
0.794675 0.266773 0.355347
0.808239 0.282592 0.369275
0.822467 0.294752 0.383691
0.837543 0.301550 0.398759
0.853677 0.298165 0.414649
0.871220 0.265427 0.431640
0.890661 -0.068080 0.450101
0.912795 -1.230447 0.470605
0.939004 -4.203516 0.494103
0.972109 -12.666027 0.522454
0.041214 0.288381 0.066845
0.049233 0.287382 0.068249
0.071237 0.284600 0.072600
0.105293 0.280204 0.080823
0.133146 0.277477 0.084801
0.160942 0.275745 0.084612
0.190201 0.273439 0.084427
0.216890 0.270535 0.084284
0.241037 0.267036 0.084329
0.262760 0.263022 0.084756
0.282265 0.258666 0.085558
0.299964 0.254094 0.086257
0.316253 0.249320 0.086696
0.331298 0.244467 0.087241
0.345267 0.239703 0.088049
0.358361 0.235144 0.089086
0.370766 0.230848 0.090289
0.382622 0.226877 0.091656
0.394064 0.223211 0.093121
0.405179 0.219891 0.094720
0.416048 0.216875 0.096419
0.426830 0.213587 0.097795
0.438165 0.205350 0.095849
0.449768 0.190988 0.091694
0.461073 0.173045 0.088142
0.472125 0.149793 0.085142
0.482939 0.124903 0.082803
0.493550 0.100844 0.081110
0.504002 0.077925 0.080065
0.514321 0.056450 0.079693
0.524546 0.036612 0.080038
0.534701 0.018608 0.081170
0.544805 0.002587 0.083177
0.554885 -0.011341 0.086170
0.564952 -0.023081 0.090269
0.575024 -0.032571 0.095613
0.585112 -0.039760 0.102354
0.595224 -0.044618 0.110653
0.605374 -0.047099 0.120698
0.615567 -0.047193 0.132683
0.625813 -0.044868 0.146831
0.636120 -0.040077 0.163019
0.646494 -0.032766 0.178917
0.656947 -0.022833 0.194161
0.667488 -0.010152 0.208838
0.678125 0.005484 0.223033
0.688879 0.024312 0.236837
0.699758 0.046669 0.250316
0.710788 0.073004 0.263558
0.721983 0.103791 0.276623
0.733378 0.139596 0.289590
0.744996 0.177715 0.302521
0.756879 0.207782 0.315488
0.769083 0.232392 0.328573
0.781653 0.253321 0.341840
0.794676 0.271265 0.355389
0.808241 0.286390 0.369311
0.822470 0.298104 0.383721
0.837546 0.304746 0.398784
0.853681 0.301644 0.414671
0.871224 0.270882 0.431660
0.890665 -0.044834 0.450119
0.912801 -1.204705 0.470621
0.939011 -4.174016 0.494119
0.972118 -12.631126 0.522469
0.035589 0.301412 0.065758
0.042610 0.300666 0.066981
0.062269 0.298558 0.070737
0.094010 0.295097 0.077869
-0.124262 0.321595 0.037412
0.155631 0.289923 0.086771
0.183612 0.288212 0.086582
0.209778 0.286022 0.086383
0.233932 0.283327 0.086258
0.256068 0.280136 0.086337
0.276254 0.276513 0.086806
0.294625 0.272595 0.087647
0.311486 0.268483 0.088419
0.327157 0.264184 0.088900
0.341771 0.259785 0.089450
0.355458 0.255416 0.090238
0.368365 0.251191 0.091289
0.380651 0.247163 0.092527
0.392446 0.243371 0.093923
0.403858 0.239829 0.095449
0.414966 0.236566 0.097124
0.425858 0.233514 0.098877
0.436576 0.230708 0.100772
0.447273 0.227435 0.102204
0.458676 0.217748 0.098876
0.469986 0.204899 0.095178
0.481084 0.189111 0.091985
0.491976 0.169447 0.089408
0.502682 0.145093 0.087582
0.513224 0.120592 0.086520
0.523643 0.097558 0.086256
0.533964 0.076284 0.086844
0.544208 0.056992 0.088359
0.554406 0.039849 0.090898
0.564570 0.025014 0.094577
0.574721 0.012592 0.099530
0.584873 0.002650 0.105905
0.595037 -0.004755 0.113861
0.605228 -0.009591 0.123585
0.615454 -0.011821 0.135273
0.625726 -0.011435 0.149148
0.636053 -0.008392 0.164878
0.646443 -0.002627 0.180286
0.656908 0.005929 0.195174
0.667459 0.017407 0.209593
0.678103 0.031980 0.223600
0.688864 0.049902 0.237266
0.699746 0.071488 0.250643
0.710780 0.097183 0.263810
0.721978 0.127414 0.276818
0.733375 0.162506 0.289744
0.744994 0.193529 0.302641
0.756879 0.218998 0.315584
0.769084 0.240840 0.328651
0.781654 0.259938 0.341904
0.794679 0.276694 0.355442
0.808244 0.290999 0.369355
0.822473 0.302197 0.383759
0.837551 0.308665 0.398817
0.853685 0.305882 0.414699
0.871229 0.277348 0.431685
0.890671 -0.015410 0.450141
0.912808 -1.172141 0.470642
0.939020 -4.136435 0.494138
0.972130 -12.585981 0.522488
0.030172 0.313756 0.064766
0.036311 0.313198 0.065836
0.053734 0.311602 0.069085
0.082995 0.308884 0.075316
0.122054 0.305214 0.085113
0.146964 0.303872 0.086280
0.178327 0.301900 0.088900
0.203663 0.300236 0.088711
0.227488 0.298164 0.088515
0.249686 0.295662 0.088409
0.270244 0.292739 0.088529
0.289196 0.289450 0.089035
0.306640 0.285902 0.089912
0.322804 0.282180 0.090754
0.337948 0.278288 0.091297
0.352191 0.274286 0.091856
0.365624 0.270280 0.092647
0.378371 0.266360 0.093690
0.390559 0.262586 0.094949
0.402295 0.259009 0.096413
0.413681 0.255626 0.098014
0.424792 0.252461 0.099770
0.435699 0.249482 0.101641
0.446437 0.246737 0.103709
0.457103 0.243906 0.105645
0.467865 0.239862 0.106435
0.479196 0.229777 0.102520
0.490275 0.218465 0.099545
0.501224 0.204515 0.096851
0.511994 0.188059 0.094958
0.522617 0.168423 0.093942
0.533116 0.145030 0.093853
0.543514 0.122383 0.094755
0.553843 0.101842 0.096733
0.564116 0.083649 0.099895
0.574358 0.067944 0.104365
0.584585 0.054871 0.110289
0.594810 0.044519 0.117826
0.605051 0.036936 0.127158
0.615316 0.032164 0.138482
0.625618 0.030237 0.152021
0.635970 0.031190 0.167131
0.646380 0.035066 0.181958
0.656860 0.041948 0.196420
0.667423 0.051939 0.210527
0.678076 0.065214 0.224303
0.688844 0.082029 0.237799
0.699732 0.102658 0.251051
0.710770 0.127525 0.264123
0.721972 0.157112 0.277062
0.733371 0.185643 0.289934
0.744992 0.209892 0.302793
0.756879 0.231205 0.315706
0.769085 0.250336 0.328750
0.781656 0.267585 0.341985
0.794681 0.283028 0.355509
0.808248 0.296428 0.369411
0.822478 0.307074 0.383806
0.837556 0.313318 0.398858
0.853691 0.310925 0.414736
0.871236 0.284770 0.431717
0.890679 0.021865 0.450169
0.912817 -1.130645 0.470667
0.939031 -4.089072 0.494162
0.972144 -12.528945 0.522512
0.025043 0.325569 0.063900
0.030413 0.325148 0.064839
0.045863 0.323932 0.067684
0.072444 0.321818 0.073114
0.109252 0.318865 0.081712
0.331312 -0.391485 0.431439
0.174377 0.314787 0.091436
0.198577 0.313525 0.091218
0.221835 0.311924 0.091026
0.243829 0.309969 0.090841
0.264480 0.307645 0.090760
0.283768 0.304961 0.090919
0.301715 0.301961 0.091469
0.318388 0.298734 0.092388
0.333966 0.295348 0.093295
0.348662 0.291812 0.093911
0.362581 0.288159 0.094485
0.375790 0.284485 0.095295
0.388391 0.280862 0.096363
0.400490 0.277345 0.097663
0.412182 0.273971 0.099164
0.423551 0.270762 0.100848
0.434670 0.267715 0.102684
0.445588 0.264857 0.104717
0.456366 0.262128 0.106871
0.467030 0.259544 0.109211
0.477680 0.256661 0.111238
0.488639 0.250813 0.110209
0.499742 0.241788 0.107201
0.510657 0.231815 0.105085
0.521483 0.219693 0.103209
0.532166 0.206071 0.102324
0.542726 0.190758 0.102494
0.553196 0.173491 0.103799
0.563590 0.153957 0.106339
0.573934 0.134749 0.110231
0.584246 0.118242 0.115617
0.594540 0.104577 0.122650
0.604838 0.093860 0.131513
0.615149 0.086162 0.142401
0.625489 0.081530 0.155536
0.635870 0.080011 0.169810
0.646303 0.081646 0.183965
0.656802 0.086520 0.197927
0.667379 0.094732 0.211663
0.678044 0.106440 0.225163
0.688820 0.121880 0.238454
0.699715 0.141357 0.251552
0.710758 0.164693 0.264510
0.721964 0.187031 0.277363
0.733366 0.207541 0.290171
0.744990 0.226538 0.302981
0.756878 0.244247 0.315856
0.769086 0.260795 0.328872
0.781659 0.276191 0.342085
0.794685 0.290277 0.355592
0.808252 0.302723 0.369481
0.822483 0.312771 0.383866
0.837562 0.318776 0.398909
0.853698 0.316771 0.414780
0.871244 0.293209 0.431756
0.890688 0.068125 0.450204
0.912828 -1.079340 0.470700
0.939044 -4.030126 0.494192
0.972161 -12.458731 0.522542
0.020264 0.336966 0.063189
0.024964 0.336648 0.064017
0.038635 0.335720 0.066519
0.062562 0.334084 0.071257
0.096761 0.331732 0.078803
0.139876 0.328758 0.089602
-0.026578 0.344037 0.042806
0.194582 0.326120 0.093970
0.217029 0.324885 0.093756
0.238620 0.323355 0.093562
0.259147 0.321517 0.093391
0.278543 0.319358 0.093337
0.296794 0.316887 0.093542
0.313906 0.314143 0.094135
0.329933 0.311197 0.095095
0.345016 0.308107 0.096062
0.359325 0.304883 0.096764
0.372959 0.301547 0.097386
0.385977 0.298167 0.098191
0.398450 0.294818 0.099287
0.410466 0.291555 0.100661
0.422120 0.288387 0.102213
0.433478 0.285353 0.103983
0.444605 0.282444 0.105914
0.455546 0.279691 0.108072
0.466352 0.277044 0.110379
0.477053 0.274521 0.112915
0.487698 0.271945 0.115453
0.498335 0.269064 0.117763
