OCIO/luts/ACES_v2.0.0/ACES v2.0.0 Output P3D65 (Rec709 sim).cube
TITLE "Generated by Foundry::LUT"
LUT_3D_SIZE 9
0.000000 0.000000 0.000000
0.019613 0.005707 0.004862
0.079129 0.023023 0.019668
0.263963 0.076801 0.066081
0.638338 0.185727 0.159231
0.931437 0.381708 0.318482
0.945692 0.599260 0.531566
0.973942 0.841622 0.809096
0.998655 0.992642 0.991265
0.011959 0.022951 0.012459
0.031569 0.031404 0.012424
0.091563 0.050078 0.024596
0.273503 0.092761 0.063217
0.643600 0.187259 0.151803
0.931548 0.384206 0.318216
0.945739 0.599787 0.531797
0.973962 0.841759 0.809231
0.998656 0.992644 0.991266
0.047445 0.091050 0.049400
0.052419 0.100597 0.037124
0.119114 0.118504 0.046881
0.290334 0.164513 0.079288
0.649631 0.227236 0.151086
0.931988 0.393908 0.317075
0.945924 0.601874 0.532709
0.974042 0.842305 0.809770
0.998657 0.992650 0.991272
0.147706 0.283462 0.153658
0.149913 0.287696 0.147364
0.161356 0.301188 0.111290
0.329100 0.327459 0.129542
0.650308 0.368937 0.177698
0.934573 0.444532 0.324271
0.946744 0.610966 0.536688
0.974424 0.844927 0.812431
0.998662 0.992677 0.991300
0.314214 0.603004 0.325625
0.314850 0.604225 0.322642
0.317131 0.608603 0.308489
0.336752 0.626408 0.231497
0.639012 0.635947 0.251570
0.946078 0.603592 0.355950
0.951335 0.658541 0.567091
0.976155 0.856656 0.824569
0.998683 0.992796 0.991425
0.463715 0.889911 0.473006
0.463932 0.890327 0.472046
0.464872 0.892130 0.468003
0.469204 0.900444 0.447735
0.501134 0.934167 0.345199
0.902737 0.898805 0.355520
0.969622 0.811133 0.689352
0.982752 0.899443 0.870445
0.998777 0.993309 0.991959
0.730695 0.991282 0.712601
0.730879 0.991287 0.712607
0.731607 0.991305 0.712627
0.734820 0.991385 0.712701
0.748900 0.991742 0.712771
0.807917 0.993357 0.713358
1.000000 1.000000 0.641583
0.993861 0.965805 0.944364
0.999036 0.995039 0.993778
0.955736 0.998274 0.948148
0.955745 0.998274 0.948151
0.955775 0.998275 0.948162
0.955918 0.998281 0.948216
0.956568 0.998305 0.948467
0.959356 0.998411 0.949489
0.970083 0.998820 0.953195
0.999411 0.999976 0.948572
0.999596 0.998311 0.997379
0.999133 0.999931 0.998943
0.999133 0.999931 0.998943
0.999133 0.999931 0.998943
0.999135 0.999931 0.998946
0.999145 0.999932 0.998957
0.999194 0.999934 0.999006
0.999397 0.999943 0.999227
1.000000 1.000000 1.000000
1.000000 1.000000 1.000000
0.002431 0.004665 0.011444
0.024791 0.007213 0.022567
0.083264 0.024226 0.046760
0.265689 0.077304 0.104187
0.637612 0.185517 0.192093
0.931396 0.380777 0.329411
0.945857 0.601121 0.535463
0.974049 0.842353 0.810147
0.998656 0.992647 0.991271
0.014044 0.026952 0.026488
0.034101 0.034101 0.034101
0.105296 0.037388 0.045879
0.280429 0.082914 0.097563
0.642702 0.186997 0.186276
0.931519 0.383553 0.329340
0.945904 0.601651 0.535698
0.974069 0.842491 0.810283
0.998656 0.992648 0.991273
0.048596 0.093261 0.067477
0.053891 0.102732 0.065606
0.122834 0.120576 0.053498
0.308704 0.145357 0.082294
0.661661 0.197743 0.160062
0.932082 0.395935 0.330453
0.946092 0.603756 0.536629
0.974148 0.843036 0.810820
0.998658 0.992655 0.991279
0.147484 0.283036 0.170947
0.150108 0.288071 0.167117
0.158774 0.303522 0.135366
0.329831 0.326650 0.129345
0.659630 0.358903 0.176775
0.934513 0.443455 0.333746
0.946911 0.612797 0.540556
0.974515 0.845551 0.813340
0.998662 0.992681 0.991307
0.313988 0.602572 0.335471
0.314631 0.603805 0.332725
0.316919 0.608196 0.320172
0.327084 0.627703 0.231646
0.638739 0.634956 0.251235
0.946091 0.603735 0.364370
0.951453 0.659702 0.569982
0.976240 0.857222 0.825406
0.998684 0.992801 0.991431
0.463683 0.889850 0.476572
0.463901 0.890267 0.475621
0.464906 0.892197 0.472119
0.469233 0.900499 0.452297
0.498340 0.935334 0.345520
0.903012 0.898878 0.355565
0.969721 0.811845 0.691356
0.982813 0.899824 0.871036
0.998777 0.993312 0.991965
0.731405 0.991300 0.713778
0.731588 0.991304 0.713783
0.732316 0.991322 0.713805
0.735524 0.991402 0.713884
0.749577 0.991759 0.713976
0.808289 0.993368 0.714388
1.000000 1.000000 0.642467
0.993870 0.965854 0.944479
0.999037 0.995041 0.993782
0.955765 0.998275 0.948200
0.955773 0.998275 0.948202
0.955803 0.998276 0.948213
0.955944 0.998282 0.948266
0.956594 0.998306 0.948518
0.959380 0.998411 0.949536
0.970096 0.998821 0.953231
0.999413 0.999976 0.948579
0.999595 0.998311 0.997379
0.999133 0.999931 0.998943
0.999133 0.999931 0.998943
0.999133 0.999931 0.998944
0.999135 0.999931 0.998945
0.999146 0.999932 0.998957
0.999194 0.999934 0.999007
0.999397 0.999943 0.999227
1.000000 1.000000 1.000000
1.000000 1.000000 1.000000
0.010011 0.019211 0.046690
0.035924 0.010452 0.062923
0.097696 0.028425 0.088925
0.273723 0.079641 0.157759
0.637022 0.185345 0.254349
0.931283 0.378199 0.361268
0.945966 0.602340 0.543430
0.974473 0.845258 0.814288
0.998659 0.992664 0.991298
0.021574 0.041402 0.059615
0.030106 0.035049 0.087184
0.112496 0.039894 0.104313
0.286900 0.084933 0.158662
0.642018 0.186798 0.250533
0.931408 0.381044 0.361194
0.946046 0.603241 0.544064
0.974491 0.845387 0.814415
0.998660 0.992666 0.991300
0.054183 0.103982 0.102189
0.058141 0.111088 0.109360
0.125086 0.125086 0.125086
0.329587 0.119971 0.146165
0.660544 0.198768 0.233884
0.931977 0.393679 0.362182
0.946370 0.606840 0.546611
0.974566 0.845898 0.814913
0.998661 0.992672 0.991306
0.148383 0.284761 0.208945
0.150710 0.289227 0.207992
0.161266 0.305848 0.196825
0.332064 0.326100 0.152777
0.686926 0.328068 0.196565
0.934513 0.443456 0.366256
0.947566 0.619893 0.554973
0.974912 0.848253 0.817231
0.998666 0.992698 0.991333
0.313319 0.601287 0.365008
0.313951 0.602500 0.362791
0.316209 0.606833 0.353100
0.330556 0.625437 0.286058
0.637866 0.631970 0.259050
0.946158 0.604487 0.392382
0.951933 0.664371 0.581079
0.976593 0.859585 0.828845
0.998687 0.992818 0.991457
0.463606 0.889700 0.489789
0.463862 0.890194 0.489020
0.464875 0.892137 0.485813
0.469338 0.900701 0.469003
0.489661 0.939704 0.346786
0.903968 0.899115 0.355715
0.970107 0.814632 0.699064
0.983050 0.901304 0.873331
0.998780 0.993326 0.991988
0.734159 0.991368 0.718343
0.734345 0.991373 0.718354
0.735070 0.991391 0.718382
0.738253 0.991471 0.718478
0.752199 0.991827 0.718645
0.809754 0.993410 0.718419
1.000000 1.000000 0.645919
0.993903 0.966043 0.944927
0.999037 0.995049 0.993795
0.955878 0.998279 0.948405
0.955884 0.998279 0.948408
0.955915 0.998281 0.948419
0.956054 0.998286 0.948469
0.956699 0.998310 0.948716
0.959476 0.998415 0.949728
0.970146 0.998823 0.953376
0.999422 0.999977 0.948616
0.999596 0.998312 0.997382
0.999133 0.999931 0.998944
0.999133 0.999931 0.998944
0.999134 0.999931 0.998944
0.999135 0.999931 0.998946
0.999147 0.999932 0.998958
0.999194 0.999934 0.999007
0.999398 0.999943 0.999228
1.000000 1.000000 1.000000
1.000000 1.000000 1.000000
0.035817 0.068736 0.165715
0.017270 0.005025 0.197003
0.129169 0.037582 0.216401
0.301519 0.087728 0.274439
0.640861 0.186462 0.369153
0.931083 0.373534 0.437504
0.945929 0.601925 0.564967
0.976214 0.857047 0.830817
0.998673 0.992740 0.991413
0.046279 0.088813 0.173834
0.039040 0.074922 0.200442
0.129580 0.042344 0.236430
0.309043 0.091321 0.282623
0.645143 0.187708 0.368534
0.931209 0.376473 0.437535
0.946012 0.602854 0.565589
0.976233 0.857176 0.830943
0.998673 0.992741 0.991415
0.075687 0.145250 0.204464
0.076285 0.146398 0.218972
0.099451 0.114487 0.293508
0.333164 0.122846 0.309379
0.661266 0.199268 0.365012
0.931782 0.389428 0.438686
0.946344 0.606556 0.568083
0.976308 0.857680 0.831435
0.998674 0.992747 0.991421
0.157424 0.302112 0.296892
0.158946 0.305031 0.299877
0.165870 0.315307 0.310452
0.327888 0.327889 0.327888
0.702849 0.305232 0.343142
0.934470 0.442688 0.445418
0.947848 0.622907 0.579410
0.976639 0.859891 0.833596
0.998679 0.992774 0.991448
0.312831 0.600351 0.439980
0.313395 0.601433 0.438937
0.315408 0.605297 0.434157
0.334139 0.621363 0.403102
0.634077 0.626219 0.353685
0.946645 0.609886 0.473331
0.953973 0.683702 0.622349
0.978056 0.869282 0.842795
0.998700 0.992890 0.991569
0.463373 0.889254 0.534392
0.463622 0.889733 0.533778
0.464619 0.891646 0.531316
0.469073 0.900194 0.519695
0.504909 0.936942 0.434556
0.905808 0.899081 0.396021
0.971660 0.825709 0.728221
0.984037 0.907453 0.882736
0.998791 0.993388 0.992085
0.738211 0.991470 0.730090
0.738537 0.991478 0.730234
0.739837 0.991511 0.730808
0.745549 0.991656 0.733353
0.762551 0.992099 0.737098
0.815745 0.993586 0.734712
1.000000 1.000000 0.659995
0.994041 0.966833 0.946788
0.999038 0.995082 0.993854
0.956351 0.998297 0.949281
0.956358 0.998297 0.949283
0.956391 0.998298 0.949296
0.956530 0.998304 0.949347
0.957155 0.998327 0.949574
0.959890 0.998431 0.950555
0.970361 0.998831 0.954001
0.999447 0.999978 0.948840
0.999596 0.998316 0.997395
0.999135 0.999931 0.998946
0.999134 0.999931 0.998947
0.999135 0.999931 0.998947
0.999137 0.999932 0.998950
0.999148 0.999932 0.998961
0.999195 0.999934 0.999011
0.999399 0.999943 0.999230
1.000000 1.000000 1.000000
1.000000 1.000000 1.000000
0.102740 0.197167 0.472496
0.095559 0.183386 0.487913
0.084619 0.024622 0.549003
0.337484 0.098193 0.565637
0.658508 0.191596 0.599191
0.931188 0.376003 0.586990
0.946090 0.603731 0.619820
0.977077 0.862814 0.845202
0.998729 0.993045 0.991874
0.109350 0.209853 0.474390
0.103711 0.199032 0.488897
0.000000 0.000599 0.559660
0.336547 0.097920 0.574115
0.660569 0.192196 0.601734
0.931319 0.379027 0.587277
0.946177 0.604702 0.620410
0.977114 0.863059 0.845455
0.998729 0.993046 0.991875
0.130421 0.250290 0.481808
0.127732 0.245129 0.493645
0.110809 0.205079 0.547209
0.329953 0.115039 0.605878
0.668018 0.200207 0.611083
0.931902 0.392041 0.588961
0.946526 0.608575 0.622780
0.977262 0.864040 0.846465
0.998730 0.993052 0.991880
0.190384 0.365365 0.514070
0.190231 0.365070 0.519804
0.188601 0.361942 0.543897
0.283890 0.314771 0.648518
0.685197 0.301485 0.636442
0.934620 0.445375 0.597373
0.948109 0.625679 0.633531
0.977910 0.868325 0.850888
0.998734 0.993076 0.991905
0.318873 0.611946 0.601304
0.319186 0.612547 0.601949
0.320219 0.614529 0.604124
0.334102 0.622043 0.612545
0.618112 0.618112 0.618112
0.948109 0.625687 0.639693
0.955759 0.699985 0.685499
0.980662 0.886193 0.869510
0.998754 0.993183 0.992014
0.462897 0.888341 0.648333
0.463110 0.888750 0.648081
0.463957 0.890375 0.647058
0.467692 0.897543 0.642148
0.531415 0.923743 0.617558
0.883282 0.879772 0.650616
0.976458 0.858682 0.806018
0.987208 0.926829 0.911477
0.998835 0.993643 0.992483
0.745543 0.991656 0.764314
0.745895 0.991665 0.764468
0.747296 0.991701 0.765084
0.753415 0.991859 0.767792
0.779027 0.992542 0.779443
0.838392 0.994267 0.790704
0.999847 0.999994 0.706581
0.994552 0.969734 0.953465
0.999046 0.995220 0.994097
0.958106 0.998363 0.952632
0.958118 0.998364 0.952640
0.958169 0.998366 0.952673
0.958386 0.998374 0.952816
0.958978 0.998396 0.953021
0.961535 0.998493 0.953863
0.971231 0.998864 0.956551
0.999462 0.999978 0.950440
0.999597 0.998334 0.997450
0.999141 0.999932 0.998962
0.999141 0.999932 0.998962
0.999143 0.999932 0.998962
0.999144 0.999932 0.998965
0.999155 0.999933 0.998975
0.999203 0.999935 0.999025
0.999405 0.999944 0.999243
1.000000 1.000000 1.000000
1.000000 1.000000 1.000000
0.196939 0.377944 0.919429
0.194189 0.372667 0.926163
0.181407 0.348135 0.954639
0.303749 0.309875 0.966302
0.614318 0.302418 0.967934
0.933344 0.421643 0.868901
0.948190 0.626543 0.731649
0.978656 0.873216 0.873507
0.998819 0.993683 0.992914
0.199554 0.382963 0.918082
0.196952 0.377970 0.924645
0.184838 0.354720 0.952522
0.302835 0.316003 0.966372
0.613645 0.308665 0.967999
0.933485 0.424371 0.869205
0.948282 0.627516 0.732136
0.978693 0.873458 0.873727
0.998819 0.993684 0.992916
0.209146 0.401370 0.914021
0.207046 0.397340 0.919616
0.197285 0.378608 0.944842
0.300973 0.340337 0.966676
0.611367 0.333785 0.968287
0.934051 0.435039 0.870422
0.948652 0.631399 0.734095
0.978839 0.874410 0.874595
0.998820 0.993691 0.992923
0.242594 0.465559 0.902536
0.241442 0.463349 0.906969
0.236703 0.454255 0.925429
0.302776 0.427281 0.968102
0.603485 0.418477 0.969557
0.936604 0.478766 0.875822
0.950332 0.648591 0.742955
0.979478 0.878565 0.878393
0.998824 0.993719 0.992952
0.327865 0.629202 0.886867
0.327750 0.628982 0.888808
0.327442 0.628391 0.896968
0.325483 0.624630 0.936446
0.590899 0.626936 0.945995
0.948217 0.626823 0.894419
0.958404 0.723131 0.784806
0.982151 0.895661 0.894162
0.998835 0.993851 0.993085
0.461576 0.885805 0.870166
0.461678 0.886001 0.870380
0.462082 0.886776 0.871228
0.463789 0.890054 0.874845
0.519060 0.899007 0.885760
0.861095 0.861095 0.861095
0.980754 0.886778 0.888183
0.989716 0.941779 0.937699
0.998891 0.994385 0.993631
0.759565 0.992020 0.844404
0.759867 0.992028 0.844490
0.761062 0.992059 0.844831
0.766298 0.992198 0.846332
0.788266 0.992798 0.852711
0.857498 0.994864 0.871374
0.978576 0.978557 0.876810
0.995745 0.976464 0.968211
0.999069 0.995694 0.994900
0.959461 0.998414 0.958772
0.959472 0.998415 0.958779
0.959522 0.998417 0.958810
0.959741 0.998425 0.958942
0.960726 0.998462 0.959540
0.964766 0.998616 0.961971
0.974026 0.998973 0.964715
0.999531 0.999981 0.955665
0.999601 0.998408 0.997663
0.999170 0.999935 0.999024
0.999171 0.999935 0.999024
0.999172 0.999935 0.999025
0.999174 0.999935 0.999027
0.999184 0.999935 0.999037
0.999231 0.999938 0.999085
0.999430 0.999947 0.999295
1.000000 1.000000 1.000000
1.000000 1.000000 1.000000
0.558096 0.649589 0.975590
0.558807 0.649592 0.975595
0.561632 0.649614 0.975617
0.572839 0.648917 0.975675
0.619247 0.646268 0.975954
0.786752 0.671586 0.978691
0.960248 0.738647 0.926278
0.983706 0.905397 0.927166
0.998873 0.994164 0.994079
0.558598 0.650342 0.975622
0.559306 0.650346 0.975627
0.562127 0.650370 0.975649
0.573373 0.649728 0.975709
0.619596 0.647017 0.975984
0.786935 0.672355 0.978723
0.960324 0.739274 0.926434
0.983732 0.905564 0.927284
0.998873 0.994166 0.994080
0.559999 0.652892 0.975728
0.560939 0.653071 0.975741
0.564105 0.653373 0.975776
0.575528 0.652962 0.975847
0.621001 0.649998 0.976108
0.787672 0.675411 0.978853
0.960626 0.741769 0.927053
0.983839 0.906228 0.927751
0.998874 0.994172 0.994085
0.565952 0.663778 0.976187
0.566880 0.663960 0.976201
0.570590 0.664709 0.976258
0.584894 0.666804 0.976450
0.628539 0.664060 0.976708
0.791050 0.688738 0.979431
0.961960 0.752641 0.929769
0.984304 0.909105 0.929777
0.998877 0.994199 0.994110
0.592564 0.708217 0.978200
0.593434 0.708401 0.978215
0.596906 0.709146 0.978275
0.611996 0.712569 0.978547
0.667129 0.724146 0.979550
0.807580 0.743281 0.982005
0.967655 0.796697 0.941056
0.986201 0.920737 0.938021
0.998890 0.994317 0.994219
0.685237 0.836115 0.985277
0.685858 0.836235 0.985290
0.688335 0.836721 0.985341
0.699151 0.838898 0.985572
0.743696 0.848902 0.986613
0.861111 0.876787 0.989726
0.981982 0.894592 0.967659
0.991481 0.952108 0.960664
0.998945 0.994805 0.994668
0.758441 0.991990 0.982997
0.758626 0.991995 0.983006
0.759354 0.992014 0.983044
0.762554 0.992099 0.983207
0.776261 0.992467 0.983891
0.826517 0.993043 0.984987
0.966004 0.966004 0.966004
0.996352 0.979867 0.979909
0.999142 0.996334 0.996085
0.961442 0.998490 0.972487
0.961452 0.998490 0.972491
0.961493 0.998492 0.972507
0.961670 0.998498 0.972575
0.962463 0.998528 0.972880
0.965769 0.998655 0.974125
0.975869 0.999044 0.977124
0.996914 0.997126 0.977637
0.999617 0.998646 0.998247
0.999273 0.999945 0.999229
0.999272 0.999945 0.999228
0.999274 0.999945 0.999229
0.999276 0.999945 0.999231
0.999286 0.999946 0.999241
0.999333 0.999948 0.999284
0.999530 0.999958 0.999476
1.000000 1.000000 1.000000
1.000000 1.000000 1.000000
0.836817 0.871789 0.989093
0.836989 0.871886 0.989101
0.837673 0.872272 0.989133
0.840672 0.873968 0.989273
0.849415 0.878022 0.989634
0.872853 0.885403 0.990408
0.942434 0.915257 0.993319
0.992866 0.960108 0.985361
0.999076 0.995618 0.996369
0.836916 0.871892 0.989100
0.837087 0.871988 0.989108
0.837770 0.872374 0.989140
0.840769 0.874071 0.989281
0.849566 0.878169 0.989645
0.872968 0.885532 0.990417
0.942476 0.915344 0.993325
0.992870 0.960135 0.985371
0.999076 0.995619 0.996370
0.837309 0.872301 0.989129
0.837480 0.872398 0.989137
0.838163 0.872782 0.989169
0.841156 0.874475 0.989310
0.850166 0.878752 0.989687
0.873426 0.886048 0.990455
0.942641 0.915689 0.993349
0.992889 0.960245 0.985409
0.999076 0.995623 0.996373
0.839065 0.874118 0.989260
0.839232 0.874212 0.989268
0.839895 0.874582 0.989299
0.842850 0.876249 0.989438
0.852695 0.881221 0.989869
0.875545 0.888398 0.990627
0.943368 0.917197 0.993456
0.992973 0.960726 0.985578
0.999078 0.995641 0.996386
0.846719 0.881971 0.989830
0.846874 0.882057 0.989838
0.847499 0.882401 0.989867
0.850268 0.883935 0.989997
0.862151 0.890614 0.990567
0.884690 0.898419 0.991370
0.946440 0.923532 0.993908
0.993333 0.962786 0.986301
0.999088 0.995717 0.996443
0.875002 0.910136 0.991951
0.875117 0.910195 0.991956
0.875581 0.910430 0.991978
0.877639 0.911482 0.992074
0.886461 0.916024 0.992489
0.914627 0.930295 0.993829
0.956611 0.944025 0.995404
0.994594 0.969968 0.988855
0.999133 0.996039 0.996686
0.929922 0.962503 0.996200
0.929963 0.962515 0.996201
0.930124 0.962567 0.996207
0.930831 0.962795 0.996234
0.933935 0.963805 0.996353
0.945781 0.967706 0.996811
0.971264 0.974750 0.997722
0.996847 0.982634 0.993488
0.999298 0.997121 0.997510
0.962726 0.998538 0.996694
0.962731 0.998539 0.996695
0.962752 0.998539 0.996697
0.962846 0.998543 0.996705
0.963267 0.998559 0.996745
0.965079 0.998628 0.996915
0.971601 0.998879 0.997361
0.994738 0.994739 0.994738
0.999652 0.998986 0.998982
0.999675 0.999976 0.999756
0.999675 0.999976 0.999756
0.999676 0.999976 0.999757
0.999679 0.999976 0.999758
0.999688 0.999977 0.999765
0.999730 0.999979 0.999795
0.999909 0.999992 0.999928
1.000000 1.000000 1.000000
1.000000 1.000000 1.000000
0.981189 0.985426 0.998636
0.981193 0.985427 0.998636
0.981209 0.985435 0.998637
0.981276 0.985471 0.998641
0.981580 0.985632 0.998657
0.982877 0.986326 0.998728
0.986043 0.987611 0.998874
0.994094 0.991454 0.999287
0.999667 0.998740 0.999363
0.981192 0.985428 0.998636
0.981196 0.985430 0.998636
0.981211 0.985438 0.998637
0.981278 0.985474 0.998641
0.981582 0.985635 0.998657
0.982879 0.986328 0.998729
0.986046 0.987614 0.998874
0.994094 0.991455 0.999287
0.999667 0.998740 0.999363
0.981202 0.985438 0.998637
0.981206 0.985440 0.998637
0.981221 0.985448 0.998638
0.981289 0.985484 0.998642
0.981592 0.985645 0.998658
0.982889 0.986338 0.998729
0.986054 0.987625 0.998875
0.994096 0.991461 0.999287
0.999667 0.998741 0.999363
0.981247 0.985484 0.998641
0.981251 0.985486 0.998641
0.981267 0.985494 0.998642
0.981334 0.985529 0.998646
0.981636 0.985689 0.998662
0.982926 0.986378 0.998733
0.986094 0.987670 0.998879
0.994108 0.991486 0.999289
0.999667 0.998746 0.999366
0.981451 0.985689 0.998659
0.981455 0.985691 0.998659
0.981471 0.985699 0.998660
0.981536 0.985733 0.998663
0.981833 0.985890 0.998680
0.983100 0.986562 0.998749
0.986273 0.987873 0.998896
0.994157 0.991602 0.999298
0.999671 0.998763 0.999375
0.982330 0.986569 0.998736
0.982334 0.986570 0.998736
0.982347 0.986578 0.998737
0.982408 0.986609 0.998740
0.982681 0.986750 0.998755
0.983848 0.987353 0.998817
0.987033 0.988733 0.998970
0.994373 0.992098 0.999337
0.999688 0.998843 0.999413
0.985503 0.989688 0.999011
0.985506 0.989689 0.999011
0.985515 0.989693 0.999011
0.985559 0.989713 0.999013
0.985753 0.989802 0.999023
0.986590 0.990190 0.999065
0.989609 0.991608 0.999218
0.995182 0.993870 0.999467
0.999759 0.999160 0.999569
0.992430 0.995973 0.999578
0.992430 0.995973 0.999578
0.992433 0.995974 0.999578
0.992448 0.995978 0.999579
0.992517 0.995998 0.999581
0.992814 0.996087 0.999593
0.994010 0.996453 0.999640
0.997050 0.997415 0.999634
1.000000 1.000000 1.000000
1.000000 1.000000 1.000000
1.000000 1.000000 1.000000
1.000000 1.000000 1.000000
1.000000 1.000000 1.000000
1.000000 1.000000 1.000000
1.000000 1.000000 1.000000
1.000000 1.000000 1.000000
1.000000 1.000000 1.000000
1.000000 1.000000 1.000000
