OCIO/luts/ACES_v2.0.0/ACES v2.0.0 Output Rec709.cube
TITLE "Generated by Foundry::LUT"
LUT_3D_SIZE 5
0.000000 0.000000 0.000000
0.069486 0.000048 0.007917
0.667072 0.000000 0.077304
1.000000 0.550666 0.483322
1.000000 0.991756 0.990265
0.000000 0.075625 0.033041
0.099885 0.099184 0.000045
0.678567 0.136601 0.000191
1.000000 0.553642 0.484406
1.000000 0.991765 0.990273
0.000404 0.586303 0.254089
0.000539 0.592202 0.228724
0.616320 0.612271 0.000000
1.000000 0.617789 0.519325
1.000000 0.991929 0.990441
0.623577 1.000000 0.660489
0.624984 1.000000 0.660496
0.651384 1.000000 0.660203
1.000000 1.000000 0.559467
0.999926 0.994445 0.993042
0.998866 0.999962 0.998767
0.998867 0.999961 0.998767
0.998883 0.999962 0.998782
0.999213 0.999963 0.999098
1.000000 1.000000 1.000000
0.000034 0.014016 0.037492
0.087311 0.000053 0.074737
0.665583 0.000000 0.212073
1.000000 0.554171 0.497174
1.000000 0.991781 0.990303
0.000000 0.087326 0.084929
0.105190 0.105190 0.105190
0.692051 0.062904 0.184288
1.000000 0.559289 0.500493
1.000000 0.991789 0.990311
0.000000 0.584495 0.305355
0.000811 0.590337 0.289111
0.615780 0.607997 0.086679
1.000000 0.624358 0.535442
1.000000 0.991953 0.990478
0.628914 1.000000 0.667490
0.630315 1.000000 0.667514
0.656360 1.000000 0.667374
1.000000 1.000000 0.565175
0.999924 0.994455 0.993061
0.998866 0.999962 0.998768
0.998867 0.999962 0.998768
0.998884 0.999962 0.998784
0.999215 0.999963 0.999100
1.000000 1.000000 1.000000
0.000000 0.174654 0.460072
0.074724 0.000322 0.543008
0.689938 0.000430 0.590368
1.000000 0.555754 0.587043
1.000000 0.992207 0.990953
0.000000 0.226163 0.468731
0.036806 0.182203 0.539798
0.700564 0.060238 0.603091
1.000000 0.561261 0.590090
1.000000 0.992215 0.990960
0.000000 0.595728 0.579267
0.000000 0.598452 0.582235
0.593822 0.593822 0.593822
1.000000 0.664398 0.655505
1.000000 0.992362 0.991108
0.646300 1.000000 0.723532
0.648957 1.000000 0.724427
0.696213 1.000000 0.741101
0.999799 1.000000 0.643315
0.999895 0.994648 0.993406
0.998877 0.999962 0.998788
0.998879 0.999962 0.998789
0.998894 0.999963 0.998805
0.999224 0.999964 0.999117
1.000000 1.000000 1.000000
0.506694 0.630217 1.000000
0.511460 0.630123 1.000000
0.588403 0.624327 1.000000
1.000000 0.707736 0.932941
0.999921 0.993464 0.993477
0.508220 0.633721 1.000000
0.513619 0.634101 1.000000
0.589723 0.628305 1.000000
1.000000 0.711232 0.933651
0.999920 0.993473 0.993484
0.534618 0.692599 1.000000
0.540291 0.693465 1.000000
0.630403 0.707295 1.000000
1.000000 0.772665 0.946432
0.999907 0.993635 0.993630
0.665728 1.000000 0.984755
0.667094 1.000000 0.984795
0.692151 1.000000 0.985518
0.963223 0.963224 0.963224
0.999752 0.995901 0.995673
0.999048 0.999971 0.999102
0.999050 0.999971 0.999103
0.999065 0.999972 0.999117
0.999387 0.999974 0.999390
1.000000 1.000000 1.000000
0.978603 0.984413 1.000000
0.978626 0.984423 1.000000
0.979070 0.984628 1.000000
0.984507 0.986657 1.000000
0.999865 0.998593 0.999357
0.978617 0.984426 1.000000
0.978639 0.984437 1.000000
0.979084 0.984642 1.000000
0.984518 0.986672 1.000000
0.999864 0.998594 0.999357
0.978886 0.984698 1.000000
0.978909 0.984708 1.000000
0.979342 0.984907 1.000000
0.984747 0.986941 1.000000
0.999865 0.998619 0.999368
0.983282 0.989023 1.000000
0.983297 0.989029 1.000000
0.983586 0.989141 1.000000
0.988260 0.991003 1.000000
0.999885 0.999063 0.999564
1.000000 1.000000 1.000000
1.000000 1.000000 1.000000
1.000000 1.000000 1.000000
1.000000 1.000000 1.000000
1.000000 1.000000 1.000000
