OCIO/luts/ACES_v2.0.0/ACES v2.0.0 Output Rec709.cube
TITLE "Generated by Foundry::LUT"
LUT_3D_SIZE 9
0.000000 0.000000 0.000000
0.015333 0.000008 0.001725
0.069486 0.000048 0.007917
0.256275 0.000159 0.030192
0.667072 0.000000 0.077304
1.000000 0.287553 0.242345
1.000000 0.550666 0.483322
1.000000 0.822863 0.788057
1.000000 0.991756 0.990265
0.000018 0.016995 0.007432
0.023700 0.023531 0.000000
0.080326 0.036287 0.000000
0.265918 0.048692 0.000095
0.673032 0.000478 0.054141
1.000000 0.290976 0.241626
1.000000 0.551266 0.483541
1.000000 0.823016 0.788203
1.000000 0.991758 0.990266
0.000000 0.075625 0.033041
0.000000 0.084251 0.000000
0.099885 0.099184 0.000045
0.279964 0.132783 0.000107
0.678567 0.136601 0.000191
1.000000 0.304078 0.238622
1.000000 0.553642 0.484406
1.000000 0.823626 0.788789
1.000000 0.991765 0.990273
0.000000 0.258808 0.112901
0.000341 0.262999 0.103629
0.049676 0.276322 0.000000
0.300352 0.298300 0.000143
0.670631 0.318602 0.000191
1.000000 0.368911 0.240578
1.000000 0.563977 0.488178
1.000000 0.826556 0.791691
1.000000 0.991795 0.990304
0.000404 0.586303 0.254089
0.000000 0.587589 0.249723
0.000539 0.592202 0.228724
0.115553 0.610834 0.000000
0.616320 0.612271 0.000000
1.000000 0.555596 0.252340
1.000000 0.617789 0.519325
1.000000 0.839661 0.804953
1.000000 0.991929 0.990441
0.000000 0.893788 0.376783
0.000000 0.894239 0.375309
0.000000 0.896202 0.369042
0.000000 0.905254 0.336668
0.172797 0.941809 0.000455
0.896018 0.890671 0.000000
1.000000 0.788798 0.648567
1.000000 0.887475 0.855297
1.000000 0.992503 0.991031
0.623577 1.000000 0.660489
0.623860 1.000000 0.660491
0.624984 1.000000 0.660496
0.629931 1.000000 0.660501
0.651384 1.000000 0.660203
0.738071 1.000000 0.659181
1.000000 1.000000 0.559467
1.000000 0.961703 0.936920
0.999926 0.994445 0.993042
0.941354 1.000000 0.939340
0.941366 1.000000 0.939343
0.941406 1.000000 0.939355
0.941596 1.000000 0.939417
0.942463 1.000000 0.939700
0.946178 1.000000 0.940848
0.960442 1.000000 0.944997
0.999224 1.000000 0.938709
0.999874 0.998112 0.997034
0.998866 0.999962 0.998767
0.998866 0.999961 0.998767
0.998867 0.999961 0.998767
0.998869 0.999962 0.998770
0.998883 0.999962 0.998782
0.998946 0.999962 0.998841
0.999213 0.999963 0.999098
1.000000 1.000000 1.000000
1.000000 1.000000 1.000000
0.000000 0.003025 0.008174
0.019763 0.000009 0.016918
0.073428 0.000000 0.036167
0.258091 0.000199 0.080169
0.666251 0.000529 0.133617
1.000000 0.286273 0.257396
1.000000 0.552784 0.487786
1.000000 0.823680 0.789231
1.000000 0.991761 0.990272
0.000025 0.020226 0.019671
0.025734 0.025734 0.025734
0.094492 0.019830 0.033676
0.273602 0.018100 0.070931
0.672015 0.000384 0.124037
1.000000 0.290083 0.256945
1.000000 0.553387 0.488010
1.000000 0.823834 0.789379
1.000000 0.991763 0.990274
0.000080 0.077616 0.051764
0.008466 0.086185 0.048478
0.103594 0.101000 0.024563
0.301279 0.109427 0.029657
0.693361 0.057095 0.066576
1.000000 0.306780 0.256813
1.000000 0.555782 0.488896
1.000000 0.824443 0.789963
1.000000 0.991770 0.990281
0.000227 0.258387 0.133969
0.000143 0.263370 0.128377
0.021785 0.278699 0.080360
0.301411 0.297437 0.000143
0.682333 0.306038 0.000000
1.000000 0.367577 0.254216
1.000000 0.566056 0.492614
1.000000 0.827253 0.792709
1.000000 0.991800 0.990312
0.000719 0.585848 0.267291
0.000404 0.587146 0.263355
0.000000 0.591774 0.245225
0.000302 0.612363 0.000255
0.616202 0.611205 0.000341
1.000000 0.555759 0.265275
1.000000 0.619098 0.522665
1.000000 0.840293 0.805891
1.000000 0.991934 0.990449
0.000000 0.893721 0.381808
0.000811 0.894174 0.380357
0.000000 0.896275 0.374865
0.000000 0.905314 0.343497
0.154155 0.943139 0.000000
0.896361 0.890740 0.000455
1.000000 0.789594 0.650894
1.000000 0.887901 0.855963
1.000000 0.992506 0.991037
0.624672 1.000000 0.661924
0.624955 1.000000 0.661926
0.626077 1.000000 0.661934
0.631011 1.000000 0.661946
0.652406 1.000000 0.661675
0.738603 1.000000 0.660448
1.000000 1.000000 0.560633
1.000000 0.961758 0.937052
0.999927 0.994446 0.993046
0.941393 1.000000 0.939401
0.941402 1.000000 0.939403
0.941444 1.000000 0.939416
0.941632 1.000000 0.939476
0.942498 1.000000 0.939759
0.946210 1.000000 0.940904
0.960458 1.000000 0.945040
0.999227 1.000000 0.938718
0.999874 0.998112 0.997034
0.998866 0.999962 0.998766
0.998866 0.999962 0.998767
0.998866 0.999962 0.998768
0.998869 0.999962 0.998769
0.998884 0.999962 0.998783
0.998946 0.999962 0.998841
0.999213 0.999963 0.999098
1.000000 1.000000 1.000000
1.000000 1.000000 1.000000
0.000034 0.014016 0.037492
0.029537 0.000000 0.051856
0.087311 0.000053 0.074737
0.266556 0.000164 0.135409
0.665583 0.000000 0.212073
1.000000 0.282710 0.299140
1.000000 0.554171 0.497174
1.000000 0.826926 0.793857
1.000000 0.991781 0.990303
0.000000 0.032202 0.048410
0.021427 0.026661 0.073736
0.101514 0.021230 0.088803
0.280445 0.019153 0.135594
0.671240 0.000490 0.207060
1.000000 0.286641 0.298755
1.000000 0.555196 0.497835
1.000000 0.827070 0.793995
1.000000 0.991782 0.990304
0.000000 0.087326 0.084929
0.007724 0.093807 0.091417
0.105190 0.105190 0.105190
0.325161 0.072747 0.118541
0.692051 0.062904 0.184288
1.000000 0.303772 0.298668
1.000000 0.559289 0.500493
1.000000 0.827641 0.794536
1.000000 0.991789 0.990311
0.000143 0.260093 0.176671
0.000000 0.264515 0.175003
0.035091 0.280995 0.159784
0.304219 0.296776 0.087846
0.716312 0.265901 0.102820
1.000000 0.367579 0.297916
1.000000 0.574107 0.509085
1.000000 0.830273 0.797058
1.000000 0.991818 0.990341
0.000000 0.584495 0.305355
0.000341 0.585772 0.302328
0.000811 0.590337 0.289111
0.082282 0.609897 0.187932
0.615780 0.607997 0.086679
1.000000 0.556614 0.305789
1.000000 0.624358 0.535442
1.000000 0.842934 0.809740
1.000000 0.991953 0.990478
0.000607 0.893558 0.400137
0.000607 0.894095 0.398951
0.000000 0.896209 0.394013
0.000000 0.905534 0.367879
0.001054 0.948088 0.000455
0.897561 0.890962 0.000000
1.000000 0.792708 0.659833
1.000000 0.889556 0.858546
1.000000 0.992522 0.991064
0.628914 1.000000 0.667490
0.629200 1.000000 0.667498
0.630315 1.000000 0.667514
0.635194 1.000000 0.667547
0.656360 1.000000 0.667374
0.740701 1.000000 0.665404
1.000000 1.000000 0.565175
1.000000 0.961970 0.937568
0.999924 0.994455 0.993061
0.941543 1.000000 0.939643
0.941551 1.000000 0.939646
0.941593 1.000000 0.939658
0.941778 1.000000 0.939715
0.942638 1.000000 0.939993
0.946337 1.000000 0.941130
0.960525 1.000000 0.945211
0.999239 1.000000 0.938762
0.999875 0.998113 0.997038
0.998866 0.999962 0.998768
0.998867 0.999961 0.998767
0.998867 0.999962 0.998768
0.998869 0.999962 0.998771
0.998884 0.999962 0.998784
0.998946 0.999962 0.998842
0.999215 0.999963 0.999100
1.000000 1.000000 1.000000
1.000000 1.000000 1.000000
0.000107 0.055769 0.147874
0.013359 0.000080 0.178910
0.118156 0.000000 0.197625
0.296001 0.000157 0.253366
0.669930 0.000627 0.340097
1.000000 0.276201 0.391961
1.000000 0.553699 0.522799
1.000000 0.840098 0.812311
1.000000 0.991866 0.990432
0.000143 0.073613 0.155380
0.000000 0.061226 0.181858
0.118434 0.018901 0.217594
0.303972 0.019791 0.261580
0.674780 0.000539 0.339183
1.000000 0.280312 0.391795
1.000000 0.554756 0.523443
1.000000 0.840241 0.812448
1.000000 0.991867 0.990434
0.000143 0.125430 0.183854
0.000000 0.126504 0.198409
0.078546 0.096081 0.274725
0.328923 0.075918 0.288287
0.692862 0.064121 0.334194
1.000000 0.298063 0.392229
1.000000 0.558967 0.526030
1.000000 0.840804 0.812984
1.000000 0.991874 0.990442
0.000000 0.277304 0.269678
0.000000 0.280208 0.272626
0.033088 0.290427 0.283086
0.298793 0.298793 0.298793
0.736166 0.234613 0.302282
1.000000 0.366627 0.395921
1.000000 0.577523 0.537820
1.000000 0.843275 0.815335
1.000000 0.991904 0.990471
0.000455 0.583509 0.395731
0.000767 0.584648 0.394351
0.000719 0.588718 0.388164
0.115019 0.605505 0.348207
0.612276 0.601916 0.273018
1.000000 0.562750 0.410932
1.000000 0.646109 0.582552
1.000000 0.853768 0.825349
1.000000 0.992034 0.990605
0.000000 0.893072 0.459550
0.000000 0.893593 0.458648
0.000000 0.895675 0.455023
0.000607 0.904981 0.437771
0.184617 0.944802 0.301065
0.899985 0.890840 0.211342
1.000000 0.805084 0.693527
1.000000 0.896429 0.869128
1.000000 0.992592 0.991174
0.635130 1.000000 0.681853
0.635628 1.000000 0.682021
0.637615 1.000000 0.682693
0.646309 1.000000 0.685672
0.671863 1.000000 0.689821
0.749252 1.000000 0.685364
1.000000 1.000000 0.583579
1.000000 0.962853 0.939708
0.999918 0.994492 0.993128
0.942174 1.000000 0.940675
0.942184 1.000000 0.940678
0.942227 1.000000 0.940692
0.942412 1.000000 0.940750
0.943246 1.000000 0.941005
0.946889 1.000000 0.942106
0.960810 1.000000 0.945951
0.999271 1.000000 0.939028
0.999874 0.998117 0.997053
0.998868 0.999961 0.998771
0.998868 0.999962 0.998771
0.998868 0.999962 0.998772
0.998871 0.999962 0.998775
0.998886 0.999962 0.998787
0.998948 0.999962 0.998846
0.999216 0.999964 0.999102
1.000000 1.000000 1.000000
1.000000 1.000000 1.000000
0.000000 0.174654 0.460072
0.000000 0.161469 0.476723
0.074724 0.000322 0.543008
0.334433 0.000255 0.559622
0.689938 0.000430 0.590368
1.000000 0.279656 0.563458
1.000000 0.555754 0.587043
1.000000 0.846541 0.828795
1.000000 0.992207 0.990953
0.000000 0.186860 0.461824
0.000455 0.176444 0.477493
0.000000 0.000322 0.554474
0.333427 0.000341 0.568772
0.692277 0.000557 0.593102
1.000000 0.283858 0.563657
1.000000 0.556858 0.587650
1.000000 0.846815 0.829071
1.000000 0.992209 0.990954
0.000000 0.226163 0.468731
0.000455 0.221116 0.481526
0.036806 0.182203 0.539798
0.325746 0.064962 0.603077
0.700564 0.060238 0.603091
1.000000 0.301578 0.565003
1.000000 0.561261 0.590090
1.000000 0.847911 0.830175
1.000000 0.992215 0.990960
0.000000 0.340719 0.499159
0.000000 0.340421 0.505397
0.000000 0.337262 0.531713
0.248079 0.287041 0.646904
0.715935 0.233245 0.628778
1.000000 0.369952 0.571969
1.000000 0.580664 0.601192
1.000000 0.852698 0.835014
1.000000 0.992242 0.990988
0.000000 0.595728 0.579267
0.000811 0.596362 0.579944
0.000000 0.598452 0.582235
0.113224 0.606229 0.591049
0.593822 0.593822 0.593822
1.000000 0.580673 0.608388
1.000000 0.664398 0.655505
1.000000 0.872666 0.855415
1.000000 0.992362 0.991108
0.000000 0.892079 0.601723
0.000000 0.892523 0.601357
0.000000 0.894292 0.599872
0.000000 0.902094 0.592804
0.295688 0.929806 0.557372
0.875037 0.870272 0.595859
1.000000 0.841924 0.782764
1.000000 0.918095 0.901435
0.999997 0.992878 0.991624
0.646300 1.000000 0.723532
0.646835 1.000000 0.723711
0.648957 1.000000 0.724427
0.658190 1.000000 0.727573
0.696213 1.000000 0.741101
0.781270 1.000000 0.753211
0.999799 1.000000 0.643315
1.000000 0.966101 0.947382
0.999895 0.994648 0.993406
0.944513 1.000000 0.944628
0.944529 1.000000 0.944637
0.944597 1.000000 0.944675
0.944886 1.000000 0.944839
0.945674 1.000000 0.945070
0.949079 1.000000 0.946009
0.961965 1.000000 0.948970
0.999291 1.000000 0.940940
0.999870 0.998138 0.997117
0.998877 0.999962 0.998788
0.998877 0.999962 0.998789
0.998879 0.999962 0.998789
0.998881 0.999962 0.998792
0.998894 0.999963 0.998805
0.998958 0.999963 0.998862
0.999224 0.999964 0.999117
1.000000 1.000000 1.000000
1.000000 1.000000 1.000000
0.000000 0.353445 0.946439
0.000000 0.348102 0.954111
0.000000 0.323347 0.986587
0.273659 0.281300 1.000000
0.634062 0.246355 1.000000
1.000000 0.340203 0.880796
1.000000 0.581643 0.714978
1.000000 0.858164 0.861308
0.999966 0.992923 0.992135
0.000811 0.358533 0.944823
0.000000 0.353471 0.952299
0.000000 0.329978 0.984092
0.271110 0.287604 1.000000
0.632855 0.253816 1.000000
1.000000 0.343670 0.881068
1.000000 0.582745 0.715475
1.000000 0.858434 0.861546
0.999965 0.992925 0.992137
0.000000 0.377238 0.939861
0.000000 0.373137 0.946239
0.000000 0.354117 0.975006
0.262456 0.312588 1.000000
0.628326 0.283159 1.000000
1.000000 0.357104 0.882157
1.000000 0.587140 0.717473
1.000000 0.859499 0.862488
0.999966 0.992932 0.992145
0.000000 0.443011 0.925286
0.000000 0.440733 0.930341
0.000000 0.431370 0.951388
0.232554 0.402149 1.000000
0.610659 0.378108 1.000000
1.000000 0.410566 0.886976
1.000000 0.606567 0.726531
1.000000 0.864141 0.866606
0.999963 0.992964 0.992176
0.000000 0.613948 0.901235
0.000000 0.613716 0.903451
0.000811 0.613090 0.912748
0.002361 0.609116 0.957806
0.556634 0.604516 0.966858
1.000000 0.581959 0.902259
1.000000 0.690356 0.769659
1.000000 0.883248 0.883731
0.999946 0.993112 0.992323
0.000000 0.889321 0.864473
0.001082 0.889534 0.864705
0.000000 0.890377 0.865625
0.000000 0.893942 0.869556
0.292046 0.902828 0.881093
0.850430 0.850430 0.850430
1.000000 0.873320 0.877449
1.000000 0.934817 0.931187
0.999892 0.993713 0.992925
0.667408 1.000000 0.819898
0.667860 1.000000 0.819995
0.669643 1.000000 0.820379
0.677435 1.000000 0.822067
0.709706 1.000000 0.829238
0.807939 1.000000 0.850004
0.976816 0.976790 0.855411
1.000000 0.973637 0.964303
0.999811 0.995181 0.994320
0.946317 1.000000 0.951913
0.946333 1.000000 0.951921
0.946400 1.000000 0.951957
0.946691 1.000000 0.952109
0.948002 1.000000 0.952797
0.953377 1.000000 0.955593
0.965673 1.000000 0.958632
0.999382 1.000000 0.947177
0.999858 0.998221 0.997364
0.998915 0.999965 0.998862
0.998915 0.999964 0.998862
0.998917 0.999965 0.998863
0.998920 0.999964 0.998865
0.998932 0.999964 0.998877
0.998994 0.999965 0.998932
0.999257 0.999967 0.999178
1.000000 1.000000 1.000000
1.000000 1.000000 1.000000
0.506694 0.630217 1.000000
0.507654 0.630196 1.000000
0.511460 0.630123 1.000000
0.526707 0.628975 1.000000
0.588403 0.624327 1.000000
0.795047 0.643839 1.000000
1.000000 0.707736 0.932941
1.000000 0.894131 0.921896
0.999921 0.993464 0.993477
0.507134 0.631013 1.000000
0.508090 0.630994 1.000000
0.511890 0.630923 1.000000
0.527176 0.629834 1.000000
0.588664 0.625126 1.000000
0.795139 0.644679 1.000000
1.000000 0.708439 0.933084
1.000000 0.894318 0.922021
0.999921 0.993466 0.993479
0.508220 0.633721 1.000000
0.509436 0.633883 1.000000
0.513619 0.634101 1.000000
0.529086 0.633256 1.000000
0.589723 0.628305 1.000000
0.795512 0.648017 1.000000
1.000000 0.711232 0.933651
1.000000 0.895060 0.922515
0.999920 0.993473 0.993484
0.512814 0.645291 1.000000
0.514016 0.645457 1.000000
0.518810 0.646141 1.000000
0.537448 0.647911 1.000000
0.595883 0.643283 1.000000
0.797314 0.662566 1.000000
1.000000 0.723401 0.936137
1.000000 0.898277 0.924664
0.999918 0.993503 0.993512
0.534618 0.692599 1.000000
0.535757 0.692770 1.000000
0.540291 0.693465 1.000000
0.559837 0.696678 1.000000
0.630403 0.707295 1.000000
0.807573 0.722062 1.000000
1.000000 0.772665 0.946432
1.000000 0.911282 0.933414
0.999907 0.993635 0.993630
0.619774 0.829538 1.000000
0.620610 0.829651 1.000000
0.623941 0.830106 1.000000
0.638408 0.832148 1.000000
0.696855 0.841649 1.000000
0.846608 0.867928 1.000000
1.000000 0.882053 0.970521
1.000000 0.946374 0.957508
0.999861 0.994184 0.994122
0.665728 1.000000 0.984755
0.666004 1.000000 0.984762
0.667094 1.000000 0.984795
0.671868 1.000000 0.984936
0.692151 1.000000 0.985518
0.764844 0.999035 0.986000
0.963223 0.963224 0.963224
1.000000 0.977448 0.977903
0.999752 0.995901 0.995673
0.948955 1.000000 0.968201
0.948969 1.000000 0.968205
0.949022 1.000000 0.968223
0.949258 1.000000 0.968300
0.950314 1.000000 0.968644
0.954711 1.000000 0.970046
0.968118 1.000000 0.973368
0.996606 0.996897 0.973694
0.999821 0.998489 0.998037
0.999048 0.999971 0.999102
0.999047 0.999971 0.999102
0.999050 0.999971 0.999103
0.999053 0.999971 0.999105
0.999065 0.999972 0.999117
0.999127 0.999972 0.999167
0.999387 0.999974 0.999390
1.000000 1.000000 1.000000
1.000000 1.000000 1.000000
0.815740 0.863401 1.000000
0.815944 0.863501 1.000000
0.816751 0.863903 1.000000
0.820290 0.865665 1.000000
0.830835 0.869810 1.000000
0.859951 0.877027 1.000000
0.944197 0.907268 1.000000
1.000000 0.955326 0.986093
0.999839 0.995096 0.996074
0.815845 0.863511 1.000000
0.816048 0.863612 1.000000
0.816854 0.864013 1.000000
0.820392 0.865775 1.000000
0.830997 0.869967 1.000000
0.860070 0.877167 1.000000
0.944232 0.907364 1.000000
1.000000 0.955357 0.986102
0.999838 0.995097 0.996075
0.816261 0.863950 1.000000
0.816463 0.864051 1.000000
0.817269 0.864450 1.000000
0.820801 0.866209 1.000000
0.831643 0.870591 1.000000
0.860547 0.877722 1.000000
0.944369 0.907744 1.000000
1.000000 0.955479 0.986138
0.999838 0.995102 0.996078
0.818119 0.865900 1.000000
0.818316 0.865997 1.000000
0.819100 0.866381 1.000000
0.822589 0.868113 1.000000
0.834360 0.873236 1.000000
0.862759 0.880254 1.000000
0.944974 0.909402 1.000000
1.000000 0.956019 0.986297
0.999836 0.995121 0.996092
0.826238 0.874325 1.000000
0.826422 0.874414 1.000000
0.827163 0.874771 1.000000
0.830440 0.876364 1.000000
0.844486 0.883308 1.000000
0.872341 0.891047 1.000000
0.947537 0.916372 1.000000
1.000000 0.958324 0.986978
0.999831 0.995207 0.996153
0.856516 0.904560 1.000000
0.856654 0.904621 1.000000
0.857210 0.904864 1.000000
0.859676 0.905952 1.000000
0.870236 0.910654 1.000000
0.903998 0.925410 1.000000
0.956098 0.938928 1.000000
1.000000 0.966364 0.989391
0.999813 0.995568 0.996413
0.916144 0.960880 1.000000
0.916195 0.960893 1.000000
0.916397 0.960944 1.000000
0.917283 0.961170 1.000000
0.921164 0.962170 1.000000
0.935959 0.966040 1.000000
0.968057 0.972833 1.000000
1.000000 0.980546 0.993791
0.999769 0.996782 0.997298
0.950664 1.000000 0.996965
0.950670 1.000000 0.996965
0.950699 1.000000 0.996967
0.950824 1.000000 0.996975
0.951384 1.000000 0.997013
0.953794 1.000000 0.997172
0.962457 1.000000 0.997548
0.994301 0.994301 0.994301
0.999786 0.998871 0.998883
0.999575 0.999988 0.999718
0.999575 0.999988 0.999719
0.999576 0.999988 0.999719
0.999580 0.999987 0.999721
0.999592 0.999988 0.999729
0.999647 0.999989 0.999763
0.999882 0.999995 0.999917
1.000000 1.000000 1.000000
1.000000 1.000000 1.000000
0.978603 0.984413 1.000000
0.978608 0.984414 1.000000
0.978626 0.984423 1.000000
0.978707 0.984460 1.000000
0.979070 0.984628 1.000000
0.980621 0.985351 1.000000
0.984507 0.986657 1.000000
0.994244 0.990624 1.000000
0.999865 0.998593 0.999357
0.978606 0.984415 1.000000
0.978611 0.984417 1.000000
0.978629 0.984425 1.000000
0.978709 0.984463 1.000000
0.979073 0.984631 1.000000
0.980624 0.985354 1.000000
0.984510 0.986660 1.000000
0.994244 0.990626 1.000000
0.999865 0.998593 0.999357
0.978617 0.984426 1.000000
0.978621 0.984429 1.000000
0.978639 0.984437 1.000000
0.978720 0.984474 1.000000
0.979084 0.984642 1.000000
0.980634 0.985364 1.000000
0.984518 0.986672 1.000000
0.994246 0.990633 1.000000
0.999864 0.998594 0.999357
0.978666 0.984476 1.000000
0.978670 0.984478 1.000000
0.978689 0.984486 1.000000
0.978769 0.984523 1.000000
0.979131 0.984689 1.000000
0.980674 0.985408 1.000000
0.984559 0.986721 1.000000
0.994255 0.990661 1.000000
0.999863 0.998599 0.999359
0.978886 0.984698 1.000000
0.978891 0.984700 1.000000
0.978909 0.984708 1.000000
0.978987 0.984744 1.000000
0.979342 0.984907 1.000000
0.980860 0.985608 1.000000
0.984747 0.986941 1.000000
0.994292 0.990789 1.000000
0.999865 0.998619 0.999368
0.979836 0.985650 1.000000
0.979841 0.985652 1.000000
0.979856 0.985659 1.000000
0.979930 0.985691 1.000000
0.980258 0.985838 1.000000
0.981659 0.986465 1.000000
0.985545 0.987877 1.000000
0.994459 0.991339 1.000000
0.999867 0.998708 0.999407
0.983282 0.989023 1.000000
0.983285 0.989024 1.000000
0.983297 0.989029 1.000000
0.983350 0.989049 1.000000
0.983586 0.989141 1.000000
0.984602 0.989540 1.000000
0.988260 0.991003 1.000000
0.995100 0.993301 0.999988
0.999885 0.999063 0.999564
0.990936 0.995799 1.000000
0.990936 0.995799 1.000000
0.990940 0.995800 1.000000
0.990959 0.995804 1.000000
0.991045 0.995824 1.000000
0.991418 0.995910 1.000000
0.992916 0.996269 1.000000
0.996716 0.997216 0.999847
1.000000 1.000000 1.000000
1.000000 1.000000 1.000000
1.000000 1.000000 1.000000
1.000000 1.000000 1.000000
1.000000 1.000000 1.000000
1.000000 1.000000 1.000000
1.000000 1.000000 1.000000
1.000000 1.000000 1.000000
1.000000 1.000000 1.000000
1.000000 1.000000 1.000000
