OCIO/luts/ACES_v2.0.0/ACES v2.0.0 Output P3D65_inverse.cube
TITLE "Generated by Foundry::LUT"
LUT_3D_SIZE 9
0.072906 0.072906 0.072906
0.282470 0.097121 0.074804
0.357558 0.128905 0.076476
0.408476 0.158455 0.075001
0.448946 0.191153 0.073547
0.483280 0.234435 0.078813
0.514381 0.277961 0.094114
0.544191 0.314251 0.115038
0.576419 0.332097 0.101305
0.134370 0.269710 0.078158
0.252896 0.255895 0.087568
0.347326 0.239167 0.086778
0.403393 0.238504 0.086585
0.445841 0.249632 0.086879
0.481666 0.270215 0.091250
0.513760 0.297589 0.103517
0.544225 0.324982 0.119341
0.576707 0.340421 0.102721
0.208625 0.349080 0.084917
0.258814 0.345366 0.102332
0.335820 0.338772 0.109651
0.396483 0.332444 0.103835
0.443086 0.329577 0.098207
0.481136 0.333597 0.100112
0.514463 0.345093 0.110859
0.545412 0.361714 0.128462
0.578525 0.372483 0.105002
0.259313 0.404814 0.087961
0.288066 0.403061 0.113104
0.340619 0.400820 0.120225
0.395257 0.398082 0.131426
0.441849 0.396515 0.124044
0.481611 0.397235 0.120529
0.516479 0.401993 0.127555
0.548420 0.411241 0.145221
0.582550 0.419275 0.108633
0.304424 0.451681 0.094787
0.322353 0.450763 0.124092
0.357401 0.450070 0.130338
0.403026 0.449189 0.141230
0.446313 0.449004 0.153919
0.485575 0.450562 0.150680
0.521124 0.454264 0.155684
0.554132 0.460872 0.168565
0.589323 0.468852 0.114036
0.349375 0.494802 0.119104
0.359882 0.494314 0.147401
0.383187 0.494277 0.151842
0.419033 0.494415 0.160326
0.457646 0.495184 0.170808
0.494592 0.497173 0.180414
0.530011 0.501569 0.185437
0.563658 0.508117 0.194382
0.599781 0.517461 0.123729
0.394050 0.537196 0.169732
0.399833 0.536918 0.186767
0.415747 0.537225 0.188701
0.443250 0.537999 0.192650
0.476356 0.539567 0.198383
0.510645 0.542392 0.205098
0.544544 0.547034 0.211955
0.578845 0.554829 0.220113
0.616157 0.566521 0.136885
0.438486 0.581430 0.218457
0.441685 0.581339 0.224482
0.453257 0.581901 0.225296
0.474848 0.583218 0.227026
0.503218 0.585636 0.230014
0.534907 0.589627 0.234508
0.568167 0.595862 0.240236
0.602927 0.605298 0.247812
0.642999 0.621163 0.151130
0.480741 0.636076 0.138441
0.482903 0.636239 0.138229
0.493217 0.637060 0.138597
0.513055 0.638974 0.138706
0.540247 0.642455 0.139814
0.572059 0.648205 0.141702
0.607242 0.657347 0.143769
0.646612 0.671870 0.141888
0.693981 0.695947 0.127480
0.106961 0.083202 0.322342
0.267135 0.085905 0.286105
0.358966 0.093884 0.218806
0.412421 0.091240 0.158927
0.453608 0.089236 0.116743
0.488568 0.121462 0.099905
0.520517 0.194757 0.096146
0.548826 0.281973 0.129503
0.581747 0.298375 0.104293
0.105060 0.263091 0.268061
0.249924 0.249924 0.249924
0.329737 0.257181 0.246436
0.390569 0.267974 0.235920
0.438008 0.278278 0.219611
0.478957 0.282419 0.191749
0.513697 0.297803 0.179096
0.545104 0.321432 0.181398
0.579640 0.325935 0.134921
0.138434 0.352562 0.157914
0.279711 0.336542 0.248895
0.334078 0.336596 0.241052
0.390055 0.336831 0.235696
0.436896 0.339541 0.226806
0.476744 0.344874 0.217129
0.512142 0.352866 0.208032
0.544858 0.363915 0.201303
0.578022 0.373905 0.180326
0.200377 0.407468 0.094721
0.305699 0.399158 0.233249
0.347564 0.398061 0.241600
0.394866 0.397805 0.236155
0.439316 0.398453 0.231853
0.478969 0.400738 0.224040
0.514589 0.405286 0.217352
0.547681 0.412571 0.212328
0.582077 0.419785 0.182042
0.280156 0.453063 0.099259
0.331468 0.449443 0.216035
0.368765 0.447998 0.247539
0.406383 0.448424 0.244034
0.446529 0.449418 0.240504
0.484508 0.451587 0.236520
0.519853 0.455445 0.231704
0.553231 0.461551 0.228185
0.588963 0.468851 0.185115
0.336937 0.495916 0.122316
0.362704 0.494076 0.210618
0.392772 0.492949 0.249422
0.423519 0.493655 0.248608
0.459148 0.495082 0.247634
0.494918 0.497641 0.246580
0.529532 0.501897 0.244648
0.563018 0.508268 0.244236
0.599621 0.517302 0.191033
0.387308 0.538288 0.173930
0.399722 0.537088 0.223131
0.421129 0.536263 0.255176
0.446309 0.537278 0.255381
0.477699 0.539168 0.255915
0.511099 0.542326 0.256740
0.544700 0.547252 0.257922
0.578595 0.554815 0.260254
0.616153 0.566413 0.200707
0.434420 0.582518 0.221757
0.440802 0.581606 0.247480
0.455495 0.581131 0.269019
0.476227 0.582563 0.269548
0.503852 0.585152 0.270546
0.535101 0.589344 0.272345
0.568198 0.595769 0.275195
0.602973 0.605359 0.279903
0.643119 0.621189 0.213375
0.477389 0.637313 0.141139
0.481064 0.636802 0.179714
0.492742 0.636969 0.206861
0.512675 0.638882 0.208057
0.539954 0.642375 0.210109
0.571851 0.648156 0.213031
0.607132 0.657331 0.218408
0.646603 0.671895 0.226837
0.694305 0.696245 0.218144
0.154798 0.096332 0.395855
0.243120 0.094744 0.389013
0.344963 0.101191 0.364219
0.406966 0.096799 0.334719
0.451769 0.095056 0.306169
0.488386 0.122548 0.285684
0.521136 0.190439 0.276022
0.552312 0.251871 0.275690
0.588779 0.217782 0.251409
0.117345 0.207775 0.397079
0.260085 0.256582 0.344122
0.331098 0.258122 0.340692
0.389821 0.267944 0.333595
0.437632 0.276571 0.324768
0.479083 0.280284 0.311559
0.515577 0.286814 0.298608
0.548972 0.301977 0.290795
0.587808 0.265635 0.257348
0.157831 0.344143 0.349128
0.284480 0.335164 0.337247
0.335065 0.335065 0.335065
0.385945 0.338945 0.334362
0.433205 0.343542 0.330443
0.474680 0.348851 0.323811
0.511583 0.355251 0.315940
0.545567 0.363089 0.308025
0.589326 0.332160 0.254193
0.185431 0.407437 0.299580
0.302910 0.398698 0.325063
0.352503 0.395066 0.335349
0.394838 0.396640 0.332326
0.438119 0.398773 0.328482
0.478241 0.401676 0.322187
0.515009 0.405430 0.314239
0.549241 0.410572 0.305915
0.588936 0.408455 0.269515
0.208214 0.455884 0.248886
0.311115 0.451192 0.295114
0.372799 0.446812 0.331821
0.407815 0.447841 0.328909
0.446969 0.449401 0.324948
0.485089 0.451784 0.319834
0.521036 0.455285 0.313541
0.555129 0.460401 0.307306
0.595425 0.464167 0.262955
0.250802 0.500403 0.190501
0.322015 0.497973 0.252807
0.393034 0.493422 0.322956
0.424956 0.493928 0.326230
0.459930 0.495617 0.323365
0.495787 0.498276 0.319642
0.530763 0.502252 0.315395
0.564774 0.508065 0.311692
0.604575 0.516180 0.263366
0.340763 0.543513 0.197421
0.366723 0.541981 0.243312
0.417889 0.537684 0.316976
0.446969 0.537842 0.326952
0.478118 0.539927 0.325374
0.511703 0.543217 0.323512
0.545756 0.548137 0.321494
0.579983 0.555290 0.320500
0.619669 0.566862 0.270369
0.407137 0.588102 0.230439
0.418129 0.586939 0.258080
0.450230 0.583024 0.319430
0.475583 0.583026 0.333928
0.503417 0.585802 0.333416
0.535085 0.590180 0.333134
0.568741 0.596738 0.333449
0.604145 0.606372 0.335332
0.645665 0.622448 0.285477
0.455751 0.643608 0.144500
0.461285 0.643015 0.185105
0.481527 0.641241 0.258644
0.507412 0.641477 0.287286
0.537096 0.644686 0.290815
0.570784 0.650117 0.296808
0.607243 0.658962 0.306522
0.647510 0.673307 0.322603
0.696925 0.698638 0.307522
0.201158 0.110214 0.444339
0.246247 0.109170 0.442184
0.333808 0.104454 0.433432
0.398830 0.109045 0.418611
0.447576 0.107009 0.403098
0.486957 0.132006 0.389000
0.521367 0.192316 0.380054
0.553563 0.249726 0.377380
0.590722 0.212073 0.370444
0.174587 0.164164 0.449274
0.273105 0.262360 0.413412
0.333171 0.264528 0.408981
0.390214 0.271074 0.403180
0.437816 0.276598 0.398099
0.479399 0.279069 0.392033
0.516382 0.285227 0.385729
0.550338 0.300171 0.382036
0.589832 0.261314 0.371954
0.166517 0.324372 0.435731
0.293689 0.335426 0.403545
0.340677 0.338272 0.396140
0.388844 0.340398 0.396715
0.434627 0.344123 0.395969
0.475615 0.349096 0.393934
0.512535 0.355414 0.391032
0.546707 0.363289 0.388184
0.591203 0.331538 0.370936
0.204844 0.402098 0.407203
0.306092 0.397510 0.400809
0.355976 0.395673 0.397481
0.396933 0.396933 0.396933
0.439737 0.398812 0.395420
0.480112 0.401061 0.392401
0.517305 0.403821 0.388170
0.551964 0.407589 0.383645
0.594452 0.398430 0.365611
0.229655 0.455144 0.380662
0.314014 0.451232 0.388192
0.375185 0.447200 0.397079
0.409200 0.448486 0.395453
0.448487 0.449972 0.393410
0.487389 0.451968 0.389081
0.524428 0.454258 0.383363
0.559634 0.457160 0.376746
0.598514 0.458991 0.360891
0.261827 0.501076 0.358368
0.324249 0.498792 0.370590
0.391910 0.494751 0.391773
0.423728 0.495891 0.390884
0.460530 0.497277 0.389336
0.497619 0.499626 0.385999
0.533852 0.502911 0.380916
0.568914 0.507540 0.376587
0.610440 0.513890 0.350558
0.306598 0.546616 0.342953
0.345082 0.545061 0.354692
0.407065 0.541174 0.380580
0.442407 0.540815 0.387046
0.476603 0.542662 0.385814
0.512393 0.545613 0.384173
0.548053 0.550072 0.381495
0.583595 0.556517 0.379158
0.626466 0.567631 0.341564
0.352209 0.594481 0.328993
0.374981 0.593211 0.339234
0.426550 0.589282 0.366690
0.467397 0.586938 0.386690
0.499558 0.589331 0.387330
0.534190 0.593491 0.386822
0.570049 0.599753 0.386685
0.607162 0.609024 0.387684
0.652194 0.625794 0.340645
0.333998 0.655987 0.209927
0.367411 0.654863 0.242966
0.434687 0.651654 0.303798
0.485263 0.650350 0.335004
0.528449 0.651287 0.354712
0.567731 0.656226 0.357334
0.607937 0.664507 0.363768
0.650845 0.678421 0.377447
0.703954 0.705097 0.351884
0.240391 0.137803 0.481911
0.264940 0.137346 0.481082
0.331279 0.131974 0.477684
0.393763 0.124484 0.471622
0.443361 0.127357 0.463277
0.484817 0.153172 0.455458
0.521067 0.202691 0.449718
0.554643 0.252316 0.447749
0.592795 0.208273 0.448006
0.234778 0.188607 0.483265
0.289539 0.268384 0.463260
0.338203 0.271802 0.460169
0.391457 0.276920 0.456401
0.438424 0.278808 0.453905
0.479885 0.280264 0.451458
0.517256 0.286187 0.449077
0.551882 0.300345 0.448149
0.592074 0.257687 0.448153
0.177744 0.293703 0.489906
0.300486 0.333160 0.459443
0.348128 0.342081 0.448756
0.392994 0.343323 0.449000
0.437244 0.345871 0.449163
0.477489 0.350388 0.448986
0.514208 0.356535 0.448792
0.548568 0.364167 0.448965
0.593652 0.329678 0.447706
0.216237 0.393119 0.474105
0.309722 0.395402 0.459526
0.362184 0.397284 0.448879
0.400580 0.398165 0.449667
0.442104 0.399841 0.449788
0.482015 0.401702 0.449747
0.519233 0.404178 0.448981
0.554083 0.407903 0.448170
0.597473 0.397223 0.445140
0.243968 0.452105 0.457317
0.317098 0.450161 0.454403
0.379056 0.448194 0.450954
0.412148 0.449336 0.451133
0.450818 0.450818 0.450818
0.492194 0.450846 0.447717
0.529848 0.451549 0.444412
0.564957 0.453368 0.441553
0.604022 0.453431 0.436663
0.274244 0.500959 0.444577
0.328058 0.499207 0.446739
0.394246 0.495976 0.451434
0.426430 0.497007 0.451628
0.459801 0.500463 0.446760
0.500369 0.501700 0.444479
0.539065 0.503495 0.439309
0.576085 0.505698 0.433909
0.615219 0.508692 0.424924
0.313333 0.547641 0.438037
0.348396 0.546292 0.441338
0.408912 0.542875 0.449822
0.443044 0.543063 0.451511
0.471786 0.547499 0.441867
0.512732 0.549718 0.440234
0.551620 0.553252 0.437466
0.589592 0.558389 0.433574
0.632769 0.567089 0.417664
0.354501 0.596196 0.437856
0.376595 0.595070 0.440669
0.426918 0.591727 0.448998
0.462637 0.590906 0.451896
0.489710 0.595521 0.439625
0.531375 0.599212 0.439078
0.571778 0.604894 0.438848
0.612061 0.613525 0.438818
0.659619 0.629384 0.414073
0.276050 0.659273 0.430529
0.319005 0.658700 0.431504
0.393215 0.657674 0.432026
0.440944 0.660021 0.420164
0.501489 0.662377 0.410623
0.560467 0.663915 0.426168
0.607552 0.671740 0.430837
0.655180 0.685647 0.442522
0.714049 0.714634 0.425016
0.277568 0.191307 0.513165
0.291475 0.190731 0.512899
0.338669 0.188856 0.511615
0.393335 0.183515 0.509472
0.441931 0.178354 0.506640
0.483521 0.182530 0.503184
0.520951 0.220869 0.500897
0.555716 0.260597 0.501003
0.594828 0.208389 0.506197
0.275923 0.220289 0.514055
0.309071 0.277313 0.502441
0.347142 0.280660 0.500819
0.394868 0.284062 0.499138
0.440144 0.284571 0.498541
0.481007 0.283882 0.498259
0.518499 0.290236 0.498396
0.553653 0.303570 0.499777
0.594320 0.256360 0.505898
0.206854 0.252833 0.529325
0.308812 0.326290 0.505807
0.357216 0.345316 0.493407
0.398452 0.346438 0.493500
0.440793 0.348695 0.493941
0.480267 0.352747 0.494719
0.516724 0.358727 0.496027
0.551231 0.366041 0.498241
0.596439 0.326675 0.506288
0.231672 0.380601 0.522168
0.313098 0.390797 0.508184
0.370015 0.399460 0.493160
0.405821 0.399977 0.494320
0.445790 0.401159 0.495507
0.484805 0.402917 0.496906
0.521735 0.405343 0.498399
0.556775 0.409038 0.500163
0.601336 0.394502 0.506386
0.261472 0.448923 0.513324
0.322560 0.449100 0.507067
0.384010 0.449656 0.497128
0.415787 0.450498 0.498469
0.453163 0.450388 0.502807
0.493750 0.451318 0.501997
0.531883 0.452101 0.501704
0.567794 0.453852 0.501544
0.608633 0.452529 0.503684
0.283653 0.499804 0.505093
0.331340 0.498977 0.503776
0.396787 0.497563 0.501186
0.429609 0.498704 0.501600
0.462414 0.501325 0.503274
0.502918 0.502918 0.502918
0.547211 0.501038 0.497778
0.585236 0.500946 0.494395
0.623284 0.502711 0.493078
0.320248 0.548601 0.503543
0.351950 0.547619 0.503912
0.411192 0.545099 0.505101
0.446480 0.545428 0.505838
0.474993 0.549550 0.504527
0.509825 0.555797 0.496055
0.556149 0.557371 0.493021
0.598772 0.559918 0.487318
0.642055 0.564046 0.480593
0.358209 0.598480 0.508579
0.379139 0.597580 0.509254
0.428891 0.594906 0.511479
0.465506 0.594503 0.512588
0.491558 0.599472 0.508355
0.522777 0.607825 0.493185
0.572549 0.612840 0.490309
0.619070 0.620217 0.489211
0.669701 0.633569 0.478345
0.275877 0.662306 0.520775
0.317496 0.661909 0.520867
0.390987 0.661441 0.520446
0.436749 0.664576 0.516247
0.482599 0.670787 0.505215
0.534089 0.678278 0.480594
0.603689 0.683286 0.489005
0.661315 0.697609 0.497818
0.729194 0.729272 0.492099
0.311921 0.240335 0.541273
0.320498 0.240603 0.541166
0.353504 0.240081 0.540907
0.398809 0.238567 0.540610
0.443734 0.236757 0.540507
0.484769 0.236872 0.540748
0.522062 0.241715 0.541419
0.557517 0.273258 0.543705
0.597239 0.212628 0.552651
0.311304 0.255824 0.542175
0.330308 0.288848 0.536036
0.359688 0.291151 0.535466
0.401270 0.294023 0.535011
0.443757 0.295527 0.535464
0.483681 0.295910 0.536890
0.520780 0.296876 0.538962
0.556193 0.309699 0.542185
0.596947 0.257691 0.552300
0.282110 0.272467 0.554387
0.330433 0.329952 0.539744
0.368335 0.348403 0.531633
0.405608 0.349737 0.531892
0.445715 0.352202 0.532631
0.484185 0.356169 0.534092
0.520316 0.362028 0.536457
0.554918 0.369072 0.540195
0.599668 0.323022 0.553841
0.259484 0.367428 0.560011
0.320200 0.383599 0.549346
0.378577 0.400872 0.533082
0.412636 0.401863 0.533520
0.450771 0.402846 0.535157
0.488793 0.404511 0.537387
0.525272 0.407137 0.540223
0.560359 0.411123 0.543878
0.605753 0.390245 0.556873
0.282223 0.444681 0.557125
0.330237 0.447037 0.550819
0.389794 0.451011 0.538503
0.420774 0.451357 0.539980
0.457402 0.450784 0.544034
0.496822 0.451756 0.545635
0.534570 0.453255 0.547628
0.570896 0.455434 0.550338
0.614262 0.450799 0.559309
0.305731 0.500928 0.554877
0.342386 0.500544 0.552003
0.401632 0.499799 0.545085
0.433828 0.500609 0.545084
0.464872 0.502002 0.550827
0.504352 0.500815 0.558989
0.548060 0.501180 0.557567
0.587880 0.501714 0.557438
0.629293 0.502689 0.560524
0.326601 0.549514 0.554871
0.355617 0.549005 0.554118
0.413624 0.547793 0.552135
0.450259 0.548558 0.552249
0.477960 0.552243 0.555449
0.512535 0.557107 0.559382
0.559580 0.559580 0.559580
0.612705 0.555563 0.551860
0.656306 0.556252 0.550123
0.362950 0.601557 0.563963
0.382696 0.600920 0.563786
0.431716 0.599073 0.563383
0.469351 0.599212 0.563763
0.495705 0.604098 0.564866
0.526821 0.612334 0.564093
0.566390 0.624397 0.550352
0.628123 0.629118 0.545754
0.686060 0.637466 0.538950
0.272543 0.667097 0.585704
0.314777 0.666872 0.585621
0.389408 0.666943 0.585393
0.433558 0.670701 0.585054
0.476507 0.678355 0.583187
0.527419 0.688911 0.575983
0.583067 0.703039 0.550656
0.667069 0.717393 0.551970
0.753561 0.753183 0.556780
0.342565 0.277961 0.568269
0.348301 0.278354 0.568254
0.372261 0.279272 0.568359
0.409244 0.280605 0.568820
0.449479 0.281534 0.570045
0.488522 0.282308 0.572277
0.525528 0.283954 0.575616
0.560903 0.287932 0.580165
0.600863 0.218544 0.591892
0.342556 0.288036 0.569080
0.352325 0.301932 0.566597
0.375326 0.304153 0.566465
0.410991 0.307638 0.566605
0.450037 0.310891 0.567663
0.488267 0.313151 0.570062
0.524885 0.315067 0.573827
0.560206 0.317983 0.578915
0.600765 0.260519 0.591651
0.330489 0.304849 0.578194
0.353862 0.338515 0.569871
0.381781 0.352243 0.565364
0.414940 0.353808 0.565916
0.452474 0.356548 0.567071
0.489680 0.360678 0.569144
0.525359 0.366531 0.572405
0.560021 0.373288 0.577434
0.603243 0.325987 0.593580
0.295660 0.357264 0.592577
0.334330 0.375717 0.585149
0.389463 0.402077 0.568671
0.421300 0.403869 0.568698
0.457425 0.404938 0.570574
0.494293 0.406753 0.573345
0.530271 0.409663 0.577141
0.565370 0.414142 0.582237
0.610834 0.384874 0.599886
0.309726 0.441141 0.594053
0.343511 0.444845 0.588730
0.396985 0.451793 0.576465
0.427384 0.451830 0.577164
0.463572 0.451875 0.580026
0.501657 0.453040 0.582865
0.538937 0.454905 0.586594
0.575397 0.457868 0.591502
0.620771 0.447790 0.606996
0.327522 0.501601 0.596174
0.355254 0.501748 0.593044
0.407852 0.502122 0.584742
0.439809 0.502618 0.584003
0.469114 0.502053 0.591982
0.508727 0.500504 0.599372
0.551034 0.501680 0.602171
0.591152 0.503806 0.605939
0.636266 0.502923 0.616727
0.347568 0.553814 0.600844
0.369906 0.553321 0.599350
0.420446 0.552012 0.594928
0.455682 0.552328 0.593944
0.482274 0.555117 0.600066
0.515094 0.557838 0.611026
0.560781 0.555648 0.625731
0.613658 0.556211 0.625599
0.663431 0.557493 0.629908
0.369050 0.605787 0.611271
0.387732 0.605421 0.610781
0.435896 0.604478 0.609379
0.474453 0.605269 0.609673
0.501067 0.609980 0.614104
0.531274 0.617805 0.621560
0.570436 0.628334 0.631286
0.635540 0.635540 0.635540
0.715206 0.629450 0.625223
0.259585 0.674564 0.640640
0.308601 0.674491 0.640577
0.388968 0.675060 0.640869
0.433586 0.679232 0.643257
0.472955 0.687921 0.647786
0.521516 0.701077 0.653020
0.578050 0.720488 0.655335
0.650834 0.752347 0.630194
0.799396 0.798516 0.631192
0.362590 0.271889 0.599613
0.367206 0.272051 0.599679
0.387151 0.271012 0.600210
0.420050 0.268570 0.601443
0.458030 0.264151 0.603647
0.496359 0.258040 0.607022
0.533657 0.249667 0.611848
0.570119 0.238755 0.618407
0.606591 0.222166 0.627208
0.361102 0.274949 0.601249
0.369485 0.293575 0.599110
0.388893 0.293020 0.599639
0.421105 0.291241 0.600925
0.458590 0.287992 0.603216
0.496653 0.283036 0.606748
0.533860 0.276267 0.611748
0.570328 0.268059 0.618455
0.606907 0.255284 0.627441
0.349474 0.282433 0.610337
0.362300 0.308245 0.607093
0.389052 0.327429 0.604185
0.422261 0.325811 0.605526
0.460631 0.323353 0.607808
0.499350 0.319983 0.611261
0.537014 0.316088 0.616081
0.573770 0.312476 0.622516
0.610836 0.302702 0.631586
0.290033 0.301720 0.630300
0.321928 0.327487 0.626740
0.371609 0.350294 0.622714
0.418072 0.354168 0.622917
0.463420 0.352060 0.624518
0.506212 0.349503 0.627032
0.546239 0.346432 0.630828
0.584402 0.343635 0.636176
0.623181 0.325597 0.645210
0.272487 0.425603 0.636862
0.305645 0.428514 0.634961
0.352389 0.427589 0.635961
0.399157 0.412930 0.645214
0.464367 0.417097 0.645006
0.514279 0.413776 0.647168
0.558620 0.409733 0.650629
0.599907 0.405244 0.655678
0.643991 0.373689 0.667698
0.279318 0.500976 0.641473
0.310401 0.501299 0.640208
0.360065 0.501294 0.640431
0.394186 0.497881 0.650989
0.444235 0.485766 0.669337
0.516653 0.482441 0.672715
0.571004 0.478094 0.675529
0.618936 0.473070 0.680705
0.674820 0.433117 0.700561
0.287671 0.560282 0.648513
0.316840 0.560119 0.647805
0.369900 0.560131 0.647742
0.400543 0.561677 0.655430
0.441777 0.562961 0.669934
0.496305 0.558255 0.692274
0.571702 0.547273 0.704182
0.636073 0.542185 0.708727
0.709629 0.508855 0.736773
0.291545 0.617460 0.662143
0.322239 0.617324 0.661844
0.381185 0.617610 0.662073
0.413233 0.620847 0.667461
0.447385 0.626823 0.678436
0.493263 0.634195 0.695426
0.550667 0.638265 0.721208
0.640607 0.622854 0.752050
0.749042 0.604224 0.775041
0.205054 0.686277 0.692371
0.285516 0.686382 0.692439
0.382822 0.687622 0.693568
0.425030 0.692734 0.698678
0.453098 0.703269 0.709357
0.491296 0.720247 0.726530
0.542412 0.746869 0.753373
0.614586 0.793720 0.800464
0.954339 0.954339 0.954339
