OCIO/luts/ACES_v2.0.0/ACES v2.0.0 Output P3D65_inverse.cube
TITLE "Generated by Foundry::LUT"
LUT_3D_SIZE 65
0.072906 0.072906 0.072906
0.107366 0.074858 0.073015
0.148878 0.077259 0.073162
0.186970 0.079974 0.073351
0.214426 0.082970 0.073583
0.235953 0.086215 0.073853
0.253763 0.089679 0.074154
0.269034 0.093327 0.074475
0.282470 0.097121 0.074804
0.294520 0.101027 0.075130
0.305492 0.105008 0.075441
0.315600 0.109032 0.075727
0.325003 0.113067 0.075975
0.333819 0.117091 0.076180
0.342139 0.121082 0.076335
0.350033 0.125025 0.076434
0.357558 0.128905 0.076476
0.364758 0.132720 0.076459
0.371671 0.136469 0.076385
0.378325 0.140160 0.076255
0.384747 0.143807 0.076076
0.390956 0.147434 0.075853
0.396971 0.151068 0.075593
0.402807 0.154743 0.075305
0.408476 0.158455 0.075001
0.413989 0.162149 0.074692
0.419356 0.165877 0.074391
0.424586 0.169683 0.074112
0.429688 0.173614 0.073869
0.434668 0.177705 0.073676
0.439533 0.181979 0.073548
0.444290 0.186463 0.073501
0.448946 0.191153 0.073547
0.453508 0.196050 0.073702
0.457979 0.201150 0.073981
0.462369 0.206424 0.074394
0.466682 0.211849 0.074953
0.470923 0.217397 0.075669
0.475100 0.223031 0.076547
0.479217 0.228723 0.077595
0.483280 0.234435 0.078813
0.487293 0.240141 0.080204
0.491262 0.245811 0.081762
0.495191 0.251419 0.083482
0.499085 0.256948 0.085355
0.502947 0.262378 0.087370
0.506781 0.267696 0.089513
0.510592 0.272892 0.091766
0.514381 0.277961 0.094114
0.518152 0.282893 0.096533
0.521901 0.287766 0.099116
0.525613 0.292708 0.102065
0.529324 0.297413 0.104920
0.533036 0.301900 0.107660
0.536750 0.306190 0.110268
0.540467 0.310301 0.112732
0.544191 0.314251 0.115038
0.547922 0.318055 0.117176
0.551662 0.321725 0.119137
0.555414 0.325279 0.120915
0.559178 0.328725 0.122504
0.562959 0.332070 0.123884
0.566774 0.335254 0.124850
0.570833 0.337329 0.122664
0.576419 0.332097 0.101305
0.077843 0.101336 0.073183
0.095340 0.096113 0.073691
0.138416 0.089854 0.073684
0.181175 0.088380 0.073901
0.210714 0.089552 0.074241
0.233090 0.092031 0.074660
0.251274 0.095307 0.075153
0.266725 0.099102 0.075698
0.280241 0.103285 0.076282
0.292325 0.107746 0.076887
0.303572 0.111634 0.077213
0.313943 0.115463 0.077459
0.323575 0.119271 0.077646
0.332584 0.123065 0.077780
0.341065 0.126835 0.077861
0.349095 0.130571 0.077889
0.356733 0.134265 0.077862
0.364029 0.137910 0.077780
0.371022 0.141506 0.077645
0.377746 0.145052 0.077457
0.384227 0.148567 0.077223
0.390489 0.152064 0.076947
0.396550 0.155579 0.076639
0.402426 0.159056 0.076306
0.408130 0.162489 0.075960
0.413674 0.165918 0.075612
0.419070 0.169391 0.075273
0.424326 0.172957 0.074960
0.429451 0.176654 0.074683
0.434451 0.180519 0.074460
0.439336 0.184576 0.074303
0.444111 0.188840 0.074227
0.448784 0.193322 0.074246
0.453359 0.198025 0.074376
0.457845 0.202934 0.074630
0.462247 0.208032 0.075020
0.466571 0.213293 0.075557
0.470824 0.218684 0.076248
0.475010 0.224180 0.077105
0.479136 0.229742 0.078129
0.483207 0.235334 0.079323
0.487227 0.240935 0.080691
0.491203 0.246510 0.082225
0.495138 0.252035 0.083921
0.499038 0.257490 0.085771
0.502905 0.262855 0.087762
0.506744 0.268113 0.089878
0.510558 0.273258 0.092108
0.514351 0.278281 0.094431
0.518126 0.283173 0.096826
0.521878 0.288011 0.099386
0.525593 0.292919 0.102308
0.529307 0.297593 0.105135
0.533021 0.302055 0.107850
0.536738 0.306324 0.110435
0.540457 0.310417 0.112875
0.544183 0.314350 0.115158
0.547916 0.318140 0.117275
0.551658 0.321798 0.119216
0.555411 0.325340 0.120975
0.559177 0.328777 0.122546
0.562959 0.332115 0.123911
0.566774 0.335299 0.124881
0.570829 0.337387 0.122736
0.576420 0.332137 0.101313
0.083892 0.135837 0.073552
0.092936 0.132209 0.074533
0.122704 0.124446 0.074831
0.166810 0.116511 0.074838
0.202307 0.111365 0.074953
0.227871 0.109226 0.075275
0.247837 0.109231 0.075702
0.264357 0.110653 0.076185
0.278492 0.113189 0.076763
0.291061 0.116226 0.077287
0.302270 0.120074 0.077942
0.312552 0.124230 0.078567
0.322072 0.128659 0.079173
0.330965 0.133296 0.079753
0.339337 0.138096 0.080299
0.347265 0.143020 0.080806
0.354811 0.148039 0.081267
0.362025 0.153130 0.081679
0.368947 0.158224 0.082039
0.375611 0.163086 0.082346
0.382173 0.166797 0.082239
0.388579 0.169844 0.081884
0.394779 0.172724 0.081468
0.400787 0.175496 0.081012
0.406616 0.178205 0.080530
0.412278 0.180903 0.080041
0.417783 0.183639 0.079561
0.423141 0.186448 0.079104
0.428361 0.189377 0.078687
0.433451 0.192461 0.078325
0.438418 0.195730 0.078034
0.443270 0.199208 0.077828
0.448014 0.202904 0.077721
0.452657 0.206830 0.077728
0.457204 0.210982 0.077861
0.461664 0.215347 0.078132
0.466041 0.219912 0.078553
0.470343 0.224647 0.079130
0.474575 0.229522 0.079868
0.478742 0.234516 0.080779
0.482851 0.239589 0.081858
0.486907 0.244710 0.083106
0.490915 0.249854 0.084522
0.494880 0.254993 0.086100
0.498806 0.260098 0.087828
0.502698 0.265154 0.089699
0.506560 0.270138 0.091695
0.510395 0.275039 0.093802
0.514206 0.279844 0.096003
0.517998 0.284544 0.098277
0.521765 0.289212 0.100720
0.525497 0.293952 0.103503
0.529225 0.298481 0.106195
0.532952 0.302819 0.108781
0.536680 0.306981 0.111243
0.540410 0.310982 0.113566
0.544146 0.314836 0.115739
0.547887 0.318556 0.117751
0.551638 0.322154 0.119592
0.555398 0.325644 0.121257
0.559171 0.329035 0.122741
0.562960 0.332335 0.124028
0.566773 0.335520 0.125024
0.570826 0.337618 0.122910
0.576426 0.332336 0.101348
0.090705 0.171850 0.074046
0.097753 0.168881 0.075687
0.117347 0.163948 0.075889
0.152942 0.155785 0.076316
0.190593 0.147338 0.076404
0.219391 0.140542 0.076432
0.241832 0.136050 0.076654
0.259996 0.133755 0.077042
0.275284 0.133206 0.077523
0.288588 0.133916 0.078026
0.300383 0.135712 0.078598
0.311110 0.138116 0.079114
0.320898 0.141306 0.079714
0.330058 0.144674 0.080187
0.338602 0.148516 0.080687
0.346613 0.152889 0.081253
0.354236 0.157378 0.081749
0.361518 0.161785 0.082182
0.368499 0.166045 0.082549
0.375214 0.170170 0.082856
0.381690 0.174164 0.083106
0.387951 0.178032 0.083304
0.394016 0.181787 0.083453
0.399903 0.185445 0.083560
0.405626 0.189023 0.083633
0.411197 0.192543 0.083680
0.416626 0.196025 0.083712
0.421925 0.199492 0.083740
0.427099 0.202966 0.083776
0.432158 0.206465 0.083831
0.437109 0.210010 0.083920
0.441957 0.213616 0.084054
0.446708 0.217295 0.084245
0.451370 0.221057 0.084507
0.455993 0.224489 0.084569
0.460548 0.227895 0.084621
0.465017 0.231496 0.084817
0.469405 0.235278 0.085164
0.473718 0.239228 0.085671
0.477963 0.243326 0.086341
0.482143 0.247553 0.087178
0.486266 0.251880 0.088181
0.490336 0.256285 0.089348
0.494358 0.260742 0.090673
0.498338 0.265223 0.092145
0.502278 0.269713 0.093760
0.506184 0.274184 0.095498
0.510060 0.278623 0.097347
0.513910 0.283013 0.099291
0.517737 0.287342 0.101309
0.521536 0.291672 0.103495
0.525300 0.296074 0.105978
0.529058 0.300314 0.108383
0.532812 0.304401 0.110694
0.536564 0.308344 0.112891
0.540318 0.312156 0.114964
0.544073 0.315845 0.116898
0.547840 0.319390 0.118612
0.551612 0.322840 0.120184
0.555389 0.326217 0.121638
0.559174 0.329530 0.122971
0.562969 0.332782 0.124178
0.566785 0.335945 0.125151
0.570839 0.338031 0.123023
0.576440 0.332782 0.101428
0.098215 0.199732 0.074671
0.105230 0.197257 0.077126
0.118936 0.194822 0.077274
0.146362 0.190180 0.077561
0.181175 0.184091 0.078123
0.210394 0.177754 0.078281
0.234358 0.171813 0.078310
0.254187 0.166807 0.078380
0.270807 0.163196 0.078649
0.285129 0.160937 0.078980
0.297641 0.160156 0.079490
0.308927 0.160264 0.079919
0.319147 0.161396 0.080444
0.328568 0.163194 0.080964
0.337413 0.165200 0.081330
0.345633 0.167917 0.081843
0.353419 0.170802 0.082287
0.360869 0.173627 0.082586
0.368017 0.176371 0.082753
0.374774 0.179688 0.083131
0.381275 0.183044 0.083477
0.387563 0.186335 0.083747
0.393656 0.189570 0.083955
0.399569 0.192755 0.084108
0.405319 0.195871 0.084200
0.410916 0.198968 0.084260
0.416370 0.202059 0.084298
0.421690 0.205163 0.084328
0.426886 0.208298 0.084363
0.431964 0.211480 0.084414
0.436933 0.214724 0.084496
0.441797 0.218045 0.084621
0.446564 0.221455 0.084804
0.451240 0.224959 0.085054
0.455829 0.228564 0.085384
0.460338 0.232270 0.085804
0.464772 0.236074 0.086322
0.469135 0.239971 0.086948
0.473432 0.243952 0.087686
0.477668 0.248005 0.088541
0.481849 0.252119 0.089514
0.485977 0.256280 0.090606
0.490058 0.260472 0.091815
0.494095 0.264681 0.093137
0.498092 0.268895 0.094567
0.502054 0.273099 0.096095
0.505983 0.277282 0.097716
0.509883 0.281433 0.099416
0.513757 0.285542 0.101184
0.517609 0.289603 0.103008
0.521432 0.293679 0.104985
0.525221 0.297826 0.107226
0.529001 0.301841 0.109396
0.532776 0.305734 0.111484
0.536547 0.309513 0.113480
0.540316 0.313188 0.115377
0.544084 0.316768 0.117169
0.547854 0.320261 0.118850
0.551628 0.323676 0.120417
0.555406 0.327021 0.121867
0.559192 0.330304 0.123199
0.562988 0.333529 0.124404
0.566805 0.336666 0.125368
0.570861 0.338732 0.123216
0.576464 0.333535 0.101562
0.106379 0.221713 0.075418
0.114181 0.219397 0.078808
0.124383 0.218045 0.078910
0.145802 0.215280 0.079138
0.175826 0.211267 0.079518
0.203572 0.206520 0.080208
0.227461 0.201685 0.080386
0.247898 0.197066 0.080474
0.265530 0.192887 0.080428
0.280790 0.189441 0.080522
0.294153 0.186899 0.080773
0.306048 0.185253 0.081117
0.316846 0.184308 0.081416
0.326667 0.184233 0.081862
0.335817 0.184568 0.082178
0.344302 0.185591 0.082617
0.352310 0.186925 0.082981
0.359899 0.188549 0.083304
0.367201 0.190072 0.083383
0.374036 0.192453 0.083841
0.380661 0.194678 0.084078
0.387076 0.196843 0.084173
0.393295 0.198959 0.084151
0.399313 0.201123 0.084083
0.405060 0.203903 0.084329
0.410659 0.206667 0.084513
0.416120 0.209439 0.084655
0.421449 0.212234 0.084773
0.426654 0.215071 0.084881
0.431744 0.217964 0.084996
0.436728 0.220882 0.085102
0.441609 0.223886 0.085244
0.446392 0.226987 0.085436
0.451082 0.230192 0.085692
0.455687 0.233507 0.086023
0.460209 0.236931 0.086440
0.464656 0.240464 0.086954
0.469032 0.244099 0.087572
0.473341 0.247829 0.088299
0.477589 0.251644 0.089141
0.481780 0.255531 0.090100
0.485918 0.259478 0.091177
0.490008 0.263469 0.092370
0.494053 0.267491 0.093676
0.498059 0.271529 0.095088
0.502027 0.275570 0.096600
0.505963 0.279603 0.098203
0.509869 0.283615 0.099886
0.513749 0.287596 0.101639
0.517605 0.291539 0.103446
0.521432 0.295511 0.105418
0.525225 0.299551 0.107641
0.529010 0.303472 0.109795
0.532789 0.307279 0.111870
0.536563 0.310982 0.113855
0.540334 0.314589 0.115742
0.544105 0.318107 0.117526
0.547877 0.321544 0.119200
0.551652 0.324908 0.120762
0.555432 0.328206 0.122208
0.559219 0.331446 0.123537
0.563016 0.334632 0.124739
0.566835 0.337730 0.125692
0.570894 0.339769 0.123500
0.576501 0.334647 0.101756
0.115154 0.239999 0.076266
0.124155 0.237752 0.080673
0.132152 0.236927 0.080753
0.149362 0.235180 0.080944
0.174327 0.232507 0.081236
0.199434 0.229089 0.081703
0.222293 0.225265 0.082513
0.242531 0.221422 0.082679
0.260350 0.217710 0.082805
0.276152 0.214246 0.082716
0.290194 0.211173 0.082643
0.302742 0.208623 0.082673
0.314019 0.206728 0.082891
0.324330 0.205369 0.083101
0.333797 0.204624 0.083415
0.342621 0.204314 0.083682
0.350878 0.204457 0.083969
0.358707 0.204838 0.084132
0.366101 0.205638 0.084367
0.373172 0.206617 0.084511
0.379893 0.208020 0.084786
0.386448 0.209171 0.084698
0.392713 0.210724 0.084771
0.398707 0.212711 0.085038
0.404559 0.214589 0.085114
0.410265 0.216446 0.085077
0.415830 0.218307 0.084956
0.421266 0.220147 0.084743
0.426525 0.222343 0.084723
0.431608 0.224992 0.084978
0.436586 0.227701 0.085228
0.441465 0.230486 0.085493
0.446249 0.233359 0.085790
0.450943 0.236331 0.086137
0.455552 0.239407 0.086546
0.460081 0.242593 0.087033
0.464538 0.245855 0.087579
0.468925 0.249212 0.088213
0.473245 0.252671 0.088950
0.477504 0.256222 0.089796
0.481706 0.259855 0.090756
0.485854 0.263557 0.091829
0.489954 0.267315 0.093016
0.494009 0.271117 0.094313
0.498023 0.274947 0.095715
0.502000 0.278792 0.097214
0.505943 0.282642 0.098804
0.509856 0.286484 0.100474
0.513742 0.290308 0.102212
0.517604 0.294105 0.104005
0.521436 0.297946 0.105976
0.525235 0.301853 0.108183
0.529024 0.305652 0.110320
0.532807 0.309352 0.112381
0.536585 0.312956 0.114353
0.540360 0.316474 0.116231
0.544133 0.319912 0.118005
0.547908 0.323275 0.119674
0.551686 0.326572 0.121230
0.555468 0.329810 0.122672
0.559257 0.332994 0.123999
0.563056 0.336129 0.125200
0.566876 0.339175 0.126136
0.570940 0.341175 0.123888
0.576551 0.336152 0.102016
0.124497 0.255766 0.077189
0.132927 0.254034 0.081368
0.141479 0.253017 0.082749
0.155677 0.251860 0.082895
0.175961 0.250022 0.083146
0.197818 0.247568 0.083512
0.219036 0.244647 0.084069
0.238504 0.241493 0.084982
0.256097 0.238348 0.085102
0.271907 0.235291 0.085257
0.286206 0.232390 0.085148
0.299177 0.229704 0.084924
0.310932 0.227365 0.084833
0.321668 0.225413 0.084814
0.331526 0.223903 0.084910
0.340716 0.222701 0.084903
0.349222 0.222049 0.085141
0.357252 0.221680 0.085286
0.364896 0.221487 0.085271
0.372072 0.221850 0.085537
0.378973 0.222311 0.085620
0.385596 0.222967 0.085659
0.391998 0.223688 0.085558
0.398078 0.224980 0.085803
0.404040 0.226084 0.085713
0.409880 0.227016 0.085337
0.415411 0.228800 0.085580
0.420805 0.230651 0.085767
0.426094 0.232465 0.085817
0.431271 0.234311 0.085801
0.436341 0.236217 0.085749
0.441308 0.238204 0.085689
0.446184 0.240211 0.085575
0.450900 0.242777 0.085892
0.455502 0.245653 0.086442
0.460028 0.248621 0.087044
0.464482 0.251686 0.087713
0.468867 0.254847 0.088462
0.473188 0.258102 0.089300
0.477448 0.261445 0.090235
0.481652 0.264867 0.091272
0.485804 0.268360 0.092414
0.489909 0.271906 0.093653
0.493972 0.275475 0.094962
0.497994 0.279082 0.096373
0.501979 0.282715 0.097876
0.505930 0.286364 0.099467
0.509850 0.290015 0.101133
0.513743 0.293661 0.102867
0.517611 0.297290 0.104654
0.521447 0.300982 0.106636
0.525252 0.304733 0.108830
0.529048 0.308392 0.110958
0.532835 0.311962 0.113008
0.536617 0.315451 0.114973
0.540396 0.318862 0.116843
0.544173 0.322202 0.118612
0.547951 0.325477 0.120276
0.551731 0.328693 0.121829
0.555515 0.331856 0.123270
0.559306 0.334972 0.124596
0.563107 0.338043 0.125797
0.566931 0.341024 0.126711
0.571001 0.342975 0.124386
0.576619 0.338074 0.102339
0.134370 0.269710 0.078158
0.141839 0.268433 0.081837
0.151908 0.267170 0.084814
0.163522 0.266363 0.084952
0.179774 0.265058 0.085176
0.198413 0.263269 0.085480
0.217535 0.261059 0.085917
0.235907 0.258545 0.086573
0.252896 0.255895 0.087568
0.268490 0.253269 0.087623
0.282723 0.250700 0.087771
0.295787 0.248238 0.087636
0.307799 0.245919 0.087365
0.318861 0.243797 0.087080
0.329062 0.241944 0.086891
0.338507 0.240409 0.086825
0.347326 0.239167 0.086778
0.355610 0.238210 0.086739
0.363449 0.237483 0.086634
0.370848 0.237107 0.086664
0.377869 0.237068 0.086800
0.384626 0.237136 0.086768
0.391146 0.237297 0.086587
0.397351 0.237905 0.086699
0.403393 0.238504 0.086585
0.409288 0.239070 0.086254
0.414872 0.240363 0.086535
0.420363 0.241546 0.086536
0.425768 0.242557 0.086222
0.431035 0.243718 0.085937
0.436048 0.245722 0.086388
0.440987 0.247664 0.086669
0.445841 0.249632 0.086879
0.450609 0.251678 0.087076
0.455293 0.253820 0.087290
0.459895 0.256073 0.087544
0.464423 0.258416 0.087825
0.468883 0.260847 0.088139
0.473209 0.263830 0.089026
0.477464 0.266988 0.090098
0.481666 0.270215 0.091250
0.485817 0.273507 0.092489
0.489922 0.276855 0.093817
0.493984 0.280250 0.095234
0.498006 0.283682 0.096740
0.501991 0.287142 0.098328
0.505943 0.290620 0.099993
0.509865 0.294105 0.101727
0.513760 0.297589 0.103517
0.517632 0.301056 0.105342
0.521472 0.304587 0.107356
0.525283 0.308169 0.109553
0.529083 0.311673 0.111682
0.532876 0.315103 0.113734
0.536662 0.318460 0.115698
0.540445 0.321752 0.117570
0.544225 0.324982 0.119341
0.548006 0.328156 0.121006
0.551789 0.331278 0.122562
0.555576 0.334355 0.124006
0.559370 0.337391 0.125337
0.563172 0.340387 0.126541
0.567000 0.343291 0.127428
0.571079 0.345182 0.125001
0.576707 0.340421 0.102721
0.144741 0.282279 0.079144
0.151405 0.281315 0.082407
0.162883 0.279885 0.086934
0.171856 0.279306 0.087044
0.184941 0.278352 0.087248
0.200715 0.277017 0.087535
0.217654 0.275331 0.087911
0.234593 0.273354 0.088418
0.250809 0.271176 0.089158
0.265913 0.268917 0.090233
0.279945 0.266689 0.090214
0.292913 0.264500 0.090318
0.304944 0.262388 0.090178
0.316135 0.260373 0.089840
0.326554 0.258485 0.089433
0.336253 0.256781 0.089099
0.345328 0.255271 0.088785
0.353827 0.254015 0.088600
0.361834 0.253004 0.088475
0.369421 0.252218 0.088359
0.376649 0.251630 0.088212
0.383536 0.251293 0.088137
0.390155 0.251103 0.087977
0.396573 0.250930 0.087569
0.402628 0.251362 0.087777
0.408633 0.251437 0.087255
0.414290 0.252275 0.087537
0.419873 0.252909 0.087352
0.425367 0.253422 0.086842
0.430553 0.254807 0.087247
0.435666 0.256123 0.087403
0.440706 0.257358 0.087317
0.445670 0.258552 0.087052
0.450466 0.260239 0.087249
0.455105 0.262434 0.087944
0.459689 0.264596 0.088504
0.464205 0.266823 0.089053
0.468654 0.269142 0.089634
0.473038 0.271560 0.090269
0.477359 0.274084 0.090976
0.481621 0.276714 0.091769
0.485833 0.279401 0.092595
0.489995 0.282176 0.093505
0.494056 0.285369 0.095013
0.498074 0.288637 0.096651
0.502057 0.291928 0.098353
0.506008 0.295237 0.100117
0.509930 0.298555 0.101935
0.513826 0.301875 0.103802
0.517698 0.305190 0.105705
0.521536 0.308595 0.107840
0.525346 0.312036 0.110120
0.529147 0.315406 0.112324
0.532940 0.318707 0.114439
0.536727 0.321943 0.116458
0.540511 0.325119 0.118374
0.544293 0.328238 0.120180
0.548077 0.331302 0.121859
0.551863 0.334321 0.123427
0.555653 0.337302 0.124884
0.559448 0.340249 0.126226
0.563253 0.343163 0.127439
0.567086 0.345978 0.128294
0.571175 0.347798 0.125732
0.576816 0.343193 0.103150
0.155585 0.293775 0.080123
0.161345 0.293034 0.083037
0.173221 0.291498 0.089058
0.180282 0.291067 0.089166
0.190899 0.290354 0.089339
0.204234 0.289337 0.089620
0.219100 0.288034 0.089958
0.234504 0.286472 0.090414
0.249698 0.284707 0.091000
0.264233 0.282806 0.091820
0.277857 0.280861 0.092953
0.290637 0.278948 0.092846
0.302570 0.277060 0.092869
0.313732 0.275233 0.092721
0.324202 0.273480 0.092370
0.334040 0.271811 0.091876
0.343282 0.270262 0.091384
0.351988 0.268849 0.090894
0.360184 0.267635 0.090562
0.367971 0.266558 0.090154
0.375326 0.265751 0.090003
0.382360 0.265098 0.089788
0.389100 0.264610 0.089557
0.395581 0.264273 0.089290
0.401874 0.263954 0.088769
0.407821 0.264173 0.088918
0.413675 0.264244 0.088553
0.419286 0.264691 0.088557
0.424849 0.264876 0.087944
0.430087 0.265905 0.088396
0.435297 0.266660 0.088244
0.440439 0.267315 0.087777
0.445323 0.268755 0.088260
0.450125 0.270260 0.088675
0.454862 0.271767 0.088942
0.459546 0.273210 0.088983
0.464159 0.274723 0.088991
0.468594 0.276920 0.089855
0.472943 0.279336 0.090944
0.477252 0.281728 0.091918
0.481510 0.284189 0.092920
0.485717 0.286727 0.093976
0.489874 0.289344 0.095101
0.493986 0.292038 0.096303
0.498054 0.294804 0.097590
0.502082 0.297637 0.098963
0.506080 0.300480 0.100335
0.510043 0.303381 0.101795
0.513938 0.306534 0.103752
0.517807 0.309711 0.105786
0.521640 0.312989 0.108073
0.525449 0.316289 0.110463
0.529249 0.319522 0.112763
0.533042 0.322695 0.114967
0.536829 0.325809 0.117065
0.540613 0.328870 0.119055
0.544395 0.331881 0.120931
0.548177 0.334848 0.122688
0.551962 0.337775 0.124326
0.555751 0.340666 0.125841
0.559547 0.343526 0.127231
0.563352 0.346354 0.128481
0.567191 0.349073 0.129297
0.571293 0.350813 0.126565
0.576951 0.346377 0.103608
0.166136 0.304414 0.081073
0.170764 0.303834 0.083697
0.182870 0.302237 0.091149
0.188544 0.301907 0.091260
0.197278 0.301360 0.091432
0.208567 0.300574 0.091686
0.221565 0.299554 0.091993
0.235459 0.298309 0.092429
0.249529 0.296878 0.092937
0.263314 0.295300 0.093622
0.276506 0.293631 0.094523
0.288941 0.291941 0.095708
0.300697 0.290284 0.095505
0.311761 0.288645 0.095466
0.322184 0.287054 0.095300
0.332031 0.285519 0.094910
0.341351 0.284043 0.094333
0.350182 0.282635 0.093641
0.358512 0.281372 0.093156
0.366434 0.280211 0.092602
0.373950 0.279221 0.092202
0.381164 0.278297 0.091594
0.387999 0.277651 0.091386
0.394581 0.277112 0.091068
0.400923 0.276706 0.090723
0.407077 0.276344 0.090175
0.412956 0.276322 0.090063
0.418658 0.276434 0.089931
0.424254 0.276498 0.089452
0.429605 0.277015 0.089573
0.434867 0.277505 0.089409
0.440035 0.277991 0.089034
0.444957 0.279142 0.089590
0.449857 0.280079 0.089586
0.454698 0.280976 0.089336
0.459343 0.282468 0.089901
0.463889 0.284176 0.090663
0.468382 0.285907 0.091314
0.472829 0.287629 0.091811
0.477225 0.289381 0.092226
0.481559 0.291250 0.092715
0.485729 0.293788 0.094266
0.489861 0.296360 0.095812
0.493966 0.298901 0.097241
0.498032 0.301493 0.098709
0.502062 0.304137 0.100225
0.506056 0.306830 0.101795
0.510019 0.309566 0.103422
0.513951 0.312342 0.105105
0.517856 0.315153 0.106842
0.521719 0.318104 0.108887
0.525561 0.321071 0.110976
0.529388 0.324021 0.113034
0.533182 0.327050 0.115313
0.536966 0.330052 0.117548
0.540746 0.333005 0.119659
0.544526 0.335913 0.121644
0.548306 0.338780 0.123502
0.552089 0.341611 0.125231
0.555877 0.344412 0.126830
0.559671 0.347185 0.128299
0.563476 0.349930 0.129615
0.567324 0.352535 0.130351
0.571455 0.354136 0.127224
0.577152 0.349798 0.103596
0.175841 0.314351 0.081976
0.179614 0.313890 0.084352
0.191892 0.312267 0.093189
0.196519 0.312010 0.093284
0.203785 0.311583 0.093444
0.213429 0.310960 0.093719
0.224809 0.310147 0.094041
0.237269 0.309148 0.094437
0.250204 0.307981 0.094923
0.263143 0.306675 0.095515
0.275765 0.305264 0.096266
0.287863 0.303793 0.097245
0.299321 0.302316 0.098486
0.310224 0.300871 0.098186
0.320557 0.299437 0.098040
0.330346 0.298043 0.097842
0.339652 0.296691 0.097389
0.348510 0.295381 0.096728
0.356923 0.294151 0.096111
0.364957 0.292973 0.095325
0.372585 0.291928 0.094763
0.379885 0.290973 0.094138
0.386871 0.290138 0.093567
0.393573 0.289424 0.093028
0.399996 0.288887 0.092669
0.406201 0.288454 0.092253
0.412218 0.288098 0.091723
0.418027 0.287916 0.091336
0.423607 0.288020 0.091335
0.429117 0.288005 0.090779
0.434382 0.288433 0.090940
0.439626 0.288625 0.090348
0.444605 0.289451 0.090832
0.449567 0.290075 0.090666
0.454408 0.290889 0.090670
0.459068 0.292196 0.091429
0.463710 0.293345 0.091682
0.468300 0.294495 0.091750
0.472749 0.296059 0.092447
0.477087 0.297945 0.093613
0.481382 0.299858 0.094687
0.485635 0.301809 0.095702
0.489857 0.303740 0.096548
0.494033 0.305746 0.097424
0.498137 0.307973 0.098654
0.502139 0.310580 0.100625
0.506114 0.313201 0.102577
0.510073 0.315786 0.104398
0.514005 0.318400 0.106234
0.517912 0.321039 0.108090
0.521776 0.323828 0.110282
0.525618 0.326636 0.112511
0.529447 0.329425 0.114678
0.533264 0.332196 0.116780
0.537071 0.334950 0.118812
0.540872 0.337680 0.120746
0.544670 0.340383 0.122565
0.548465 0.343077 0.124314
0.552249 0.345796 0.126101
0.556033 0.348510 0.127827
0.559824 0.351200 0.129412
0.563626 0.353863 0.130827
0.567484 0.356354 0.131482
0.571649 0.357807 0.127889
0.577396 0.353553 0.103410
0.184842 0.323704 0.082822
0.187962 0.323333 0.084987
0.200318 0.321712 0.095119
0.204199 0.321503 0.095256
0.210341 0.321159 0.095442
0.218598 0.320664 0.095680
0.228586 0.320008 0.096015
0.239750 0.319197 0.096397
0.251591 0.318239 0.096879
0.263658 0.317154 0.097436
0.275632 0.315965 0.098111
0.287285 0.314702 0.098948
0.298474 0.313400 0.099994
0.309116 0.312103 0.101276
0.319298 0.310837 0.100877
0.329002 0.309578 0.100633
0.338243 0.308352 0.100382
0.347063 0.307164 0.099939
0.355496 0.306015 0.099292
0.363573 0.304901 0.098442
0.371279 0.303868 0.097714
0.378684 0.302873 0.096788
0.385758 0.301996 0.096080
0.392522 0.301260 0.095601
0.399089 0.300528 0.094740
0.405355 0.300023 0.094378
0.411426 0.299598 0.093912
0.417312 0.299270 0.093415
0.423055 0.298966 0.092685
0.428533 0.299039 0.092727
0.433900 0.299145 0.092537
0.439175 0.299243 0.092045
0.444232 0.299745 0.092300
0.449243 0.300157 0.092062
0.454098 0.300862 0.092273
0.458837 0.301758 0.092684
0.463551 0.302542 0.092602
0.468116 0.303695 0.093145
0.472559 0.305163 0.094188
0.476987 0.306518 0.094778
0.481372 0.307896 0.095227
0.485661 0.309530 0.096083
