OCIO/luts/ACES_v2.0.0/ACES v2.0.0 Output Rec709.cube
TITLE "Generated by Foundry::LUT"
LUT_3D_SIZE 65
0.000000 0.000000 0.000000
0.000000 0.000000 0.000000
0.000000 0.000000 0.000000
0.000000 0.000000 0.000000
0.000000 0.000000 0.000000
0.001702 0.000001 0.000185
0.006400 0.000006 0.000711
0.010917 0.000009 0.001223
0.015333 0.000008 0.001725
0.019675 0.000010 0.002219
0.023957 0.000000 0.002707
0.028665 0.000000 0.003245
0.034280 0.000028 0.003886
0.040965 0.000034 0.004650
0.048911 0.000032 0.005559
0.058337 0.000052 0.006638
0.069486 0.000048 0.007917
0.082634 0.000050 0.009429
0.098077 0.000000 0.011212
0.116132 0.000000 0.013309
0.137123 0.000000 0.015766
0.161369 0.000118 0.018636
0.189162 0.000053 0.021968
0.220743 0.000103 0.025809
0.256275 0.000159 0.030192
0.295821 0.000053 0.035125
0.339322 0.000138 0.040579
0.386598 0.000424 0.046480
0.437358 0.000330 0.052704
0.491223 0.000321 0.059090
0.547766 0.000258 0.065449
0.606534 0.000506 0.071585
0.667072 0.000000 0.077304
0.728926 0.000000 0.082428
0.791131 0.000826 0.086589
0.852321 0.000606 0.089269
0.914032 0.000669 0.091102
0.975205 0.000616 0.093522
1.000000 0.097811 0.135579
1.000000 0.221056 0.195542
1.000000 0.287553 0.242345
1.000000 0.336432 0.281281
1.000000 0.376256 0.315336
1.000000 0.410601 0.346165
1.000000 0.441353 0.374791
1.000000 0.469832 0.402090
1.000000 0.497032 0.428827
1.000000 0.523754 0.455692
1.000000 0.550666 0.483322
1.000000 0.578341 0.512306
1.000000 0.607276 0.543194
1.000000 0.637898 0.576488
1.000000 0.670559 0.612632
1.000000 0.705503 0.651957
1.000000 0.742793 0.694587
1.000000 0.782179 0.740269
1.000000 0.822863 0.788057
1.000000 0.862991 0.835701
1.000000 0.899775 0.879730
1.000000 0.930110 0.916198
1.000000 0.952791 0.943504
1.000000 0.968652 0.962585
1.000000 0.979453 0.975553
1.000000 0.986764 0.984307
1.000000 0.991756 0.990265
0.000000 0.000000 0.000000
0.000000 0.000000 0.000000
0.000000 0.000000 0.000000
0.000000 0.000000 0.000000
0.000000 0.000000 0.000000
0.001702 0.000001 0.000185
0.006400 0.000006 0.000711
0.010917 0.000009 0.001223
0.015333 0.000008 0.001725
0.019675 0.000010 0.002219
0.023957 0.000000 0.002707
0.028665 0.000030 0.003245
0.034280 0.000028 0.003886
0.040965 0.000034 0.004650
0.048911 0.000032 0.005559
0.058337 0.000052 0.006638
0.069486 0.000048 0.007917
0.082634 0.000050 0.009429
0.098077 0.000000 0.011212
0.116132 0.000000 0.013309
0.137123 0.000000 0.015766
0.161369 0.000118 0.018636
0.189162 0.000053 0.021968
0.220743 0.000103 0.025809
0.256275 0.000159 0.030192
0.295821 0.000053 0.035125
0.339322 0.000117 0.040579
0.386598 0.000423 0.046480
0.437358 0.000330 0.052704
0.491223 0.000329 0.059090
0.547766 0.000258 0.065449
0.606534 0.000506 0.071585
0.667072 0.000000 0.077304
0.728926 0.000000 0.082428
0.791131 0.000000 0.086589
0.852321 0.000606 0.089269
0.914032 0.000000 0.091102
0.975205 0.000616 0.093522
1.000000 0.097811 0.135579
1.000000 0.221056 0.195542
1.000000 0.287553 0.242345
1.000000 0.336432 0.281281
1.000000 0.376255 0.315336
1.000000 0.410601 0.346165
1.000000 0.441353 0.374791
1.000000 0.469832 0.402091
1.000000 0.497032 0.428827
1.000000 0.523754 0.455692
1.000000 0.550666 0.483322
1.000000 0.578341 0.512306
1.000000 0.607276 0.543194
1.000000 0.637898 0.576489
1.000000 0.670559 0.612632
1.000000 0.705503 0.651957
1.000000 0.742794 0.694588
1.000000 0.782179 0.740269
1.000000 0.822863 0.788057
1.000000 0.862991 0.835701
1.000000 0.899775 0.879730
1.000000 0.930110 0.916198
1.000000 0.952791 0.943503
1.000000 0.968652 0.962585
1.000000 0.979453 0.975553
1.000000 0.986764 0.984307
1.000000 0.991757 0.990265
0.000000 0.000000 0.000000
0.000000 0.000000 0.000000
0.000000 0.000000 0.000000
0.000000 0.000000 0.000000
0.000000 0.000000 0.000000
0.001702 0.000001 0.000185
0.006400 0.000006 0.000711
0.010917 0.000009 0.001223
0.015333 0.000008 0.001725
0.019675 0.000010 0.002219
0.023957 0.000000 0.002707
0.028665 0.000000 0.003245
0.034280 0.000028 0.003886
0.040965 0.000034 0.004650
0.048911 0.000032 0.005559
0.058337 0.000052 0.006638
0.069486 0.000048 0.007917
0.082634 0.000050 0.009429
0.098077 0.000000 0.011212
0.116132 0.000000 0.013309
0.137123 0.000000 0.015766
0.161369 0.000000 0.018636
0.189162 0.000053 0.021968
0.220743 0.000103 0.025809
0.256275 0.000159 0.030192
0.295821 0.000053 0.035125
0.339322 0.000117 0.040579
0.386598 0.000423 0.046480
0.437358 0.000330 0.052704
0.491223 0.000321 0.059090
0.547766 0.000258 0.065449
0.606534 0.000506 0.071585
0.667072 0.000000 0.077304
0.728926 0.000000 0.082428
0.791131 0.000000 0.086589
0.852321 0.000606 0.089269
0.914032 0.000000 0.091102
0.975205 0.000616 0.093522
1.000000 0.097811 0.135579
1.000000 0.221056 0.195542
1.000000 0.287553 0.242345
1.000000 0.336432 0.281281
1.000000 0.376256 0.315336
1.000000 0.410601 0.346165
1.000000 0.441353 0.374791
1.000000 0.469832 0.402091
1.000000 0.497032 0.428827
1.000000 0.523754 0.455692
1.000000 0.550666 0.483322
1.000000 0.578341 0.512306
1.000000 0.607276 0.543194
1.000000 0.637898 0.576488
1.000000 0.670559 0.612632
1.000000 0.705503 0.651957
1.000000 0.742793 0.694587
1.000000 0.782177 0.740267
1.000000 0.822863 0.788057
1.000000 0.862991 0.835701
1.000000 0.899775 0.879730
1.000000 0.930110 0.916197
1.000000 0.952791 0.943503
1.000000 0.968651 0.962585
1.000000 0.979452 0.975552
1.000000 0.986764 0.984307
1.000000 0.991756 0.990265
0.000000 0.000000 0.000000
0.000000 0.000000 0.000000
0.000000 0.000000 0.000000
0.000000 0.000000 0.000000
0.000000 0.000000 0.000000
0.001702 0.000000 0.000185
0.006400 0.000006 0.000711
0.010917 0.000009 0.001223
0.015333 0.000008 0.001725
0.019675 0.000010 0.002219
0.023957 0.000000 0.002707
0.028665 0.000000 0.003245
0.034280 0.000016 0.003886
0.040965 0.000034 0.004650
0.048911 0.000032 0.005559
0.058337 0.000052 0.006638
0.069486 0.000048 0.007917
0.082634 0.000000 0.009429
0.098077 0.000000 0.011212
0.116132 0.000000 0.013309
0.137123 0.000000 0.015766
0.161369 0.000000 0.018636
0.189162 0.000053 0.021968
0.220743 0.000103 0.025809
0.256275 0.000159 0.030192
0.295821 0.000053 0.035125
0.339322 0.000138 0.040579
0.386598 0.000423 0.046480
0.437358 0.000330 0.052704
0.491223 0.000321 0.059090
0.547766 0.000258 0.065449
0.606534 0.000506 0.071585
0.667072 0.000000 0.077304
0.728926 0.000000 0.082428
0.791131 0.000000 0.086589
0.852321 0.000606 0.089269
0.914032 0.000669 0.091102
0.975205 0.000616 0.093522
1.000000 0.097811 0.135579
1.000000 0.221056 0.195542
1.000000 0.287553 0.242345
1.000000 0.336432 0.281281
1.000000 0.376255 0.315336
1.000000 0.410601 0.346166
1.000000 0.441353 0.374791
1.000000 0.469832 0.402091
1.000000 0.497032 0.428827
1.000000 0.523754 0.455692
1.000000 0.550666 0.483322
1.000000 0.578341 0.512306
1.000000 0.607276 0.543194
1.000000 0.637897 0.576488
1.000000 0.670559 0.612632
1.000000 0.705503 0.651957
1.000000 0.742793 0.694587
1.000000 0.782179 0.740269
1.000000 0.822864 0.788058
1.000000 0.862991 0.835701
1.000000 0.899775 0.879730
1.000000 0.930110 0.916197
1.000000 0.952791 0.943503
1.000000 0.968651 0.962585
1.000000 0.979453 0.975553
1.000000 0.986764 0.984307
1.000000 0.991756 0.990265
0.000000 0.000000 0.000000
0.000000 0.000000 0.000000
0.000000 0.000000 0.000000
0.000000 0.000000 0.000000
0.000000 0.000000 0.000000
0.001702 0.000001 0.000185
0.006400 0.000006 0.000711
0.010917 0.000009 0.001223
0.015333 0.000008 0.001725
0.019675 0.000010 0.002219
0.023957 0.000000 0.002707
0.028665 0.000030 0.003245
0.034280 0.000028 0.003886
0.040965 0.000034 0.004650
0.048911 0.000032 0.005559
0.058337 0.000052 0.006638
0.069486 0.000048 0.007917
0.082634 0.000050 0.009429
0.098077 0.000000 0.011212
0.116132 0.000000 0.013309
0.137123 0.000000 0.015766
0.161369 0.000000 0.018636
0.189162 0.000053 0.021968
0.220743 0.000085 0.025809
0.256275 0.000159 0.030192
0.295821 0.000053 0.035125
0.339322 0.000117 0.040579
0.386598 0.000423 0.046480
0.437358 0.000320 0.052704
0.491223 0.000329 0.059090
0.547766 0.000258 0.065449
0.606534 0.000506 0.071585
0.667072 0.000000 0.077304
0.728926 0.000000 0.082428
0.791131 0.000826 0.086589
0.852321 0.000606 0.089269
0.914032 0.000669 0.091102
0.975205 0.000616 0.093522
1.000000 0.097811 0.135579
1.000000 0.221056 0.195542
1.000000 0.287553 0.242345
1.000000 0.336432 0.281281
1.000000 0.376255 0.315336
1.000000 0.410601 0.346165
1.000000 0.441353 0.374791
1.000000 0.469832 0.402090
1.000000 0.497032 0.428827
1.000000 0.523754 0.455692
1.000000 0.550666 0.483322
1.000000 0.578341 0.512306
1.000000 0.607276 0.543194
1.000000 0.637897 0.576488
1.000000 0.670559 0.612632
1.000000 0.705503 0.651957
1.000000 0.742793 0.694587
1.000000 0.782179 0.740269
1.000000 0.822864 0.788058
1.000000 0.862991 0.835701
1.000000 0.899775 0.879730
1.000000 0.930110 0.916198
1.000000 0.952791 0.943503
1.000000 0.968651 0.962585
1.000000 0.979453 0.975553
1.000000 0.986764 0.984307
1.000000 0.991757 0.990265
0.000000 0.001890 0.000823
0.000000 0.001890 0.000823
0.000000 0.001890 0.000823
0.000000 0.001890 0.000823
0.000000 0.001890 0.000823
0.002668 0.002649 0.000001
0.007770 0.003897 0.000000
0.012439 0.004725 0.000000
0.016970 0.005316 0.000000
0.021414 0.005731 0.000000
0.025787 0.006013 0.000006
0.030600 0.006146 0.000008
0.036322 0.006130 0.000008
0.043147 0.005689 0.000011
0.051247 0.004361 0.000000
0.060840 0.000000 0.000014
0.072018 0.000000 0.000025
0.085074 0.000026 0.000019
0.100419 0.000090 0.005306
0.118372 0.000038 0.008295
0.139258 0.000000 0.011294
0.163396 0.000077 0.014571
0.191079 0.000067 0.018248
0.222531 0.000124 0.022360
0.257916 0.000217 0.026977
0.297308 0.000123 0.032133
0.340654 0.000237 0.037798
0.387778 0.000114 0.043899
0.438392 0.000000 0.050311
0.492124 0.000385 0.056872
0.548548 0.000000 0.063393
0.607212 0.000428 0.069679
0.667661 0.000576 0.075536
0.729442 0.000557 0.080785
0.791571 0.000431 0.085051
0.852723 0.000227 0.087829
0.914402 0.000713 0.089747
0.975516 0.000690 0.092345
1.000000 0.099477 0.135249
1.000000 0.221614 0.195415
1.000000 0.287901 0.242274
1.000000 0.336683 0.281243
1.000000 0.376448 0.315320
1.000000 0.410757 0.346165
1.000000 0.441479 0.374800
1.000000 0.469935 0.402105
1.000000 0.497118 0.428846
1.000000 0.523826 0.455713
1.000000 0.550726 0.483344
1.000000 0.578392 0.512329
1.000000 0.607319 0.543217
1.000000 0.637935 0.576511
1.000000 0.670590 0.612653
1.000000 0.705530 0.651977
1.000000 0.742815 0.694606
1.000000 0.782197 0.740285
1.000000 0.822878 0.788071
1.000000 0.863004 0.835714
1.000000 0.899784 0.879740
1.000000 0.930114 0.916202
1.000000 0.952793 0.943506
1.000000 0.968653 0.962588
1.000000 0.979453 0.975553
1.000000 0.986765 0.984307
1.000000 0.991757 0.990265
0.000006 0.007106 0.003103
0.000000 0.007106 0.003103
0.000000 0.007106 0.003103
0.000000 0.007106 0.003103
0.000000 0.007106 0.003103
0.002374 0.008228 0.000004
0.009995 0.009922 0.000007
0.015145 0.011313 0.000000
0.019892 0.012513 0.000000
0.024450 0.013570 0.000000
0.028890 0.014514 0.000008
0.033735 0.015458 0.000000
0.039480 0.016471 0.000000
0.046287 0.017545 0.000014
0.054362 0.018639 0.000014
0.063912 0.019729 0.000000
0.075183 0.020761 0.000000
0.088461 0.021619 0.000019
0.104038 0.022169 0.000025
0.122217 0.022244 0.000034
0.143347 0.021364 0.000000
0.167739 0.018650 0.000060
0.195665 0.011106 0.000000
0.227306 0.000000 0.000071
0.262260 0.000140 0.000060
0.301244 0.000000 0.017070
0.344206 0.000190 0.025748
0.390974 0.000325 0.033681
0.441262 0.000342 0.041417
0.494694 0.000396 0.049021
0.550832 0.000084 0.056413
0.609223 0.000000 0.063445
0.669415 0.000210 0.069870
0.730977 0.000625 0.075573
0.792883 0.000000 0.080208
0.853926 0.000667 0.083308
0.915508 0.000000 0.085511
0.976440 0.000842 0.088712
1.000000 0.104289 0.134266
1.000000 0.223276 0.195035
1.000000 0.288937 0.242064
1.000000 0.337433 0.281131
1.000000 0.377038 0.315282
1.000000 0.411223 0.346166
1.000000 0.441857 0.374827
1.000000 0.470245 0.402150
1.000000 0.497375 0.428901
1.000000 0.524040 0.455775
1.000000 0.550906 0.483410
1.000000 0.578544 0.512396
1.000000 0.607448 0.543283
1.000000 0.638044 0.576576
1.000000 0.670683 0.612716
1.000000 0.705609 0.652037
1.000000 0.742882 0.694660
1.000000 0.782256 0.740339
1.000000 0.822924 0.788115
1.000000 0.863042 0.835754
1.000000 0.899810 0.879768
1.000000 0.930132 0.916222
1.000000 0.952801 0.943514
1.000000 0.968657 0.962591
1.000000 0.979456 0.975556
1.000000 0.986766 0.984307
1.000000 0.991757 0.990266
0.000000 0.012112 0.005294
0.000000 0.012112 0.005294
0.000000 0.012112 0.005294
0.000000 0.012112 0.005294
0.000000 0.012112 0.005294
0.000013 0.013289 0.003346
0.011090 0.015302 0.000008
0.016964 0.016842 0.000011
0.022055 0.018217 0.000000
0.026814 0.019466 0.000000
0.031384 0.020614 0.000014
0.036324 0.021791 0.000014
0.042141 0.023094 0.000014
0.049000 0.024520 0.000000
0.057092 0.026061 0.000000
0.066638 0.027696 0.000000
0.077873 0.029411 0.000019
0.091094 0.031125 0.000034
0.106577 0.032800 0.000025
0.124637 0.034342 0.000000
0.145617 0.035576 0.000000
0.169833 0.036290 0.000000
0.197556 0.036283 0.000045
0.229079 0.034907 0.000060
0.264564 0.031148 0.000000
0.304077 0.022487 0.000000
0.347564 0.000316 0.000000
0.393954 0.000254 0.011193
0.443918 0.000321 0.027429
0.497072 0.000400 0.037994
0.552983 0.000471 0.047119
0.611189 0.000576 0.055341
0.671220 0.000000 0.062746
0.732615 0.000000 0.069281
0.794309 0.000587 0.074566
0.855218 0.000926 0.078208
0.916663 0.000000 0.080863
0.977368 0.000107 0.084861
1.000000 0.108853 0.133287
1.000000 0.224914 0.194650
1.000000 0.289965 0.241849
1.000000 0.338177 0.281016
1.000000 0.377621 0.315240
1.000000 0.411688 0.346165
1.000000 0.442233 0.374854
1.000000 0.470555 0.402194
1.000000 0.497632 0.428957
1.000000 0.524254 0.455838
1.000000 0.551086 0.483476
1.000000 0.578696 0.512463
1.000000 0.607577 0.543350
1.000000 0.638154 0.576642
1.000000 0.670776 0.612779
1.000000 0.705687 0.652095
1.000000 0.742948 0.694715
1.000000 0.782314 0.740391
1.000000 0.822970 0.788159
1.000000 0.863082 0.835795
1.000000 0.899834 0.879793
1.000000 0.930147 0.916237
1.000000 0.952809 0.943523
1.000000 0.968661 0.962595
1.000000 0.979458 0.975558
1.000000 0.986767 0.984308
1.000000 0.991757 0.990265
0.000018 0.016995 0.007432
0.000018 0.016995 0.007432
0.000018 0.016995 0.007432
0.000018 0.016995 0.007432
0.000018 0.016995 0.007432
0.000008 0.018134 0.005914
0.011346 0.020475 0.000011
0.018180 0.022074 0.000011
0.023700 0.023531 0.000000
0.028714 0.024872 0.000019
0.033450 0.026122 0.000000
0.038517 0.027420 0.000000
0.044438 0.028877 0.000014
0.051376 0.030497 0.000019
0.059518 0.032280 0.000000
0.069091 0.034213 0.000019
0.080326 0.036287 0.000000
0.093511 0.038458 0.000025
0.108927 0.040692 0.000034
0.126905 0.042897 0.000045
0.147758 0.044997 0.000045
0.171804 0.046859 0.000000
0.199353 0.048294 0.000000
0.230683 0.048951 0.000000
0.265918 0.048692 0.000095
0.305233 0.046616 0.000000
0.348568 0.041637 0.000000
0.395779 0.030850 0.000000
0.446554 0.000388 0.000000
0.499434 0.000100 0.017515
0.555125 0.000350 0.034072
0.613149 0.000000 0.045103
0.673032 0.000478 0.054141
0.734303 0.000189 0.061788
0.795854 0.000934 0.067849
0.856711 0.000000 0.072072
0.918088 0.001008 0.075198
0.978587 0.000000 0.080180
1.000000 0.112730 0.132151
1.000000 0.226476 0.194229
1.000000 0.290976 0.241626
1.000000 0.338920 0.280901
1.000000 0.378203 0.315198
1.000000 0.412152 0.346165
1.000000 0.442610 0.374880
1.000000 0.470864 0.402238
1.000000 0.497888 0.429013
1.000000 0.524468 0.455900
1.000000 0.551266 0.483541
1.000000 0.578847 0.512530
1.000000 0.607705 0.543417
1.000000 0.638263 0.576708
1.000000 0.670868 0.612841
1.000000 0.705766 0.652154
1.000000 0.743014 0.694769
1.000000 0.782372 0.740444
1.000000 0.823016 0.788203
1.000000 0.863121 0.835835
1.000000 0.899862 0.879822
1.000000 0.930161 0.916253
1.000000 0.952818 0.943533
1.000000 0.968665 0.962601
1.000000 0.979460 0.975560
1.000000 0.986767 0.984309
1.000000 0.991758 0.990266
0.000024 0.021783 0.009527
0.000024 0.021783 0.009527
0.000024 0.021783 0.009527
0.000024 0.021783 0.009527
0.000024 0.021783 0.009527
0.000000 0.022892 0.008177
0.010731 0.025517 0.000014
0.018904 0.027139 0.000019
0.024932 0.028636 0.000000
0.030245 0.030029 0.000000
0.035179 0.031335 0.000019
0.040398 0.032704 0.000000
0.046444 0.034253 0.000000
0.053483 0.035992 0.000025
0.061701 0.037925 0.000019
0.071318 0.040050 0.000000
0.082576 0.042357 0.000025
0.095741 0.044828 0.000000
0.111113 0.047421 0.000000
0.129019 0.050063 0.000000
0.149753 0.052720 0.000045
0.173665 0.055241 0.000000
0.201063 0.057468 0.000000
0.232205 0.059182 0.000060
0.267249 0.060235 0.000060
0.306341 0.060140 0.000000
0.349427 0.058535 0.000000
0.396479 0.053923 0.000170
0.447170 0.044627 0.000107
0.501191 0.018296 0.000000
0.557258 0.000435 0.000000
0.615106 0.000364 0.029690
0.674844 0.000546 0.043007
0.735992 0.000718 0.052743
0.797404 0.000411 0.060042
0.858210 0.000374 0.065097
0.919518 0.000568 0.068855
0.979797 0.000917 0.075112
1.000000 0.116475 0.131016
1.000000 0.228025 0.193805
1.000000 0.291984 0.241403
1.000000 0.339660 0.280785
1.000000 0.378784 0.315155
1.000000 0.412614 0.346164
1.000000 0.442986 0.374907
1.000000 0.471172 0.402282
1.000000 0.498143 0.429067
1.000000 0.524681 0.455962
1.000000 0.551445 0.483607
1.000000 0.578999 0.512598
1.000000 0.607834 0.543484
1.000000 0.638372 0.576773
1.000000 0.670962 0.612904
1.000000 0.705845 0.652214
1.000000 0.743080 0.694824
1.000000 0.782429 0.740495
1.000000 0.823062 0.788247
1.000000 0.863158 0.835874
1.000000 0.899887 0.879849
1.000000 0.930176 0.916268
1.000000 0.952825 0.943539
1.000000 0.968669 0.962604
1.000000 0.979462 0.975563
1.000000 0.986769 0.984311
1.000000 0.991759 0.990267
0.000019 0.026492 0.011587
0.000019 0.026492 0.011587
0.000019 0.026492 0.011587
0.000019 0.026492 0.011587
0.000019 0.026492 0.011587
0.000000 0.027575 0.010331
0.008874 0.030459 0.000000
0.019175 0.032085 0.000014
0.025813 0.033601 0.000000
0.031462 0.035022 0.000019
0.036623 0.036363 0.000019
0.042017 0.037773 0.000019
0.048208 0.039379 0.000019
0.055364 0.041194 0.000000
0.063674 0.043228 0.000000
0.073354 0.045482 0.000000
0.084647 0.047952 0.000034
0.097820 0.050624 0.000000
0.113163 0.053471 0.000034
0.131002 0.056436 0.000034
0.151667 0.059439 0.000045
0.175456 0.062417 0.000045
0.202692 0.065223 0.000000
0.233653 0.067657 0.000060
0.268529 0.069498 0.000060
0.307391 0.070585 0.000080
0.350314 0.070290 0.000127
0.397089 0.068400 0.000000
0.447646 0.063095 0.000000
0.501538 0.052709 0.000170
0.558400 0.026342 0.000000
0.617059 0.000411 0.000143
0.676656 0.000000 0.024645
0.737684 0.000677 0.040731
0.798960 0.000000 0.050462
0.859713 0.000713 0.056873
0.920952 0.001094 0.061557
0.980998 0.000000 0.069551
1.000000 0.120105 0.129880
1.000000 0.229561 0.193380
1.000000 0.292988 0.241180
1.000000 0.340399 0.280670
1.000000 0.379362 0.315111
1.000000 0.413076 0.346162
1.000000 0.443360 0.374933
1.000000 0.471480 0.402325
1.000000 0.498399 0.429122
1.000000 0.524895 0.456023
1.000000 0.551625 0.483673
1.000000 0.579150 0.512664
1.000000 0.607962 0.543551
1.000000 0.638482 0.576838
1.000000 0.671054 0.612967
1.000000 0.705924 0.652274
1.000000 0.743146 0.694878
1.000000 0.782487 0.740548
1.000000 0.823109 0.788292
1.000000 0.863197 0.835914
1.000000 0.899912 0.879875
1.000000 0.930191 0.916285
1.000000 0.952833 0.943549
1.000000 0.968673 0.962609
1.000000 0.979464 0.975564
1.000000 0.986769 0.984311
1.000000 0.991759 0.990267
0.000000 0.031654 0.013844
0.000000 0.031654 0.013844
0.000000 0.031654 0.013844
0.000000 0.031654 0.013844
0.000000 0.031654 0.013844
0.000000 0.032713 0.012654
0.000037 0.035863 0.000025
0.018939 0.037482 0.000019
0.026415 0.039003 0.000025
0.032497 0.040438 0.000000
0.037935 0.041800 0.000000
0.043549 0.043240 0.000000
0.049924 0.044884 0.000025
0.057230 0.046752 0.000025
0.065658 0.048858 0.000025
0.075423 0.051211 0.000000
0.086769 0.053809 0.000045
0.099964 0.056643 0.000000
0.115300 0.059689 0.000000
0.133084 0.062912 0.000000
0.153656 0.066238 0.000045
0.177345 0.069569 0.000000
0.204429 0.072825 0.000000
0.235197 0.075837 0.000000
0.269869 0.078371 0.000080
0.308551 0.080180 0.000000
0.351214 0.081079 0.000000
0.397838 0.080338 0.000170
0.448093 0.077738 0.000107
0.501861 0.071159 0.000107
0.558605 0.058607 0.000143
0.617929 0.025581 0.000143
0.678668 0.000000 0.000191
0.739570 0.000000 0.011004
0.800701 0.000674 0.035269
0.861394 0.000581 0.045100
0.922556 0.000000 0.051638
0.982324 0.000844 0.062564
1.000000 0.124027 0.128614
1.000000 0.231258 0.192905
1.000000 0.294101 0.240930
1.000000 0.341221 0.280541
1.000000 0.380006 0.315062
1.000000 0.413589 0.346160
1.000000 0.443778 0.374961
1.000000 0.471823 0.402374
1.000000 0.498684 0.429184
1.000000 0.525133 0.456092
1.000000 0.551824 0.483745
1.000000 0.579319 0.512739
1.000000 0.608105 0.543625
1.000000 0.638603 0.576911
1.000000 0.671158 0.613037
1.000000 0.706011 0.652339
1.000000 0.743221 0.694940
1.000000 0.782552 0.740607
1.000000 0.823159 0.788341
1.000000 0.863239 0.835958
1.000000 0.899940 0.879905
1.000000 0.930208 0.916302
1.000000 0.952843 0.943559
1.000000 0.968678 0.962613
1.000000 0.979466 0.975566
1.000000 0.986771 0.984313
1.000000 0.991760 0.990268
0.000040 0.037786 0.016525
0.000040 0.037786 0.016525
0.000000 0.037786 0.016525
0.000000 0.037786 0.016525
0.000000 0.037786 0.016525
0.000000 0.038818 0.015390
0.000000 0.041902 0.007422
0.017801 0.043869 0.000025
0.026634 0.045383 0.000025
0.033334 0.046822 0.000025
0.039154 0.048193 0.000025
0.045059 0.049649 0.000034
0.051687 0.051321 0.000025
0.059199 0.053225 0.000025
0.067791 0.055384 0.000000
0.077681 0.057811 0.000000
0.089109 0.060512 0.000034
0.102347 0.063481 0.000045
0.117686 0.066702 0.000034
0.135437 0.070140 0.000045
0.155920 0.073745 0.000000
0.179476 0.077427 0.000045
0.206417 0.081064 0.000060
0.236988 0.084557 0.000000
0.271418 0.087710 0.000000
0.309855 0.090253 0.000000
0.352306 0.091903 0.000000
0.398631 0.092449 0.000107
0.448730 0.091036 0.000107
0.502160 0.087439 0.000000
0.558786 0.079179 0.000000
0.618000 0.063772 0.000000
0.679384 0.017366 0.000227
0.741840 0.000563 0.000000
0.802817 0.000676 0.000191
0.863436 0.000000 0.017206
0.924501 0.000000 0.033939
0.983910 0.001044 0.052399
1.000000 0.128610 0.127081
1.000000 0.233288 0.192327
1.000000 0.295441 0.240628
1.000000 0.342213 0.280387
1.000000 0.380781 0.315002
1.000000 0.414209 0.346157
1.000000 0.444281 0.374995
1.000000 0.472237 0.402432
1.000000 0.499026 0.429257
1.000000 0.525419 0.456175
1.000000 0.552065 0.483833
1.000000 0.579523 0.512829
1.000000 0.608279 0.543716
1.000000 0.638750 0.576999
1.000000 0.671282 0.613121
1.000000 0.706117 0.652418
1.000000 0.743309 0.695013
1.000000 0.782629 0.740676
1.000000 0.823222 0.788400
1.000000 0.863292 0.836013
1.000000 0.899974 0.879941
1.000000 0.930228 0.916324
1.000000 0.952853 0.943569
1.000000 0.968683 0.962619
1.000000 0.979469 0.975569
1.000000 0.986772 0.984314
1.000000 0.991760 0.990268
0.000000 0.045054 0.019700
0.000066 0.045054 0.019700
0.000000 0.045054 0.019700
0.000000 0.045054 0.019700
0.000000 0.045054 0.019700
0.000000 0.046058 0.018608
0.000000 0.049037 0.012492
0.014651 0.051413 0.000025
0.026141 0.052909 0.000000
0.033778 0.054338 0.000000
0.040141 0.055706 0.000000
0.046447 0.057166 0.000025
0.053409 0.058849 0.000034
0.061209 0.060777 0.000000
0.070030 0.062965 0.000000
0.080095 0.065440 0.000034
0.091649 0.068213 0.000000
0.104960 0.071286 0.000000
0.120324 0.074647 0.000000
0.138051 0.078267 0.000045
0.158465 0.082100 0.000000
0.181889 0.086079 0.000060
0.208649 0.090089 0.000000
0.239027 0.093986 0.000000
0.273209 0.097648 0.000000
0.311355 0.100843 0.000000
0.353518 0.103264 0.000107
0.399605 0.104586 0.000000
0.449370 0.104566 0.000000
0.502648 0.102208 0.000143
0.558901 0.097289 0.000143
0.618008 0.086895 0.000000
0.679298 0.067834 0.000000
0.742330 0.000437 0.000000
0.805358 0.000488 0.000000
0.865918 0.000775 0.000000
0.926864 0.000095 0.000000
0.985800 0.000860 0.034468
1.000000 0.133946 0.125225
1.000000 0.235714 0.191624
1.000000 0.297052 0.240262
1.000000 0.343411 0.280204
