OCIO/luts/ACES_v2.0.0/ACES v2.0.0 Output Rec2100 (Rec709 sim).cube
TITLE "Generated by Foundry::LUT"
LUT_3D_SIZE 9
0.000001 0.000001 0.000001
0.011039 0.003205 0.001601
0.063453 0.023029 0.012561
0.199025 0.092309 0.057455
0.372029 0.204649 0.139623
0.464815 0.311289 0.248760
0.474618 0.390039 0.354309
0.492798 0.465720 0.454011
0.507325 0.506220 0.505795
0.008984 0.015407 0.006959
0.023486 0.023751 0.007276
0.075570 0.045443 0.017849
0.205071 0.103201 0.054948
0.373889 0.205958 0.133550
0.464883 0.312208 0.248641
0.474647 0.390213 0.354411
0.492812 0.465760 0.454052
0.507325 0.506222 0.505795
0.052906 0.080738 0.043048
0.058721 0.089393 0.032394
0.105880 0.106794 0.042103
0.217799 0.152370 0.073043
0.376601 0.223377 0.133870
0.465163 0.315784 0.248123
0.474765 0.390924 0.354804
0.492858 0.465914 0.454220
0.507325 0.506224 0.505798
0.164050 0.225150 0.140089
0.165940 0.227705 0.135470
0.173439 0.235746 0.108481
0.252047 0.253706 0.123491
0.380593 0.287541 0.159161
0.466828 0.334489 0.252988
0.475276 0.393991 0.356523
0.493090 0.466653 0.455043
0.507329 0.506232 0.505805
0.294041 0.378559 0.258299
0.294391 0.379017 0.256743
0.295590 0.380660 0.249251
0.303112 0.387323 0.206733
0.392217 0.394347 0.218012
0.474033 0.391021 0.273102
0.478184 0.409757 0.369168
0.494124 0.469953 0.458762
0.507339 0.506260 0.505841
0.378534 0.473208 0.334389
0.378626 0.473325 0.333994
0.379030 0.473833 0.332325
0.380877 0.476163 0.323859
0.391187 0.485528 0.278953
0.477040 0.479436 0.281677
0.489384 0.456696 0.415250
0.498034 0.481750 0.472446
0.507392 0.506390 0.505980
0.448900 0.502514 0.424783
0.448941 0.502519 0.424785
0.449092 0.502528 0.424789
0.449770 0.502573 0.424819
0.452733 0.502773 0.424835
0.465190 0.503678 0.425015
0.504758 0.507216 0.400599
0.504433 0.499305 0.493307
0.507553 0.506827 0.506455
0.498563 0.506979 0.494497
0.498565 0.506976 0.494497
0.498572 0.506979 0.494504
0.498598 0.506981 0.494518
0.498731 0.506995 0.494584
0.499305 0.507055 0.494854
0.501517 0.507291 0.495845
0.507346 0.507905 0.494605
0.507880 0.507652 0.507394
0.507892 0.508049 0.507806
0.507895 0.508049 0.507811
0.507890 0.508049 0.507811
0.507890 0.508049 0.507806
0.507890 0.508044 0.507808
0.507905 0.508049 0.507823
0.507948 0.508056 0.507880
0.508078 0.508078 0.508078
0.508078 0.508078 0.508078
0.001373 0.001605 0.005876
0.015605 0.004834 0.015306
0.067412 0.024936 0.038790
0.200305 0.093238 0.093620
0.371859 0.204623 0.165112
0.464823 0.310989 0.254958
0.474742 0.390677 0.355933
0.492865 0.465930 0.454332
0.507325 0.506222 0.505798
0.011871 0.019193 0.019147
0.026524 0.026524 0.026524
0.086327 0.037572 0.037952
0.209053 0.098991 0.087539
0.373660 0.205884 0.160728
0.464898 0.312010 0.254953
0.474771 0.390861 0.356034
0.492879 0.465970 0.454373
0.507325 0.506224 0.505798
0.055090 0.082870 0.060306
0.061120 0.091431 0.058829
0.108858 0.108687 0.048211
0.226894 0.141405 0.074734
0.380352 0.212598 0.140306
0.465263 0.316580 0.255738
0.474891 0.391572 0.356435
0.492924 0.466122 0.454542
0.507325 0.506224 0.505798
0.164327 0.224948 0.152999
0.166631 0.227992 0.150321
0.173486 0.237129 0.127027
0.252278 0.253286 0.123292
0.383366 0.283568 0.158021
0.466822 0.334121 0.258254
0.475402 0.394617 0.358122
0.493146 0.466833 0.455321
0.507327 0.506232 0.505805
0.294075 0.378415 0.263493
0.294427 0.378878 0.262079
0.295645 0.380526 0.255527
0.300862 0.387743 0.206896
0.392058 0.393991 0.217775
0.474067 0.391084 0.277443
0.478271 0.410142 0.370316
0.494178 0.470116 0.459021
0.507339 0.506258 0.505836
0.378563 0.473195 0.335888
0.378655 0.473312 0.335496
0.379098 0.473856 0.334064
0.380944 0.476186 0.325819
0.390798 0.485832 0.279150
0.477104 0.479463 0.281701
0.489458 0.456906 0.415939
0.498067 0.481853 0.472614
0.507392 0.506388 0.505980
0.449062 0.502528 0.425168
0.449107 0.502533 0.425168
0.449258 0.502538 0.425180
0.449933 0.502583 0.425201
0.452888 0.502788 0.425231
0.465282 0.503687 0.425354
0.504765 0.507219 0.400911
0.504435 0.499320 0.493333
0.507553 0.506822 0.506455
0.498567 0.506979 0.494513
0.498572 0.506979 0.494513
0.498575 0.506981 0.494518
0.498605 0.506981 0.494532
0.498738 0.506995 0.494598
0.499313 0.507058 0.494868
0.501519 0.507291 0.495854
0.507346 0.507905 0.494610
0.507880 0.507647 0.507394
0.507892 0.508049 0.507806
0.507892 0.508049 0.507806
0.507895 0.508049 0.507806
0.507895 0.508049 0.507806
0.507895 0.508044 0.507811
0.507905 0.508049 0.507823
0.507948 0.508056 0.507880
0.508078 0.508078 0.508078
0.508078 0.508078 0.508078
0.011115 0.012882 0.038792
0.027857 0.010229 0.054824
0.080974 0.031648 0.079768
0.205723 0.096876 0.139269
0.371912 0.204915 0.208524
0.464861 0.310173 0.272407
0.474855 0.391122 0.359203
0.493132 0.466755 0.455607
0.507325 0.506229 0.505805
0.023197 0.033490 0.051727
0.030158 0.028829 0.078208
0.093859 0.042071 0.093944
0.213449 0.102132 0.139984
0.373674 0.206143 0.206016
0.464936 0.311218 0.272397
0.474909 0.391425 0.359468
0.493144 0.466793 0.455646
0.507325 0.506224 0.505805
0.063974 0.092848 0.092676
0.068865 0.099190 0.099169
0.112964 0.112965 0.112965
0.237633 0.128632 0.130016
0.380213 0.213245 0.194899
0.465307 0.315871 0.273057
0.475118 0.392642 0.360534
0.493186 0.466935 0.455799
0.507327 0.506229 0.505805
0.166491 0.226158 0.180205
0.168549 0.228851 0.179637
0.176585 0.238688 0.172235
0.253378 0.253092 0.140793
0.391537 0.271611 0.170994
0.466930 0.334231 0.275797
0.475883 0.397039 0.364016
0.493394 0.467600 0.456509
0.507332 0.506234 0.505812
0.294226 0.377985 0.278706
0.294576 0.378442 0.277606
0.295789 0.380075 0.272749
0.301923 0.386993 0.237503
0.391615 0.392932 0.222094
0.474209 0.391399 0.291539
0.478625 0.411687 0.374687
0.494399 0.470779 0.460057
0.507344 0.506263 0.505843
0.378704 0.473170 0.341391
0.378819 0.473312 0.341084
0.379264 0.473860 0.339790
0.381198 0.476265 0.332927
0.389733 0.486976 0.279920
0.477332 0.479538 0.281779
0.489725 0.457726 0.418578
0.498213 0.482257 0.473276
0.507392 0.506392 0.505982
0.449702 0.502578 0.426657
0.449740 0.502576 0.426666
0.449894 0.502590 0.426672
0.450561 0.502635 0.426706
0.453499 0.502835 0.426761
0.465634 0.503718 0.426674
0.504787 0.507224 0.402117
0.504459 0.499372 0.493459
0.507553 0.506827 0.506457
0.498591 0.506981 0.494567
0.498596 0.506981 0.494567
0.498603 0.506981 0.494570
0.498629 0.506983 0.494584
0.498761 0.506998 0.494647
0.499336 0.507063 0.494922
0.501531 0.507289 0.495892
0.507349 0.507905 0.494619
0.507880 0.507652 0.507399
0.507895 0.508049 0.507806
0.507890 0.508049 0.507806
0.507890 0.508049 0.507806
0.507895 0.508044 0.507806
0.507892 0.508044 0.507811
0.507905 0.508049 0.507823
0.507948 0.508056 0.507880
0.508078 0.508078 0.508078
0.508078 0.508078 0.508078
0.055552 0.062784 0.145754
0.054036 0.029056 0.169352
0.114038 0.051528 0.183242
0.224133 0.109590 0.221645
0.374085 0.207242 0.276030
0.465060 0.308869 0.310832
0.474974 0.391064 0.367860
0.494220 0.470085 0.460631
0.507337 0.506246 0.505831
0.065502 0.080906 0.152130
0.065581 0.069952 0.171935
0.116484 0.055822 0.197017
0.228485 0.112962 0.226727
0.375588 0.208292 0.275698
0.465139 0.309942 0.310866
0.475028 0.391376 0.368116
0.494232 0.470118 0.460669
0.507334 0.506246 0.505833
0.097063 0.129099 0.175175
0.099434 0.130282 0.185412
0.113376 0.108098 0.233507
0.242559 0.134207 0.242863
0.381272 0.214861 0.273833
0.465510 0.314692 0.311501
0.475245 0.392637 0.369132
0.494279 0.470265 0.460815
0.507337 0.506248 0.505836
0.178787 0.237037 0.236700
0.180236 0.238762 0.238490
0.185818 0.244779 0.244760
0.254726 0.254726 0.254726
0.396843 0.263465 0.262480
0.467245 0.334279 0.315083
0.476217 0.398132 0.373702
0.494469 0.470882 0.461472
0.507339 0.506256 0.505843
0.295723 0.377823 0.314906
0.296039 0.378237 0.314439
0.297141 0.379692 0.312284
0.304099 0.385733 0.297866
0.390620 0.390965 0.273153
0.474859 0.393424 0.329486
0.480107 0.418006 0.390469
0.495309 0.473494 0.464246
0.507353 0.506280 0.505874
0.379248 0.473114 0.359436
0.379360 0.473244 0.359200
0.379797 0.473786 0.358253
0.381761 0.476192 0.353763
0.393070 0.486378 0.319065
0.477878 0.479591 0.300407
0.490815 0.460973 0.428369
0.498825 0.483928 0.475991
0.507399 0.506409 0.506011
0.450702 0.502654 0.430475
0.450773 0.502659 0.430520
0.451053 0.502681 0.430706
0.452280 0.502766 0.431529
0.455903 0.503026 0.432730
0.467079 0.503852 0.431949
0.504878 0.507248 0.407010
0.504545 0.499580 0.493963
0.507560 0.506837 0.506476
0.498702 0.506995 0.494800
0.498702 0.506995 0.494800
0.498709 0.506995 0.494807
0.498735 0.506998 0.494821
0.498865 0.507012 0.494882
0.499429 0.507072 0.495140
0.501581 0.507301 0.496056
0.507356 0.507905 0.494680
0.507880 0.507652 0.507402
0.507895 0.508049 0.507806
0.507890 0.508049 0.507806
0.507895 0.508049 0.507806
0.507895 0.508049 0.507811
0.507895 0.508049 0.507813
0.507905 0.508049 0.507825
0.507945 0.508056 0.507880
0.508078 0.508078 0.508078
0.508078 0.508078 0.508078
0.158183 0.174249 0.327041
0.156999 0.165713 0.333941
0.156009 0.093992 0.359941
0.255979 0.137697 0.366692
0.383291 0.216611 0.379873
0.466074 0.310943 0.375322
0.475472 0.391907 0.388972
0.494828 0.471725 0.464914
0.507368 0.506323 0.505956
0.162305 0.182632 0.327924
0.161490 0.176060 0.334405
0.152535 0.093968 0.364290
0.256106 0.138163 0.370083
0.384028 0.217160 0.380857
0.466160 0.312038 0.375444
0.475529 0.392234 0.389197
0.494846 0.471794 0.464991
0.507368 0.506323 0.505956
0.176378 0.208446 0.331365
0.176305 0.205548 0.336604
0.173893 0.182209 0.359321
0.255729 0.146583 0.382504
0.386762 0.221243 0.384449
0.466540 0.316764 0.376145
0.475754 0.393541 0.390105
0.494936 0.472069 0.465294
0.507368 0.506325 0.505956
0.219571 0.273937 0.345880
0.219956 0.273852 0.348318
0.221023 0.272537 0.358364
0.253064 0.251198 0.398691
0.394546 0.264111 0.394114
0.468315 0.336202 0.379620
0.476776 0.399273 0.394180
0.495321 0.473258 0.466614
0.507370 0.506330 0.505961
0.304816 0.382846 0.382384
0.305021 0.383076 0.382630
0.305700 0.383826 0.383470
0.310610 0.386727 0.386688
0.388652 0.388648 0.388648
0.476828 0.399304 0.396432
0.481642 0.423364 0.413144
0.496944 0.478184 0.472103
0.507380 0.506359 0.505989
0.381102 0.473072 0.401972
0.381196 0.473188 0.401884
0.381577 0.473651 0.401539
0.383231 0.475669 0.399883
0.398975 0.483187 0.391360
0.473265 0.474427 0.402489
0.494094 0.470455 0.453174
0.500744 0.489140 0.484143
0.507428 0.506472 0.506112
0.452692 0.502835 0.441355
0.452765 0.502840 0.441406
0.453064 0.502859 0.441598
0.454384 0.502957 0.442442
0.459904 0.503367 0.446053
0.472477 0.504351 0.449504
0.505174 0.507325 0.422737
0.504878 0.500336 0.495762
0.507570 0.506868 0.506539
0.499097 0.507036 0.495694
0.499097 0.507041 0.495699
0.499111 0.507041 0.495708
0.499152 0.507043 0.495746
0.499275 0.507058 0.495800
0.499803 0.507113 0.496023
0.501790 0.507325 0.496734
0.507378 0.507912 0.495102
0.507880 0.507654 0.507416
0.507890 0.508044 0.507813
0.507895 0.508044 0.507813
0.507895 0.508049 0.507813
0.507895 0.508049 0.507813
0.507895 0.508049 0.507813
0.507909 0.508054 0.507827
0.507950 0.508051 0.507883
0.508078 0.508078 0.508078
0.508078 0.508078 0.508078
0.266908 0.287699 0.484867
0.266644 0.285400 0.486729
0.265490 0.274632 0.494502
0.288815 0.258790 0.497597
0.381712 0.268360 0.498003
0.470489 0.330691 0.470393
0.477706 0.400045 0.428345
0.495955 0.474674 0.473186
0.507435 0.506484 0.506224
0.267799 0.290008 0.484495
0.267552 0.287844 0.486316
0.266451 0.277687 0.493932
0.289023 0.261637 0.497620
0.381672 0.270847 0.498019
0.470576 0.331657 0.470482
0.477767 0.400368 0.428514
0.495979 0.474742 0.473249
0.507430 0.506484 0.506229
0.271292 0.298424 0.483386
0.271064 0.296701 0.484943
0.270171 0.288667 0.491868
0.290439 0.272926 0.497727
0.381710 0.280970 0.498119
0.470942 0.335428 0.470857
0.478003 0.401647 0.429176
0.496063 0.475003 0.473503
0.507430 0.506489 0.506229
0.284847 0.326711 0.480251
0.284752 0.325832 0.481498
0.284470 0.322222 0.486634
0.299095 0.312044 0.498204
0.382499 0.315341 0.498551
0.472558 0.350852 0.472504
0.479063 0.407291 0.432165
0.496435 0.476147 0.474609
0.507433 0.506493 0.506234
0.324392 0.391055 0.476179
0.324454 0.390991 0.476730
0.324816 0.390846 0.479049
0.326423 0.389835 0.490018
0.390473 0.393526 0.492594
0.479634 0.401197 0.478191
0.484091 0.430945 0.445897
0.497989 0.480818 0.479156
0.507445 0.506529 0.506270
0.386344 0.473000 0.472430
0.386399 0.473060 0.472488
0.386603 0.473280 0.472740
0.387482 0.474222 0.473790
0.399389 0.477040 0.476932
0.469590 0.469590 0.469594
0.497203 0.478407 0.477427
0.502307 0.493120 0.491391
0.507491 0.506661 0.506412
0.456765 0.503231 0.465552
0.456830 0.503238 0.465581
0.457084 0.503255 0.465678
0.458192 0.503334 0.466109
0.462845 0.503687 0.467964
0.477466 0.504885 0.473314
0.501248 0.502123 0.474713
0.505634 0.502085 0.499703
0.507608 0.506990 0.506745
0.499445 0.507087 0.497328
0.499450 0.507087 0.497333
0.499462 0.507087 0.497340
0.499504 0.507094 0.497373
0.499710 0.507115 0.497533
0.500555 0.507207 0.498173
0.502452 0.507409 0.498899
0.507450 0.507929 0.496496
0.507888 0.507676 0.507469
0.507897 0.508049 0.507827
0.507902 0.508049 0.507827
0.507897 0.508049 0.507827
0.507897 0.508049 0.507827
0.507902 0.508054 0.507830
0.507912 0.508054 0.507842
0.507955 0.508056 0.507897
0.508078 0.508078 0.508078
0.508078 0.508078 0.508078
0.384965 0.401125 0.500581
0.385150 0.401140 0.500583
0.385861 0.401180 0.500593
0.388631 0.401092 0.500602
0.400235 0.400865 0.500664
0.443938 0.412259 0.501417
0.486805 0.436372 0.487443
0.499166 0.483535 0.488357
0.507479 0.506609 0.506529
0.385157 0.401388 0.500595
0.385337 0.401397 0.500595
0.386048 0.401445 0.500602
0.388831 0.401378 0.500612
0.400378 0.401125 0.500673
0.444025 0.412510 0.501429
0.486847 0.436563 0.487489
0.499175 0.483581 0.488389
0.507483 0.506609 0.506529
0.385731 0.402278 0.500626
0.385980 0.402353 0.500628
0.386802 0.402500 0.500640
0.389646 0.402510 0.500661
0.400955 0.402161 0.500716
0.444358 0.413511 0.501469
0.487022 0.437314 0.487667
0.499242 0.483758 0.488516
0.507483 0.506609 0.506529
0.388155 0.406038 0.500778
0.388404 0.406113 0.500780
0.389394 0.406418 0.500794
0.393141 0.407306 0.500849
0.403907 0.407000 0.500904
0.445875 0.417845 0.501655
0.487785 0.440576 0.488452
0.499502 0.484527 0.489087
0.507483 0.506618 0.506536
0.398526 0.421031 0.501424
0.398752 0.421099 0.501426
0.399657 0.421384 0.501443
0.403606 0.422663 0.501519
0.417890 0.427065 0.501809
0.452757 0.435139 0.502483
0.491002 0.453518 0.491689
0.500552 0.487630 0.491381
0.507498 0.506645 0.506563
0.430853 0.460997 0.503675
0.431009 0.461036 0.503678
0.431597 0.461205 0.503692
0.434189 0.461934 0.503759
0.444877 0.465263 0.504060
0.472511 0.474425 0.504947
0.498790 0.480807 0.499197
0.503456 0.495861 0.497595
0.507536 0.506767 0.506683
0.458927 0.503623 0.503713
0.458962 0.503625 0.503716
0.459110 0.503637 0.503723
0.459762 0.503685 0.503764
0.462557 0.503893 0.503945
0.472742 0.504476 0.504215
0.499081 0.499081 0.499081
0.506071 0.502981 0.502783
0.507669 0.507154 0.507055
0.500019 0.507166 0.500942
0.500021 0.507171 0.500946
0.500033 0.507171 0.500949
0.500066 0.507173 0.500970
0.500232 0.507190 0.501048
0.500911 0.507267 0.501372
0.502974 0.507486 0.502159
0.507048 0.507262 0.502276
0.507912 0.507736 0.507623
0.507924 0.508056 0.507880
0.507924 0.508056 0.507880
0.507921 0.508051 0.507880
0.507921 0.508056 0.507880
0.507921 0.508051 0.507883
0.507936 0.508056 0.507892
0.507974 0.508059 0.507948
0.508078 0.508078 0.508078
0.508078 0.508078 0.508078
0.466935 0.472751 0.504765
0.466977 0.472778 0.504768
0.467154 0.472894 0.504780
0.467908 0.473397 0.504820
0.470053 0.474616 0.504930
0.475551 0.476923 0.505151
0.491931 0.485802 0.506009
0.504437 0.497996 0.504115
0.507628 0.506979 0.507125
0.466966 0.472778 0.504770
0.467006 0.472807 0.504777
0.467181 0.472921 0.504782
0.467937 0.473424 0.504825
0.470094 0.474656 0.504933
0.475583 0.476961 0.505158
0.491948 0.485827 0.506009
0.504442 0.498003 0.504122
0.507628 0.506979 0.507125
0.467076 0.472892 0.504780
0.467116 0.472926 0.504780
0.467287 0.473038 0.504794
0.468044 0.473541 0.504832
0.470263 0.474823 0.504947
0.475709 0.477104 0.505165
0.492001 0.485919 0.506018
0.504452 0.498029 0.504134
0.507628 0.506979 0.507125
0.467569 0.473415 0.504823
0.467613 0.473444 0.504823
0.467780 0.473554 0.504832
0.468524 0.474049 0.504873
0.470955 0.475529 0.505002
0.476303 0.477767 0.505222
0.492232 0.486325 0.506049
0.504497 0.498156 0.504179
0.507628 0.506981 0.507132
0.469715 0.475660 0.505000
0.469752 0.475684 0.504995
0.469911 0.475786 0.505007
0.470598 0.476235 0.505048
0.473563 0.478198 0.505215
0.478843 0.480579 0.505452
0.493207 0.488026 0.506193
0.504681 0.498681 0.504373
0.507635 0.507003 0.507147
0.477482 0.483586 0.505651
0.477507 0.483604 0.505651
0.477622 0.483671 0.505658
0.478121 0.483974 0.505687
0.480251 0.485288 0.505812
0.486981 0.489381 0.506210
0.496395 0.493464 0.506664
0.505330 0.500512 0.505069
0.507661 0.507084 0.507209
0.491971 0.497866 0.506952
0.491985 0.497871 0.506957
0.492018 0.497882 0.506957
0.492176 0.497951 0.506964
0.492865 0.498244 0.506998
0.495492 0.499374 0.507127
0.501022 0.501455 0.507390
0.506481 0.503723 0.506323
0.507760 0.507353 0.507423
0.500593 0.507272 0.507233
0.500590 0.507272 0.507233
0.500597 0.507277 0.507233
0.500616 0.507274 0.507238
0.500702 0.507286 0.507248
0.501065 0.507325 0.507289
0.502380 0.507462 0.507402
0.506700 0.506700 0.506700
0.507943 0.507820 0.507813
0.508010 0.508071 0.508018
0.508010 0.508071 0.508013
0.508010 0.508071 0.508018
0.508010 0.508071 0.508018
0.508013 0.508071 0.508018
0.508025 0.508066 0.508025
0.508059 0.508078 0.508059
0.508078 0.508078 0.508078
0.508078 0.508078 0.508078
0.503577 0.504244 0.507669
0.503577 0.504244 0.507669
0.503585 0.504249 0.507669
0.503599 0.504258 0.507669
0.503668 0.504299 0.507673
0.503964 0.504490 0.507693
0.504658 0.504849 0.507736
0.506462 0.505901 0.507859
0.507941 0.507765 0.507909
0.503577 0.504244 0.507669
0.503577 0.504246 0.507669
0.503585 0.504246 0.507669
0.503596 0.504258 0.507669
0.503668 0.504304 0.507673
0.503962 0.504490 0.507693
0.504662 0.504849 0.507741
0.506462 0.505898 0.507859
0.507941 0.507765 0.507909
0.503580 0.504251 0.507669
0.503580 0.504246 0.507669
0.503585 0.504251 0.507669
0.503601 0.504261 0.507669
0.503670 0.504306 0.507673
0.503962 0.504495 0.507697
0.504665 0.504849 0.507741
0.506462 0.505901 0.507859
0.507936 0.507760 0.507909
0.503589 0.504261 0.507669
0.503594 0.504261 0.507669
0.503599 0.504261 0.507669
0.503613 0.504275 0.507673
0.503680 0.504315 0.507676
0.503976 0.504504 0.507697
0.504672 0.504863 0.507741
0.506467 0.505905 0.507859
0.507941 0.507765 0.507912
0.503644 0.504313 0.507676
0.503647 0.504318 0.507676
0.503651 0.504315 0.507676
0.503663 0.504327 0.507676
0.503730 0.504368 0.507678
0.504022 0.504550 0.507702
0.504722 0.504916 0.507743
0.506479 0.505939 0.507859
0.507943 0.507767 0.507912
0.503866 0.504543 0.507697
0.503869 0.504543 0.507697
0.503869 0.504545 0.507697
0.503883 0.504552 0.507697
0.503945 0.504595 0.507705
0.504208 0.504756 0.507722
0.504916 0.505139 0.507767
0.506549 0.506059 0.507878
0.507950 0.507789 0.507921
0.504665 0.505359 0.507782
0.504665 0.505354 0.507782
0.504665 0.505359 0.507782
0.504679 0.505361 0.507782
0.504720 0.505390 0.507787
0.504904 0.505495 0.507801
0.505577 0.505881 0.507842
0.506805 0.506512 0.507917
0.507982 0.507866 0.507965
0.506371 0.506995 0.507953
0.506371 0.506995 0.507955
0.506371 0.506995 0.507955
0.506373 0.506995 0.507953
0.506392 0.507003 0.507955
0.506453 0.507027 0.507958
0.506712 0.507132 0.507972
0.507361 0.507406 0.507972
0.508078 0.508078 0.508078
0.508078 0.508078 0.508078
0.508078 0.508078 0.508078
0.508078 0.508078 0.508078
0.508078 0.508078 0.508078
0.508078 0.508078 0.508078
0.508078 0.508078 0.508078
0.508078 0.508078 0.508078
0.508078 0.508078 0.508078
0.508078 0.508078 0.508078
