OCIO/luts/ACES_v2.0.0/ACES v2.0.0 Output Rec2100 (Rec709 sim).cube
TITLE "Generated by Foundry::LUT"
LUT_3D_SIZE 5
0.000001 0.000001 0.000001
0.063453 0.023029 0.012561
0.372029 0.204649 0.139623
0.474618 0.390039 0.354309
0.507325 0.506220 0.505795
0.052906 0.080738 0.043048
0.105880 0.106794 0.042103
0.376601 0.223377 0.133870
0.474765 0.390924 0.354804
0.507325 0.506224 0.505798
0.294041 0.378559 0.258299
0.295590 0.380660 0.249251
0.392217 0.394347 0.218012
0.478184 0.409757 0.369168
0.507339 0.506260 0.505841
0.448900 0.502514 0.424783
0.449092 0.502528 0.424789
0.452733 0.502773 0.424835
0.504758 0.507216 0.400599
0.507553 0.506827 0.506455
0.507892 0.508049 0.507806
0.507890 0.508049 0.507811
0.507890 0.508044 0.507808
0.507948 0.508056 0.507880
0.508078 0.508078 0.508078
0.011115 0.012882 0.038792
0.080974 0.031648 0.079768
0.371912 0.204915 0.208524
0.474855 0.391122 0.359203
0.507325 0.506229 0.505805
0.063974 0.092848 0.092676
0.112964 0.112965 0.112965
0.380213 0.213245 0.194899
0.475118 0.392642 0.360534
0.507327 0.506229 0.505805
0.294226 0.377985 0.278706
0.295789 0.380075 0.272749
0.391615 0.392932 0.222094
0.478625 0.411687 0.374687
0.507344 0.506263 0.505843
0.449702 0.502578 0.426657
0.449894 0.502590 0.426672
0.453499 0.502835 0.426761
0.504787 0.507224 0.402117
0.507553 0.506827 0.506457
0.507895 0.508049 0.507806
0.507890 0.508049 0.507806
0.507892 0.508044 0.507811
0.507948 0.508056 0.507880
0.508078 0.508078 0.508078
0.158183 0.174249 0.327041
0.156009 0.093992 0.359941
0.383291 0.216611 0.379873
0.475472 0.391907 0.388972
0.507368 0.506323 0.505956
0.176378 0.208446 0.331365
0.173893 0.182209 0.359321
0.386762 0.221243 0.384449
0.475754 0.393541 0.390105
0.507368 0.506325 0.505956
0.304816 0.382846 0.382384
0.305700 0.383826 0.383470
0.388652 0.388648 0.388648
0.481642 0.423364 0.413144
0.507380 0.506359 0.505989
0.452692 0.502835 0.441355
0.453064 0.502859 0.441598
0.459904 0.503367 0.446053
0.505174 0.507325 0.422737
0.507570 0.506868 0.506539
0.507890 0.508044 0.507813
0.507895 0.508049 0.507813
0.507895 0.508049 0.507813
0.507950 0.508051 0.507883
0.508078 0.508078 0.508078
0.384965 0.401125 0.500581
0.385861 0.401180 0.500593
0.400235 0.400865 0.500664
0.486805 0.436372 0.487443
0.507479 0.506609 0.506529
0.385731 0.402278 0.500626
0.386802 0.402500 0.500640
0.400955 0.402161 0.500716
0.487022 0.437314 0.487667
0.507483 0.506609 0.506529
0.398526 0.421031 0.501424
0.399657 0.421384 0.501443
0.417890 0.427065 0.501809
0.491002 0.453518 0.491689
0.507498 0.506645 0.506563
0.458927 0.503623 0.503713
0.459110 0.503637 0.503723
0.462557 0.503893 0.503945
0.499081 0.499081 0.499081
0.507669 0.507154 0.507055
0.507924 0.508056 0.507880
0.507921 0.508051 0.507880
0.507921 0.508051 0.507883
0.507974 0.508059 0.507948
0.508078 0.508078 0.508078
0.503577 0.504244 0.507669
0.503585 0.504249 0.507669
0.503668 0.504299 0.507673
0.504658 0.504849 0.507736
0.507941 0.507765 0.507909
0.503580 0.504251 0.507669
0.503585 0.504251 0.507669
0.503670 0.504306 0.507673
0.504665 0.504849 0.507741
0.507936 0.507760 0.507909
0.503644 0.504313 0.507676
0.503651 0.504315 0.507676
0.503730 0.504368 0.507678
0.504722 0.504916 0.507743
0.507943 0.507767 0.507912
0.504665 0.505359 0.507782
0.504665 0.505359 0.507782
0.504720 0.505390 0.507787
0.505577 0.505881 0.507842
0.507982 0.507866 0.507965
0.508078 0.508078 0.508078
0.508078 0.508078 0.508078
0.508078 0.508078 0.508078
0.508078 0.508078 0.508078
0.508078 0.508078 0.508078
