OCIO/luts/ACES_v2.0.0/ACES v2.0.0 Output P3D65_inverse.cube
TITLE "Generated by Foundry::LUT"
LUT_3D_SIZE 5
0.072906 0.072906 0.072906
0.357558 0.128905 0.076476
0.448946 0.191153 0.073547
0.514381 0.277961 0.094114
0.576419 0.332097 0.101305
0.208625 0.349080 0.084917
0.335820 0.338772 0.109651
0.443086 0.329577 0.098207
0.514463 0.345093 0.110859
0.578525 0.372483 0.105002
0.304424 0.451681 0.094787
0.357401 0.450070 0.130338
0.446313 0.449004 0.153919
0.521124 0.454264 0.155684
0.589323 0.468852 0.114036
0.394050 0.537196 0.169732
0.415747 0.537225 0.188701
0.476356 0.539567 0.198383
0.544544 0.547034 0.211955
0.616157 0.566521 0.136885
0.480741 0.636076 0.138441
0.493217 0.637060 0.138597
0.540247 0.642455 0.139814
0.607242 0.657347 0.143769
0.693981 0.695947 0.127480
0.154798 0.096332 0.395855
0.344963 0.101191 0.364219
0.451769 0.095056 0.306169
0.521136 0.190439 0.276022
0.588779 0.217782 0.251409
0.157831 0.344143 0.349128
0.335065 0.335065 0.335065
0.433205 0.343542 0.330443
0.511583 0.355251 0.315940
0.589326 0.332160 0.254193
0.208214 0.455884 0.248886
0.372799 0.446812 0.331821
0.446969 0.449401 0.324948
0.521036 0.455285 0.313541
0.595425 0.464167 0.262955
0.340763 0.543513 0.197421
0.417889 0.537684 0.316976
0.478118 0.539927 0.325374
0.545756 0.548137 0.321494
0.619669 0.566862 0.270369
0.455751 0.643608 0.144500
0.481527 0.641241 0.258644
0.537096 0.644686 0.290815
0.607243 0.658962 0.306522
0.696925 0.698638 0.307522
0.240391 0.137803 0.481911
0.331279 0.131974 0.477684
0.443361 0.127357 0.463277
0.521067 0.202691 0.449718
0.592795 0.208273 0.448006
0.177744 0.293703 0.489906
0.348128 0.342081 0.448756
0.437244 0.345871 0.449163
0.514208 0.356535 0.448792
0.593652 0.329678 0.447706
0.243968 0.452105 0.457317
0.379056 0.448194 0.450954
0.450818 0.450818 0.450818
0.529848 0.451549 0.444412
0.604022 0.453431 0.436663
0.313333 0.547641 0.438037
0.408912 0.542875 0.449822
0.471786 0.547499 0.441867
0.551620 0.553252 0.437466
0.632769 0.567089 0.417664
0.276050 0.659273 0.430529
0.393215 0.657674 0.432026
0.501489 0.662377 0.410623
0.607552 0.671740 0.430837
0.714049 0.714634 0.425016
0.311921 0.240335 0.541273
0.353504 0.240081 0.540907
0.443734 0.236757 0.540507
0.522062 0.241715 0.541419
0.597239 0.212628 0.552651
0.282110 0.272467 0.554387
0.368335 0.348403 0.531633
0.445715 0.352202 0.532631
0.520316 0.362028 0.536457
0.599668 0.323022 0.553841
0.282223 0.444681 0.557125
0.389794 0.451011 0.538503
0.457402 0.450784 0.544034
0.534570 0.453255 0.547628
0.614262 0.450799 0.559309
0.326601 0.549514 0.554871
0.413624 0.547793 0.552135
0.477960 0.552243 0.555449
0.559580 0.559580 0.559580
0.656306 0.556252 0.550123
0.272543 0.667097 0.585704
0.389408 0.666943 0.585393
0.476507 0.678355 0.583187
0.583067 0.703039 0.550656
0.753561 0.753183 0.556780
0.362590 0.271889 0.599613
0.387151 0.271012 0.600210
0.458030 0.264151 0.603647
0.533657 0.249667 0.611848
0.606591 0.222166 0.627208
0.349474 0.282433 0.610337
0.389052 0.327429 0.604185
0.460631 0.323353 0.607808
0.537014 0.316088 0.616081
0.610836 0.302702 0.631586
0.272487 0.425603 0.636862
0.352389 0.427589 0.635961
0.464367 0.417097 0.645006
0.558620 0.409733 0.650629
0.643991 0.373689 0.667698
0.287671 0.560282 0.648513
0.369900 0.560131 0.647742
0.441777 0.562961 0.669934
0.571702 0.547273 0.704182
0.709629 0.508855 0.736773
0.205054 0.686277 0.692371
0.382822 0.687622 0.693568
0.453098 0.703269 0.709357
0.542412 0.746869 0.753373
0.954339 0.954339 0.954339
