OCIO/luts/ACES_v2.0.0/ACES v2.0.0 Output Rec2100 (P3D65 1000nit Limited)_inverse.cube
TITLE "Generated by Foundry::LUT"
LUT_3D_SIZE 5
0.072906 0.072906 0.072906
0.397680 0.015778 0.069525
0.554244 -0.045194 0.095895
0.742373 -0.054106 0.299690
1.468035 1.468035 1.468035
0.070565 0.373777 0.084096
0.357180 0.357452 0.110483
0.553445 0.287402 0.088541
0.742605 0.294032 0.302607
1.468035 1.468035 1.468035
0.231514 0.546828 0.219626
0.336940 0.546331 0.224534
0.543071 0.542877 0.209091
0.749490 0.542335 0.264924
1.468035 1.468035 1.468035
0.395002 0.771893 0.429490
0.406823 0.772365 0.422264
0.566894 0.777853 0.355208
0.843559 0.842375 0.234981
1.468035 1.468035 1.468035
1.468035 1.468035 1.468035
1.468035 1.468035 1.468035
1.468035 1.468035 1.468035
1.468035 1.468035 1.468035
1.468035 1.468035 1.468035
-0.009886 -0.074048 0.444282
0.377581 0.055577 0.378820
0.553379 -0.016250 0.315840
0.742491 -0.045288 0.362657
1.468035 1.468035 1.468035
0.097958 0.364885 0.364496
0.353308 0.353308 0.353308
0.556615 0.233450 0.291999
0.742724 0.295726 0.364228
1.468035 1.468035 1.468035
0.236091 0.546660 0.332162
0.337115 0.546237 0.332866
0.543232 0.543028 0.321452
0.751199 0.533347 0.306911
1.468035 1.468035 1.468035
0.394933 0.772069 0.452287
0.407176 0.772540 0.446841
0.558435 0.778554 0.372989
0.844184 0.842884 0.297235
1.468035 1.468035 1.468035
1.468035 1.468035 1.468035
1.468035 1.468035 1.468035
1.468035 1.468035 1.468035
1.468035 1.468035 1.468035
1.468035 1.468035 1.468035
0.038474 -0.067568 0.574043
0.328965 0.002307 0.569275
0.547441 0.167134 0.547972
0.744166 0.100797 0.554183
1.468035 1.468035 1.468035
0.211228 0.340302 0.561441
0.336381 0.334195 0.561153
0.549549 0.262609 0.550903
0.744419 0.319769 0.554595
1.468035 1.468035 1.468035
0.279571 0.545349 0.544915
0.345561 0.545346 0.544946
0.543258 0.543258 0.543258
0.758154 0.499231 0.532885
1.468035 1.468035 1.468035
0.392794 0.774897 0.589163
0.405310 0.775384 0.588067
0.509840 0.783711 0.562746
0.854123 0.851320 0.481656
1.468035 1.468035 1.468035
1.468035 1.468035 1.468035
1.468035 1.468035 1.468035
1.468035 1.468035 1.468035
1.468035 1.468035 1.468035
1.468035 1.468035 1.468035
0.390222 0.390899 0.736646
0.414873 0.391118 0.736688
0.554103 0.393722 0.737726
0.762729 0.376556 0.763420
1.468035 1.468035 1.468035
0.392874 0.417805 0.736544
0.416807 0.417928 0.736596
0.554445 0.419562 0.737754
0.763427 0.391619 0.764216
1.468035 1.468035 1.468035
0.394509 0.555637 0.739922
0.408780 0.554096 0.741028
0.524836 0.494499 0.770115
0.775381 0.506997 0.777668
1.468035 1.468035 1.468035
-0.309863 0.805533 0.805287
-0.083355 0.806078 0.805845
0.474388 0.815545 0.815526
1.000472 1.000472 1.000472
1.468035 1.468035 1.468035
1.468035 1.468035 1.468035
1.468035 1.468035 1.468035
1.468035 1.468035 1.468035
1.468035 1.468035 1.468035
1.468035 1.468035 1.468035
1.468035 1.468035 1.468035
1.468035 1.468035 1.468035
1.468035 1.468035 1.468035
1.468035 1.468035 1.468035
1.468035 1.468035 1.468035
1.468035 1.468035 1.468035
1.468035 1.468035 1.468035
1.468035 1.468035 1.468035
1.468035 1.468035 1.468035
1.468035 1.468035 1.468035
1.468035 1.468035 1.468035
1.468035 1.468035 1.468035
1.468035 1.468035 1.468035
1.468035 1.468035 1.468035
1.468035 1.468035 1.468035
1.468035 1.468035 1.468035
1.468035 1.468035 1.468035
1.468035 1.468035 1.468035
1.468035 1.468035 1.468035
1.468035 1.468035 1.468035
1.468035 1.468035 1.468035
1.468035 1.468035 1.468035
1.468035 1.468035 1.468035
1.468035 1.468035 1.468035
1.468035 1.468035 1.468035
