OCIO/luts/ACES_v2.0.0/ACES v2.0.0 Output Rec2100 (Rec709 sim).cube
TITLE "Generated by Foundry::LUT"
LUT_3D_SIZE 65
0.000001 0.000001 0.000001
0.000001 0.000001 0.000001
0.000001 0.000001 0.000001
0.000001 0.000001 0.000001
0.000001 0.000001 0.000001
0.000529 0.000152 0.000080
0.003413 0.000936 0.000466
0.007068 0.001991 0.000989
0.011039 0.003205 0.001601
0.015151 0.004522 0.002277
0.019318 0.005911 0.003002
0.023965 0.007518 0.003853
0.029536 0.009516 0.004927
0.036154 0.011980 0.006275
0.043939 0.014994 0.007953
0.053005 0.018647 0.010025
0.063453 0.023029 0.012561
0.075364 0.028231 0.015633
0.088792 0.034338 0.019317
0.103753 0.041420 0.023684
0.120226 0.049533 0.028800
0.138135 0.058702 0.034716
0.157362 0.068923 0.041466
0.177730 0.080154 0.049054
0.199025 0.092309 0.057455
0.220992 0.105271 0.066600
0.243353 0.118886 0.076385
0.265829 0.132979 0.086666
0.288159 0.147369 0.097275
0.310108 0.161878 0.108032
0.331491 0.176346 0.118772
0.352165 0.190642 0.129343
0.372029 0.204649 0.139623
0.391008 0.218284 0.149521
0.408930 0.231367 0.158841
0.425536 0.243678 0.167333
0.441376 0.255582 0.175464
0.456271 0.266914 0.183510
0.462320 0.275109 0.199574
0.463552 0.294752 0.226332
0.464815 0.311289 0.248760
0.466040 0.325053 0.267370
0.467232 0.336861 0.283288
0.468413 0.347290 0.297298
0.469579 0.356715 0.309922
0.470756 0.365462 0.321607
0.471973 0.373789 0.332707
0.473249 0.381922 0.343525
0.474618 0.390039 0.354309
0.476113 0.398287 0.365264
0.477767 0.406797 0.376544
0.479611 0.415662 0.388277
0.481695 0.424946 0.400547
0.484045 0.434668 0.413367
0.486692 0.444799 0.426686
0.489623 0.455233 0.440346
0.492798 0.465720 0.454011
0.496063 0.475779 0.467041
0.499168 0.484757 0.478600
0.501800 0.491985 0.487847
0.503807 0.497290 0.494588
0.505225 0.500956 0.499211
0.506203 0.503429 0.502314
0.506868 0.505088 0.504390
0.507325 0.506220 0.505795
0.000001 0.000001 0.000001
0.000001 0.000001 0.000001
0.000001 0.000001 0.000001
0.000001 0.000001 0.000001
0.000001 0.000001 0.000001
0.000529 0.000152 0.000080
0.003413 0.000936 0.000466
0.007068 0.001991 0.000989
0.011039 0.003205 0.001601
0.015151 0.004522 0.002277
0.019318 0.005911 0.003002
0.023965 0.007518 0.003853
0.029536 0.009516 0.004927
0.036154 0.011980 0.006275
0.043939 0.014994 0.007953
0.053005 0.018647 0.010025
0.063453 0.023029 0.012561
0.075364 0.028231 0.015633
0.088792 0.034338 0.019317
0.103753 0.041420 0.023684
0.120226 0.049533 0.028800
0.138135 0.058702 0.034716
0.157362 0.068923 0.041466
0.177730 0.080154 0.049054
0.199025 0.092309 0.057455
0.220992 0.105271 0.066600
0.243353 0.118886 0.076385
0.265829 0.132979 0.086666
0.288159 0.147369 0.097275
0.310108 0.161878 0.108032
0.331491 0.176346 0.118772
0.352165 0.190642 0.129343
0.372026 0.204649 0.139622
0.391008 0.218284 0.149521
0.408930 0.231367 0.158841
0.425536 0.243678 0.167333
0.441376 0.255582 0.175466
0.456271 0.266914 0.183510
0.462320 0.275109 0.199574
0.463557 0.294752 0.226331
0.464815 0.311289 0.248760
0.466040 0.325053 0.267370
0.467232 0.336861 0.283288
0.468413 0.347290 0.297298
0.469579 0.356715 0.309922
0.470756 0.365462 0.321605
0.471973 0.373793 0.332705
0.473249 0.381922 0.343525
0.474618 0.390039 0.354309
0.476113 0.398287 0.365264
0.477767 0.406797 0.376544
0.479616 0.415666 0.388284
0.481695 0.424946 0.400547
0.484045 0.434668 0.413367
0.486690 0.444803 0.426686
0.489623 0.455233 0.440346
0.492798 0.465720 0.454011
0.496063 0.475779 0.467041
0.499168 0.484757 0.478600
0.501800 0.491985 0.487847
0.503807 0.497295 0.494588
0.505225 0.500956 0.499211
0.506203 0.503429 0.502314
0.506873 0.505088 0.504390
0.507325 0.506220 0.505795
0.000001 0.000001 0.000001
0.000001 0.000001 0.000001
0.000001 0.000001 0.000001
0.000001 0.000001 0.000001
0.000001 0.000001 0.000001
0.000529 0.000152 0.000080
0.003413 0.000936 0.000466
0.007068 0.001991 0.000989
0.011039 0.003205 0.001601
0.015151 0.004522 0.002277
0.019318 0.005911 0.003002
0.023965 0.007518 0.003853
0.029536 0.009516 0.004927
0.036154 0.011980 0.006275
0.043939 0.014994 0.007953
0.053005 0.018647 0.010025
0.063453 0.023029 0.012561
0.075364 0.028231 0.015633
0.088792 0.034338 0.019317
0.103753 0.041420 0.023684
0.120226 0.049533 0.028800
0.138135 0.058702 0.034716
0.157362 0.068923 0.041466
0.177730 0.080154 0.049054
0.199025 0.092309 0.057455
0.220992 0.105271 0.066600
0.243353 0.118886 0.076385
0.265829 0.132979 0.086666
0.288159 0.147369 0.097275
0.310108 0.161878 0.108032
0.331491 0.176346 0.118772
0.352165 0.190642 0.129343
0.372029 0.204649 0.139623
0.391008 0.218284 0.149521
0.408930 0.231367 0.158841
0.425536 0.243678 0.167333
0.441376 0.255582 0.175466
0.456271 0.266914 0.183510
0.462320 0.275109 0.199574
0.463557 0.294752 0.226332
0.464815 0.311289 0.248760
0.466040 0.325053 0.267370
0.467232 0.336861 0.283288
0.468413 0.347290 0.297298
0.469579 0.356715 0.309922
0.470756 0.365462 0.321605
0.471973 0.373793 0.332705
0.473249 0.381922 0.343525
0.474618 0.390039 0.354309
0.476113 0.398287 0.365264
0.477767 0.406797 0.376544
0.479611 0.415662 0.388277
0.481695 0.424946 0.400547
0.484045 0.434668 0.413367
0.486692 0.444799 0.426686
0.489627 0.455237 0.440350
0.492798 0.465720 0.454011
0.496063 0.475779 0.467041
0.499168 0.484757 0.478600
0.501800 0.491985 0.487847
0.503807 0.497295 0.494588
0.505230 0.500956 0.499211
0.506208 0.503427 0.502314
0.506873 0.505088 0.504390
0.507325 0.506220 0.505795
0.000001 0.000001 0.000001
0.000001 0.000001 0.000001
0.000001 0.000001 0.000001
0.000001 0.000001 0.000001
0.000001 0.000001 0.000001
0.000529 0.000152 0.000080
0.003413 0.000936 0.000466
0.007068 0.001991 0.000989
0.011039 0.003205 0.001601
0.015151 0.004522 0.002277
0.019318 0.005911 0.003002
0.023965 0.007518 0.003853
0.029536 0.009516 0.004927
0.036154 0.011980 0.006275
0.043939 0.014994 0.007953
0.053005 0.018647 0.010025
0.063453 0.023029 0.012561
0.075364 0.028231 0.015633
0.088792 0.034338 0.019317
0.103753 0.041420 0.023684
0.120226 0.049533 0.028800
0.138135 0.058702 0.034716
0.157362 0.068923 0.041466
0.177730 0.080154 0.049054
0.199025 0.092309 0.057455
0.220992 0.105271 0.066600
0.243353 0.118886 0.076385
0.265829 0.132979 0.086666
0.288159 0.147369 0.097275
0.310108 0.161878 0.108032
0.331491 0.176346 0.118772
0.352165 0.190642 0.129343
0.372026 0.204649 0.139622
0.391008 0.218284 0.149521
0.408930 0.231367 0.158841
0.425536 0.243678 0.167333
0.441376 0.255582 0.175464
0.456271 0.266914 0.183510
0.462320 0.275109 0.199574
0.463557 0.294752 0.226332
0.464815 0.311289 0.248760
0.466040 0.325053 0.267370
0.467232 0.336861 0.283288
0.468413 0.347290 0.297298
0.469579 0.356716 0.309923
0.470756 0.365462 0.321605
0.471973 0.373793 0.332705
0.473249 0.381922 0.343525
0.474618 0.390039 0.354309
0.476113 0.398287 0.365264
0.477767 0.406797 0.376544
0.479616 0.415666 0.388277
0.481695 0.424946 0.400547
0.484045 0.434668 0.413367
0.486692 0.444799 0.426686
0.489623 0.455233 0.440350
0.492802 0.465720 0.454011
0.496063 0.475779 0.467041
0.499168 0.484757 0.478600
0.501800 0.491985 0.487847
0.503807 0.497295 0.494588
0.505230 0.500956 0.499211
0.506203 0.503429 0.502314
0.506873 0.505088 0.504390
0.507325 0.506220 0.505795
0.000001 0.000001 0.000001
0.000001 0.000001 0.000001
0.000001 0.000001 0.000001
0.000001 0.000001 0.000001
0.000001 0.000001 0.000001
0.000529 0.000152 0.000080
0.003413 0.000936 0.000466
0.007068 0.001991 0.000989
0.011039 0.003205 0.001601
0.015151 0.004522 0.002277
0.019318 0.005911 0.003002
0.023965 0.007518 0.003853
0.029536 0.009516 0.004927
0.036154 0.011980 0.006275
0.043939 0.014994 0.007953
0.053005 0.018647 0.010025
0.063453 0.023029 0.012561
0.075364 0.028231 0.015633
0.088792 0.034338 0.019317
0.103753 0.041420 0.023684
0.120226 0.049533 0.028800
0.138135 0.058702 0.034716
0.157362 0.068923 0.041466
0.177730 0.080152 0.049054
0.199025 0.092309 0.057455
0.220992 0.105271 0.066600
0.243353 0.118886 0.076385
0.265829 0.132979 0.086666
0.288159 0.147369 0.097274
0.310108 0.161878 0.108032
0.331491 0.176346 0.118772
0.352165 0.190642 0.129343
0.372026 0.204649 0.139622
0.391008 0.218284 0.149521
0.408930 0.231367 0.158841
0.425536 0.243678 0.167333
0.441376 0.255582 0.175464
0.456271 0.266914 0.183510
0.462320 0.275109 0.199574
0.463557 0.294752 0.226332
0.464815 0.311289 0.248760
0.466040 0.325053 0.267370
0.467232 0.336861 0.283288
0.468413 0.347290 0.297298
0.469579 0.356715 0.309922
0.470756 0.365462 0.321607
0.471973 0.373793 0.332705
0.473249 0.381922 0.343525
0.474618 0.390039 0.354309
0.476113 0.398287 0.365264
0.477767 0.406797 0.376544
0.479616 0.415666 0.388277
0.481695 0.424946 0.400547
0.484045 0.434668 0.413367
0.486692 0.444799 0.426686
0.489623 0.455233 0.440350
0.492802 0.465720 0.454011
0.496063 0.475779 0.467041
0.499168 0.484757 0.478600
0.501800 0.491985 0.487847
0.503807 0.497295 0.494588
0.505230 0.500956 0.499211
0.506203 0.503429 0.502314
0.506873 0.505088 0.504390
0.507325 0.506220 0.505795
0.000425 0.000767 0.000325
0.000425 0.000767 0.000325
0.000425 0.000767 0.000325
0.000425 0.000767 0.000325
0.000425 0.000767 0.000325
0.001273 0.001290 0.000347
0.004709 0.002587 0.000799
0.008636 0.003881 0.001316
0.012783 0.005194 0.001884
0.017022 0.006525 0.002491
0.021283 0.007878 0.003130
0.026019 0.009389 0.003870
0.031667 0.011242 0.004799
0.038368 0.013474 0.005955
0.046225 0.016179 0.007390
0.055369 0.019618 0.009196
0.065771 0.024018 0.011445
0.077515 0.029185 0.014147
0.090765 0.035248 0.017808
0.105547 0.042281 0.022212
0.121839 0.050338 0.027377
0.139574 0.059447 0.033355
0.158632 0.069606 0.040179
0.178834 0.080768 0.047835
0.199964 0.092850 0.056301
0.221780 0.105740 0.065519
0.244005 0.119285 0.075379
0.266363 0.133316 0.085738
0.288593 0.147648 0.096427
0.310459 0.162109 0.107266
0.331773 0.176537 0.118083
0.352391 0.190798 0.128729
0.372215 0.204780 0.139080
0.391159 0.218392 0.149043
0.409048 0.231457 0.158420
0.425641 0.243757 0.166971
0.441466 0.255650 0.175154
0.456347 0.266970 0.183259
0.462329 0.275256 0.199500
0.463559 0.294876 0.226307
0.464819 0.311383 0.248748
0.466045 0.325124 0.267368
0.467243 0.336920 0.283292
0.468415 0.347336 0.297305
0.469583 0.356755 0.309933
0.470763 0.365492 0.321616
0.471975 0.373814 0.332716
0.473251 0.381946 0.343535
0.474618 0.390055 0.354321
0.476116 0.398304 0.365271
0.477765 0.406813 0.376553
0.479611 0.415672 0.388291
0.481697 0.424954 0.400551
0.484049 0.434676 0.413375
0.486694 0.444808 0.426698
0.489627 0.455237 0.440357
0.492802 0.465724 0.454018
0.496066 0.475779 0.467045
0.499171 0.484757 0.478604
0.501800 0.491985 0.487847
0.503807 0.497295 0.494588
0.505230 0.500956 0.499216
0.506203 0.503429 0.502314
0.506873 0.505088 0.504390
0.507325 0.506222 0.505795
0.002743 0.004911 0.002091
0.002743 0.004911 0.002091
0.002743 0.004911 0.002091
0.002743 0.004911 0.002091
0.002743 0.004911 0.002091
0.003513 0.006000 0.001548
0.007912 0.008011 0.002220
0.012295 0.009873 0.002904
0.016677 0.011646 0.003602
0.021035 0.013355 0.004314
0.025351 0.015015 0.005039
0.030090 0.016815 0.005857
0.035709 0.018935 0.006859
0.042323 0.021431 0.008084
0.050062 0.024351 0.009576
0.059031 0.027772 0.011389
0.069333 0.031767 0.013580
0.081061 0.036397 0.016210
0.094267 0.041743 0.019344
0.108965 0.047898 0.023048
0.125157 0.054893 0.027378
0.142772 0.062780 0.032380
0.161685 0.071637 0.038101
0.181763 0.082404 0.044775
0.202434 0.094273 0.052138
0.223854 0.106971 0.061585
0.245737 0.120345 0.071822
0.267806 0.134223 0.082550
0.289791 0.148423 0.093593
0.311455 0.162766 0.104767
0.332596 0.177092 0.115901
0.353066 0.191263 0.126836
0.372759 0.205165 0.137427
0.391617 0.218714 0.147596
0.409410 0.231719 0.157148
0.425953 0.243987 0.165875
0.441741 0.255853 0.174216
0.456559 0.267135 0.182509
0.462349 0.275702 0.199279
0.463588 0.295245 0.226233
0.464846 0.311660 0.248716
0.466067 0.325341 0.267361
0.467258 0.337094 0.283306
0.468430 0.347477 0.297329
0.469601 0.356868 0.309960
0.470772 0.365587 0.321646
0.471989 0.373894 0.332750
0.473265 0.382008 0.343568
0.474632 0.390109 0.354350
0.476118 0.398346 0.365300
0.477776 0.406851 0.376580
0.479620 0.415708 0.388314
0.481704 0.424978 0.400574
0.484052 0.434699 0.413393
0.486697 0.444824 0.426710
0.489630 0.455256 0.440369
0.492805 0.465735 0.454028
0.496070 0.475788 0.467057
0.499168 0.484762 0.478609
0.501804 0.491992 0.487854
0.503807 0.497295 0.494591
0.505230 0.500956 0.499213
0.506203 0.503429 0.502318
0.506873 0.505093 0.504390
0.507325 0.506222 0.505795
0.005720 0.010005 0.004397
0.005720 0.010005 0.004397
0.005720 0.010005 0.004397
0.005720 0.010005 0.004397
0.005720 0.010005 0.004397
0.006434 0.011272 0.003626
0.010929 0.013736 0.003852
0.015630 0.015815 0.004630
0.020193 0.017777 0.005407
0.024650 0.019653 0.006185
0.029014 0.021459 0.006965
0.033769 0.023402 0.007835
0.039372 0.025667 0.008887
0.045936 0.028301 0.010159
0.053579 0.031357 0.011693
0.062419 0.034889 0.013538
0.072549 0.038968 0.015750
0.084077 0.043638 0.018383
0.097048 0.048981 0.021504
0.111494 0.055062 0.025174
0.127412 0.061922 0.029448
0.144749 0.069607 0.034375
0.163383 0.078181 0.039997
0.183182 0.087596 0.046321
0.203939 0.097829 0.053338
0.225410 0.108888 0.061029
0.247369 0.121349 0.069505
0.269142 0.135064 0.078909
0.290894 0.149135 0.090358
0.312372 0.163373 0.101909
0.333367 0.177615 0.113385
0.353724 0.191716 0.124632
0.373327 0.205561 0.135530
0.392092 0.219057 0.145985
0.409805 0.232004 0.155775
0.426293 0.244234 0.164722
0.442028 0.256066 0.173248
0.456776 0.267298 0.181752
0.462370 0.276149 0.199063
0.463612 0.295613 0.226158
0.464863 0.311938 0.248680
0.466082 0.325556 0.267352
0.467272 0.337271 0.283319
0.468446 0.347619 0.297350
0.469608 0.356983 0.309990
0.470788 0.365681 0.321679
0.471995 0.373975 0.332780
0.473274 0.382073 0.343599
0.474638 0.390165 0.354378
0.476131 0.398393 0.365328
0.477779 0.406886 0.376605
0.479629 0.415735 0.388338
0.481711 0.425005 0.400599
0.484058 0.434713 0.413411
0.486701 0.444841 0.426730
0.489632 0.455272 0.440386
0.492807 0.465749 0.454039
0.496075 0.475802 0.467070
0.499173 0.484768 0.478616
0.501802 0.491992 0.487859
0.503809 0.497297 0.494591
0.505230 0.500961 0.499213
0.506203 0.503432 0.502314
0.506868 0.505093 0.504390
0.507325 0.506222 0.505795
0.008984 0.015407 0.006959
0.008984 0.015407 0.006959
0.008984 0.015407 0.006959
0.008984 0.015407 0.006959
0.008984 0.015407 0.006959
0.009731 0.016693 0.006247
0.013865 0.019545 0.005614
0.018787 0.021708 0.006449
0.023486 0.023751 0.007276
0.028019 0.025699 0.008095
0.032420 0.027570 0.008910
0.037185 0.029578 0.009813
0.042772 0.031912 0.010899
0.049291 0.034616 0.012201
0.056855 0.037739 0.013763
0.065582 0.041327 0.015628
0.075570 0.045443 0.017849
0.086916 0.050132 0.020482
0.099677 0.055461 0.023587
0.113898 0.061471 0.027221
0.129568 0.068227 0.031442
0.146638 0.075768 0.036300
0.165015 0.084117 0.041830
0.184569 0.093240 0.048042
0.205071 0.103201 0.054948
0.226337 0.113846 0.062498
0.248085 0.125117 0.070637
0.270052 0.136957 0.079297
0.291991 0.149847 0.088540
0.313280 0.163973 0.098888
0.334134 0.178131 0.110753
0.354378 0.192166 0.122346
0.373889 0.205958 0.133550
0.392588 0.219409 0.144275
0.410228 0.232313 0.154293
0.426682 0.244521 0.163460
0.442377 0.256330 0.172173
0.457067 0.267515 0.180904
0.462392 0.276547 0.198787
0.463634 0.295964 0.226064
0.464883 0.312208 0.248641
0.466105 0.325770 0.267343
0.467292 0.337443 0.283331
0.468461 0.347758 0.297373
0.469623 0.357097 0.310016
0.470801 0.365775 0.321709
0.472009 0.374053 0.332813
0.473283 0.382139 0.343628
0.474647 0.390213 0.354411
0.476138 0.398437 0.365358
0.477785 0.406921 0.376632
0.479634 0.415771 0.388358
0.481718 0.425025 0.400621
0.484061 0.434740 0.413432
0.486703 0.444858 0.426747
0.489639 0.455282 0.440401
0.492812 0.465760 0.454052
0.496073 0.475811 0.467079
0.499175 0.484775 0.478625
0.501807 0.491994 0.487861
0.503809 0.497297 0.494595
0.505230 0.500961 0.499213
0.506203 0.503432 0.502314
0.506873 0.505093 0.504390
0.507325 0.506222 0.505795
0.012386 0.020894 0.009659
0.012386 0.020894 0.009659
0.012386 0.020894 0.009659
0.012386 0.020894 0.009659
0.012386 0.020894 0.009659
0.013146 0.022171 0.008975
0.016742 0.025323 0.007455
0.021822 0.027506 0.008326
0.026615 0.029574 0.009183
0.031207 0.031547 0.010029
0.035634 0.033439 0.010867
0.040404 0.035469 0.011790
0.045973 0.037826 0.012896
0.052449 0.040554 0.014217
0.059943 0.043697 0.015794
0.068567 0.047304 0.017669
0.078426 0.051422 0.019893
0.089605 0.056107 0.022520
0.102176 0.061404 0.025604
0.116186 0.067353 0.029203
0.131619 0.074023 0.033375
0.148449 0.081426 0.038165
0.166589 0.089576 0.043606
0.185903 0.098471 0.049717
0.206184 0.108139 0.056505
0.227237 0.118480 0.063931
0.248786 0.129463 0.071951
0.270606 0.140853 0.080459
0.292412 0.152652 0.089388
0.313974 0.164683 0.098619
0.334896 0.178648 0.108470
0.355030 0.192615 0.119972
0.374453 0.206355 0.131506
0.393079 0.219763 0.142521
0.410655 0.232622 0.152782
0.427073 0.244809 0.162174
0.442734 0.256594 0.171081
0.457351 0.267729 0.180053
0.462414 0.276951 0.198514
0.463654 0.296316 0.225972
0.464909 0.312482 0.248603
0.466122 0.325984 0.267335
0.467309 0.337618 0.283344
0.468477 0.347897 0.297397
0.469641 0.357213 0.310046
0.470810 0.365871 0.321740
0.472018 0.374126 0.332843
0.473294 0.382200 0.343660
0.474656 0.390272 0.354441
0.476147 0.398488 0.365384
0.477794 0.406958 0.376660
0.479641 0.415803 0.388384
0.481725 0.425055 0.400641
0.484068 0.434759 0.413452
0.486710 0.444877 0.426765
0.489639 0.455298 0.440417
0.492814 0.465768 0.454063
0.496080 0.475818 0.467088
0.499180 0.484778 0.478631
0.501807 0.492001 0.487864
0.503809 0.497302 0.494598
0.505230 0.500963 0.499213
0.506203 0.503432 0.502314
0.506868 0.505093 0.504390
0.507325 0.506222 0.505795
0.015851 0.026364 0.012433
0.015851 0.026364 0.012433
0.015851 0.026364 0.012433
0.015851 0.026364 0.012433
0.015851 0.026364 0.012433
0.016612 0.027618 0.011767
0.019569 0.031015 0.009347
0.024760 0.033185 0.010239
0.029622 0.035245 0.011115
0.034250 0.037214 0.011977
0.038696 0.039105 0.012827
0.043467 0.041130 0.013763
0.049014 0.043482 0.014879
0.055448 0.046204 0.016210
0.062874 0.049339 0.017793
0.071404 0.052934 0.019670
0.081141 0.057033 0.021890
0.092172 0.061685 0.024503
0.104567 0.066937 0.027564
0.118375 0.072826 0.031128
0.133604 0.079382 0.035246
0.150207 0.086657 0.039969
0.168111 0.094656 0.045330
0.187193 0.103364 0.051348
0.207268 0.112763 0.058020
0.228106 0.122855 0.065333
0.249491 0.133482 0.073218
0.271128 0.144648 0.081620
0.292817 0.156041 0.090406
0.314283 0.167689 0.099509
0.335336 0.179430 0.108813
0.355682 0.193069 0.118690
0.375015 0.206750 0.129396
0.393573 0.220116 0.140718
0.411079 0.232933 0.151235
0.427463 0.245097 0.160864
0.443085 0.256857 0.169972
0.457631 0.267943 0.179198
0.462438 0.277356 0.198249
0.463678 0.296666 0.225879
0.464927 0.312753 0.248565
0.466140 0.326197 0.267328
0.467329 0.337790 0.283357
0.468493 0.348040 0.297419
0.469652 0.357328 0.310072
0.470821 0.365962 0.321768
0.472031 0.374206 0.332875
0.473303 0.382262 0.343692
0.474665 0.390324 0.354471
0.476154 0.398530 0.365413
0.477801 0.407000 0.376691
0.479647 0.415830 0.388408
0.481727 0.425083 0.400665
0.484075 0.434781 0.413470
0.486713 0.444894 0.426777
0.489646 0.455315 0.440432
0.492819 0.465782 0.454078
0.496085 0.475831 0.467101
0.499180 0.484784 0.478638
0.501807 0.492001 0.487873
0.503809 0.497304 0.494598
0.505230 0.500963 0.499218
0.506203 0.503432 0.502314
0.506873 0.505093 0.504390
0.507325 0.506222 0.505795
0.019729 0.032373 0.015563
0.019729 0.032373 0.015563
0.019729 0.032373 0.015563
0.019729 0.032373 0.015563
0.019729 0.032373 0.015563
0.020484 0.033596 0.014911
0.022723 0.037222 0.011490
0.027934 0.039350 0.012391
0.032847 0.041381 0.013278
0.037502 0.043325 0.014149
0.041956 0.045195 0.015007
0.046723 0.047200 0.015949
0.052246 0.049526 0.017070
0.058632 0.052219 0.018403
0.065986 0.055322 0.019984
0.074415 0.058880 0.021856
0.084023 0.062936 0.024064
0.094899 0.067535 0.026657
0.107116 0.072717 0.029688
0.120714 0.078526 0.033210
0.135715 0.084984 0.037273
0.152091 0.092110 0.041921
0.169751 0.099940 0.047195
0.188587 0.108458 0.053112
0.208430 0.117629 0.059671
0.229065 0.127407 0.066848
0.250240 0.137779 0.074611
0.271729 0.148548 0.082862
0.293244 0.159723 0.091539
0.314610 0.170963 0.100497
0.335579 0.182323 0.109668
0.355995 0.193657 0.118947
0.375649 0.207196 0.128848
0.394122 0.220509 0.138652
0.411556 0.233279 0.149471
0.427894 0.245420 0.159376
0.443479 0.257154 0.168715
0.457942 0.268178 0.178239
0.462463 0.277812 0.197959
0.463702 0.297055 0.225776
0.464951 0.313055 0.248522
0.466162 0.326437 0.267317
0.467347 0.337982 0.283370
0.468513 0.348194 0.297443
0.469668 0.357453 0.310103
0.470835 0.366066 0.321804
0.472045 0.374291 0.332910
0.473312 0.382339 0.343727
0.474672 0.390378 0.354502
0.476163 0.398577 0.365443
0.477810 0.407045 0.376718
0.479654 0.415864 0.388437
0.481734 0.425114 0.400686
0.484081 0.434802 0.413493
0.486720 0.444913 0.426799
0.489648 0.455330 0.440453
0.492826 0.465797 0.454089
0.496087 0.475840 0.467110
0.499182 0.484796 0.478645
0.501809 0.492008 0.487875
0.503814 0.497304 0.494603
0.505232 0.500963 0.499218
0.506208 0.503432 0.502316
0.506873 0.505093 0.504390
0.507325 0.506222 0.505795
0.024393 0.039469 0.019355
0.024393 0.039469 0.019355
0.024393 0.039469 0.019355
0.024393 0.039469 0.019355
0.024393 0.039469 0.019355
0.025135 0.040648 0.018720
0.027327 0.044155 0.015136
0.031650 0.046564 0.015003
0.036597 0.048543 0.015893
0.041266 0.050442 0.016767
0.045718 0.052271 0.017626
0.050469 0.054236 0.018568
0.055964 0.056518 0.019688
0.062293 0.059156 0.021015
0.069561 0.062198 0.022586
0.077877 0.065688 0.024443
0.087337 0.069672 0.026629
0.098037 0.074188 0.029192
0.110050 0.079275 0.032182
0.123421 0.084969 0.035650
0.138165 0.091297 0.039645
0.154267 0.098275 0.044210
0.171663 0.105900 0.049379
0.190221 0.114194 0.055177
0.209791 0.123120 0.061606
0.230177 0.132616 0.068641
0.251141 0.142619 0.076239
0.272413 0.153095 0.084346
0.293783 0.163820 0.092851
0.314973 0.174823 0.101685
0.335848 0.185743 0.110698
0.356190 0.196670 0.119836
0.375882 0.207485 0.129001
0.394788 0.220993 0.138899
0.412143 0.233706 0.148274
0.428426 0.245810 0.157533
0.443955 0.257511 0.167166
0.458309 0.268460 0.177073
0.462489 0.278368 0.197615
0.463737 0.297524 0.225650
0.464976 0.313418 0.248467
0.466191 0.326725 0.267307
0.467369 0.338215 0.283385
0.468530 0.348383 0.297473
0.469686 0.357607 0.310140
0.470853 0.366192 0.321844
0.472060 0.374396 0.332951
0.473323 0.382428 0.343768
0.474688 0.390456 0.354544
0.476172 0.398640 0.365485
0.477822 0.407087 0.376750
0.479663 0.415907 0.388471
0.481741 0.425144 0.400717
0.484088 0.434837 0.413523
0.486727 0.444936 0.426824
0.489660 0.455352 0.440472
0.492828 0.465813 0.454108
0.496092 0.475854 0.467125
0.499187 0.484801 0.478654
0.501809 0.492015 0.487877
0.503814 0.497307 0.494605
0.505232 0.500963 0.499220
0.506208 0.503432 0.502316
0.506873 0.505088 0.504394
0.507325 0.506220 0.505795
0.029947 0.047764 0.023908
0.029947 0.047764 0.023908
0.029947 0.047764 0.023908
0.029947 0.047764 0.023908
0.029947 0.047764 0.023908
0.030669 0.048891 0.023285
0.032785 0.052214 0.020100
0.035981 0.054937 0.018149
0.040941 0.056841 0.019034
0.045608 0.058673 0.019903
0.050046 0.060441 0.020756
0.054768 0.062343 0.021691
0.060216 0.064555 0.022801
0.066483 0.067119 0.024115
0.073654 0.070070 0.025666
0.081838 0.073461 0.027496
0.091134 0.077333 0.029647
0.101634 0.081732 0.032167
0.113413 0.086688 0.035101
0.126525 0.092234 0.038500
0.140989 0.098395 0.042411
0.156786 0.105188 0.046876
0.173864 0.112608 0.051929
0.192120 0.120641 0.057588
0.211387 0.129282 0.063863
0.231480 0.138478 0.070736
0.252182 0.148144 0.078163
0.273241 0.158196 0.086079
0.294392 0.168595 0.094420
0.315448 0.179099 0.103059
0.336148 0.189765 0.111937
0.356407 0.200228 0.120905
0.376026 0.210612 0.129919
0.394934 0.221098 0.138976
0.412843 0.234223 0.148657
0.429074 0.246294 0.157658
0.444537 0.257951 0.166435
0.458753 0.268794 0.175655
0.462526 0.279046 0.197208
0.463770 0.298086 0.225497
0.465013 0.313858 0.248406
0.466217 0.327072 0.267296
