OCIO/luts/ACES_v2.0.0/ACES v2.0.0 Output P3D65 (Rec709 sim).cube
TITLE "Generated by Foundry::LUT"
LUT_3D_SIZE 65
0.000000 0.000000 0.000000
0.000000 0.000000 0.000000
0.000000 0.000000 0.000000
0.000000 0.000000 0.000000
0.000000 0.000000 0.000000
0.002578 0.000750 0.000635
0.008755 0.002547 0.002165
0.014334 0.004171 0.003550
0.019613 0.005707 0.004862
0.024689 0.007183 0.006124
0.029610 0.008615 0.007347
0.034944 0.010167 0.008674
0.041217 0.011992 0.010234
0.048585 0.014136 0.012067
0.057224 0.016650 0.014216
0.067332 0.019591 0.016731
0.079129 0.023023 0.019668
0.092855 0.027017 0.023087
0.108765 0.031646 0.027053
0.127124 0.036987 0.031636
0.148197 0.043119 0.036906
0.172230 0.050111 0.042931
0.199441 0.058028 0.049773
0.229990 0.066917 0.057480
0.263963 0.076801 0.066081
0.301350 0.087679 0.075572
0.342035 0.099517 0.085913
0.385799 0.112250 0.097024
0.432331 0.125789 0.108784
0.481259 0.140025 0.121046
0.532176 0.154839 0.133647
0.584670 0.170113 0.146426
0.638338 0.185727 0.159231
0.692785 0.201569 0.171928
0.747184 0.217397 0.184231
0.800375 0.232873 0.195748
0.853722 0.248395 0.207057
0.906331 0.263702 0.218510
0.927872 0.280933 0.241563
0.929636 0.336762 0.281803
0.931437 0.381708 0.318482
0.933192 0.418688 0.351043
0.934910 0.450489 0.380492
0.936606 0.478795 0.407676
0.938298 0.504667 0.433231
0.940015 0.528975 0.457800
0.941791 0.552444 0.481997
0.943668 0.575691 0.506402
0.945692 0.599260 0.531566
0.947915 0.623629 0.558006
0.950395 0.649219 0.586205
0.953192 0.676400 0.616606
0.956375 0.705475 0.649594
0.960008 0.736652 0.685449
0.964145 0.769977 0.724261
0.968809 0.805210 0.765771
0.973942 0.841622 0.809096
0.979319 0.877536 0.852186
0.984521 0.910446 0.891910
0.989005 0.937571 0.924745
0.992472 0.957843 0.949292
0.994955 0.972012 0.966428
0.996672 0.981658 0.978066
0.997847 0.988186 0.985920
0.998655 0.992642 0.991265
0.000000 0.000000 0.000000
0.000000 0.000000 0.000000
0.000000 0.000000 0.000000
0.000000 0.000000 0.000000
0.000000 0.000000 0.000000
0.002578 0.000750 0.000635
0.008755 0.002547 0.002165
0.014334 0.004171 0.003550
0.019613 0.005707 0.004862
0.024689 0.007183 0.006124
0.029610 0.008615 0.007347
0.034944 0.010167 0.008674
0.041217 0.011992 0.010234
0.048585 0.014136 0.012067
0.057224 0.016650 0.014216
0.067332 0.019591 0.016731
0.079129 0.023023 0.019668
0.092855 0.027017 0.023087
0.108765 0.031646 0.027053
0.127124 0.036987 0.031636
0.148197 0.043119 0.036906
0.172230 0.050111 0.042931
0.199441 0.058028 0.049773
0.229990 0.066917 0.057480
0.263963 0.076801 0.066081
0.301350 0.087679 0.075572
0.342035 0.099517 0.085913
0.385799 0.112250 0.097024
0.432331 0.125789 0.108784
0.481259 0.140025 0.121046
0.532176 0.154839 0.133647
0.584670 0.170113 0.146426
0.638337 0.185727 0.159231
0.692785 0.201569 0.171928
0.747184 0.217397 0.184231
0.800375 0.232873 0.195748
0.853723 0.248395 0.207057
0.906331 0.263702 0.218510
0.927872 0.280933 0.241563
0.929636 0.336762 0.281803
0.931437 0.381708 0.318482
0.933192 0.418688 0.351043
0.934910 0.450488 0.380491
0.936606 0.478795 0.407676
0.938298 0.504667 0.433231
0.940015 0.528976 0.457801
0.941791 0.552443 0.481997
0.943668 0.575691 0.506403
0.945692 0.599260 0.531566
0.947915 0.623629 0.558006
0.950395 0.649219 0.586205
0.953192 0.676400 0.616606
0.956375 0.705475 0.649593
0.960008 0.736652 0.685449
0.964145 0.769977 0.724262
0.968809 0.805210 0.765771
0.973942 0.841622 0.809096
0.979319 0.877536 0.852186
0.984521 0.910446 0.891910
0.989005 0.937571 0.924745
0.992472 0.957843 0.949292
0.994955 0.972012 0.966428
0.996672 0.981658 0.978066
0.997847 0.988186 0.985920
0.998655 0.992643 0.991265
0.000000 0.000000 0.000000
0.000000 0.000000 0.000000
0.000000 0.000000 0.000000
0.000000 0.000000 0.000000
0.000000 0.000000 0.000000
0.002578 0.000750 0.000635
0.008755 0.002547 0.002165
0.014334 0.004171 0.003550
0.019613 0.005707 0.004862
0.024689 0.007183 0.006124
0.029610 0.008615 0.007347
0.034944 0.010167 0.008674
0.041217 0.011992 0.010234
0.048585 0.014136 0.012067
0.057224 0.016650 0.014216
0.067332 0.019591 0.016731
0.079129 0.023023 0.019668
0.092855 0.027017 0.023087
0.108765 0.031646 0.027053
0.127124 0.036987 0.031636
0.148197 0.043119 0.036906
0.172230 0.050111 0.042931
0.199441 0.058028 0.049773
0.229990 0.066917 0.057480
0.263963 0.076801 0.066081
0.301350 0.087679 0.075572
0.342035 0.099517 0.085913
0.385799 0.112250 0.097024
0.432331 0.125789 0.108784
0.481259 0.140025 0.121046
0.532176 0.154839 0.133647
0.584670 0.170113 0.146426
0.638338 0.185727 0.159231
0.692785 0.201569 0.171928
0.747184 0.217397 0.184231
0.800375 0.232873 0.195748
0.853723 0.248395 0.207057
0.906331 0.263702 0.218510
0.927872 0.280933 0.241563
0.929636 0.336762 0.281803
0.931437 0.381708 0.318482
0.933192 0.418688 0.351043
0.934910 0.450489 0.380492
0.936606 0.478795 0.407676
0.938298 0.504667 0.433231
0.940015 0.528976 0.457801
0.941791 0.552443 0.481997
0.943668 0.575691 0.506403
0.945692 0.599260 0.531566
0.947915 0.623629 0.558006
0.950395 0.649219 0.586205
0.953192 0.676400 0.616606
0.956375 0.705475 0.649593
0.960008 0.736652 0.685449
0.964145 0.769977 0.724261
0.968809 0.805208 0.765769
0.973942 0.841622 0.809096
0.979319 0.877536 0.852186
0.984521 0.910446 0.891910
0.989005 0.937571 0.924744
0.992472 0.957843 0.949292
0.994954 0.972011 0.966428
0.996672 0.981658 0.978066
0.997847 0.988186 0.985920
0.998655 0.992642 0.991265
0.000000 0.000000 0.000000
0.000000 0.000000 0.000000
0.000000 0.000000 0.000000
0.000000 0.000000 0.000000
0.000000 0.000000 0.000000
0.002578 0.000750 0.000635
0.008755 0.002547 0.002165
0.014334 0.004171 0.003550
0.019613 0.005707 0.004862
0.024689 0.007183 0.006124
0.029610 0.008615 0.007347
0.034944 0.010167 0.008674
0.041217 0.011992 0.010234
0.048585 0.014136 0.012067
0.057224 0.016650 0.014216
0.067332 0.019591 0.016731
0.079129 0.023023 0.019668
0.092855 0.027017 0.023087
0.108765 0.031646 0.027053
0.127124 0.036987 0.031636
0.148197 0.043119 0.036906
0.172230 0.050111 0.042931
0.199441 0.058028 0.049773
0.229990 0.066917 0.057480
0.263963 0.076801 0.066081
0.301350 0.087679 0.075572
0.342035 0.099517 0.085913
0.385799 0.112250 0.097024
0.432331 0.125789 0.108784
0.481259 0.140025 0.121046
0.532176 0.154839 0.133647
0.584670 0.170113 0.146426
0.638337 0.185727 0.159231
0.692785 0.201569 0.171928
0.747184 0.217397 0.184231
0.800375 0.232873 0.195748
0.853722 0.248395 0.207057
0.906331 0.263702 0.218510
0.927872 0.280933 0.241563
0.929636 0.336762 0.281803
0.931437 0.381708 0.318482
0.933192 0.418688 0.351043
0.934910 0.450488 0.380491
0.936606 0.478795 0.407677
0.938298 0.504667 0.433231
0.940015 0.528976 0.457801
0.941791 0.552443 0.481997
0.943668 0.575691 0.506402
0.945692 0.599260 0.531566
0.947915 0.623629 0.558006
0.950395 0.649219 0.586205
0.953192 0.676399 0.616605
0.956375 0.705475 0.649594
0.960008 0.736652 0.685449
0.964145 0.769977 0.724261
0.968809 0.805210 0.765771
0.973943 0.841623 0.809097
0.979319 0.877536 0.852186
0.984521 0.910446 0.891910
0.989005 0.937571 0.924744
0.992472 0.957843 0.949292
0.994954 0.972011 0.966428
0.996672 0.981658 0.978066
0.997847 0.988186 0.985920
0.998655 0.992642 0.991265
0.000000 0.000000 0.000000
0.000000 0.000000 0.000000
0.000000 0.000000 0.000000
0.000000 0.000000 0.000000
0.000000 0.000000 0.000000
0.002578 0.000750 0.000635
0.008755 0.002547 0.002165
0.014334 0.004171 0.003550
0.019613 0.005707 0.004862
0.024689 0.007183 0.006124
0.029610 0.008615 0.007347
0.034944 0.010167 0.008674
0.041217 0.011992 0.010234
0.048585 0.014136 0.012067
0.057224 0.016650 0.014216
0.067332 0.019591 0.016731
0.079129 0.023023 0.019668
0.092855 0.027017 0.023087
0.108765 0.031646 0.027053
0.127124 0.036987 0.031636
0.148197 0.043119 0.036906
0.172230 0.050111 0.042931
0.199441 0.058028 0.049773
0.229990 0.066917 0.057480
0.263963 0.076801 0.066081
0.301350 0.087679 0.075572
0.342035 0.099517 0.085913
0.385799 0.112250 0.097024
0.432331 0.125789 0.108784
0.481259 0.140025 0.121046
0.532176 0.154839 0.133647
0.584670 0.170113 0.146426
0.638337 0.185727 0.159231
0.692785 0.201569 0.171928
0.747184 0.217397 0.184231
0.800375 0.232873 0.195748
0.853722 0.248395 0.207057
0.906331 0.263702 0.218510
0.927872 0.280933 0.241563
0.929636 0.336762 0.281803
0.931437 0.381708 0.318482
0.933192 0.418688 0.351043
0.934910 0.450488 0.380491
0.936606 0.478795 0.407676
0.938298 0.504667 0.433231
0.940015 0.528975 0.457800
0.941791 0.552443 0.481997
0.943668 0.575691 0.506402
0.945692 0.599260 0.531566
0.947915 0.623629 0.558006
0.950395 0.649219 0.586205
0.953192 0.676399 0.616605
0.956375 0.705475 0.649593
0.960008 0.736652 0.685449
0.964145 0.769977 0.724261
0.968809 0.805210 0.765771
0.973943 0.841623 0.809097
0.979319 0.877536 0.852186
0.984521 0.910446 0.891910
0.989005 0.937571 0.924745
0.992472 0.957843 0.949292
0.994954 0.972011 0.966428
0.996672 0.981658 0.978066
0.997847 0.988186 0.985920
0.998655 0.992643 0.991265
0.001575 0.003022 0.001636
0.001575 0.003022 0.001636
0.001575 0.003022 0.001636
0.001575 0.003022 0.001636
0.001575 0.003022 0.001636
0.004205 0.004182 0.001654
0.010636 0.006282 0.002964
0.016300 0.007904 0.004165
0.021649 0.009307 0.005307
0.026791 0.010576 0.006410
0.031771 0.011766 0.007482
0.037181 0.012995 0.008646
0.043530 0.014427 0.010017
0.051002 0.016034 0.011629
0.059755 0.017896 0.013522
0.069995 0.020365 0.015773
0.081786 0.023796 0.018431
0.095383 0.027752 0.021495
0.111160 0.032343 0.025486
0.129386 0.037646 0.030144
0.150325 0.043738 0.035486
0.174226 0.050692 0.041585
0.201306 0.058571 0.048503
0.231709 0.067417 0.056271
0.265522 0.077255 0.064924
0.302748 0.088086 0.074469
0.343274 0.099877 0.084866
0.386885 0.112566 0.096035
0.433275 0.126063 0.107856
0.482073 0.140262 0.120180
0.532877 0.155043 0.132846
0.585273 0.170288 0.145690
0.638858 0.185879 0.158561
0.693238 0.201701 0.171322
0.747568 0.217509 0.183682
0.800724 0.232974 0.195264
0.854042 0.248488 0.206631
0.906598 0.263779 0.218159
0.927884 0.281375 0.241442
0.929648 0.337105 0.281755
0.931448 0.381961 0.318456
0.933202 0.418883 0.351034
0.934919 0.450645 0.380494
0.936614 0.478925 0.407689
0.938305 0.504774 0.433248
0.940021 0.529064 0.457821
0.941797 0.552518 0.482020
0.943673 0.575754 0.506426
0.945697 0.599313 0.531590
0.947920 0.623674 0.558029
0.950398 0.649258 0.586227
0.953196 0.676433 0.616627
0.956378 0.705503 0.649613
0.960011 0.736676 0.685468
0.964148 0.769996 0.724279
0.968811 0.805226 0.765786
0.973944 0.841635 0.809109
0.979321 0.877547 0.852198
0.984522 0.910454 0.891919
0.989006 0.937576 0.924749
0.992472 0.957845 0.949294
0.994955 0.972013 0.966431
0.996672 0.981658 0.978067
0.997847 0.988186 0.985921
0.998655 0.992642 0.991265
0.005347 0.010262 0.005566
0.005347 0.010262 0.005566
0.005347 0.010262 0.005566
0.005347 0.010262 0.005566
0.005347 0.010262 0.005566
0.006639 0.011757 0.004356
0.014227 0.014152 0.005599
0.020165 0.016175 0.006756
0.025607 0.017975 0.007862
0.030773 0.019616 0.008930
0.035750 0.021139 0.009970
0.041125 0.022725 0.011099
0.047432 0.024517 0.012431
0.054821 0.026546 0.013999
0.063485 0.028819 0.015840
0.073612 0.031380 0.018000
0.085420 0.034265 0.020525
0.099162 0.037488 0.023467
0.115087 0.041099 0.026883
0.133447 0.045178 0.030834
0.154528 0.049723 0.035374
0.178573 0.054794 0.040559
0.205779 0.060547 0.046446
0.236295 0.068751 0.053250
0.269648 0.078455 0.060766
0.306446 0.089162 0.070477
0.346577 0.100838 0.081180
0.389828 0.113422 0.092649
0.435893 0.126825 0.104763
0.484397 0.140938 0.117374
0.534926 0.155639 0.130320
0.587062 0.170809 0.143434
0.640406 0.186329 0.156529
0.694584 0.202093 0.169490
0.748712 0.217841 0.182028
0.801766 0.233278 0.193803
0.854995 0.248765 0.205348
0.907391 0.264010 0.217107
0.927921 0.282705 0.241084
0.929685 0.338133 0.281611
0.931481 0.382716 0.318380
0.933232 0.419470 0.351007
0.934946 0.451125 0.380512
0.936638 0.479314 0.407727
0.938327 0.505094 0.433301
0.940041 0.529331 0.457883
0.941814 0.552741 0.482086
0.943689 0.575941 0.506495
0.945711 0.599471 0.531659
0.947932 0.623808 0.558097
0.950410 0.649372 0.586294
0.953206 0.676529 0.616691
0.956387 0.705585 0.649674
0.960019 0.736747 0.685524
0.964156 0.770056 0.724329
0.968818 0.805278 0.765835
0.973950 0.841676 0.809150
0.979326 0.877582 0.852234
0.984526 0.910477 0.891944
0.989008 0.937592 0.924767
0.992474 0.957852 0.949302
0.994955 0.972017 0.966434
0.996673 0.981660 0.978069
0.997847 0.988187 0.985921
0.998655 0.992643 0.991265
0.008748 0.016789 0.009112
0.008748 0.016789 0.009112
0.008748 0.016789 0.009112
0.008748 0.016789 0.009112
0.008748 0.016789 0.009112
0.009530 0.018289 0.007805
0.016856 0.020959 0.008000
0.023185 0.023063 0.009124
0.028817 0.024973 0.010202
0.034084 0.026740 0.011247
0.039116 0.028394 0.012264
0.044520 0.030127 0.013370
0.050833 0.032094 0.014674
0.058212 0.034319 0.016209
0.066831 0.036827 0.018014
0.076893 0.039641 0.020130
0.088606 0.042802 0.022605
0.102234 0.046310 0.025490
0.118012 0.050222 0.028841
0.136204 0.054575 0.032718
0.157091 0.059381 0.037176
0.180921 0.064678 0.042272
0.207892 0.070573 0.048060
0.238212 0.077019 0.054576
0.271967 0.084058 0.061842
0.309155 0.091847 0.069876
0.349697 0.101746 0.078805
0.392570 0.114220 0.088818
0.438314 0.127530 0.101263
0.486546 0.141563 0.114187
0.536853 0.156200 0.127427
0.588811 0.171317 0.140819
0.642000 0.186793 0.154210
0.696021 0.202511 0.167462
0.749954 0.218203 0.180249
0.802886 0.233604 0.192271
0.855990 0.249055 0.204031
0.908187 0.264241 0.216049
0.927957 0.284038 0.240733
0.929723 0.339151 0.281465
0.931515 0.383467 0.318302
0.933262 0.420053 0.350978
0.934973 0.451600 0.380526
0.936663 0.479701 0.407764
0.938349 0.505414 0.433353
0.940060 0.529596 0.457944
0.941832 0.552963 0.482153
0.943704 0.576128 0.506564
0.945725 0.599629 0.531728
0.947945 0.623942 0.558166
0.950421 0.649485 0.586360
0.953216 0.676627 0.616755
0.956397 0.705668 0.649734
0.960027 0.736817 0.685580
0.964163 0.770115 0.724381
0.968826 0.805330 0.765883
0.973956 0.841718 0.809191
0.979332 0.877617 0.852271
0.984529 0.910499 0.891967
0.989010 0.937604 0.924780
0.992475 0.957859 0.949310
0.994956 0.972020 0.966437
0.996673 0.981662 0.978071
0.997848 0.988188 0.985922
0.998656 0.992643 0.991265
0.011959 0.022951 0.012459
0.011959 0.022951 0.012459
0.011959 0.022951 0.012459
0.011959 0.022951 0.012459
0.011959 0.022951 0.012459
0.012697 0.024368 0.011403
0.018975 0.027344 0.010277
0.025716 0.029458 0.011371
0.031569 0.031404 0.012424
0.036967 0.033219 0.013445
0.042080 0.034930 0.014442
0.047538 0.036734 0.015526
0.053885 0.038792 0.016806
0.061276 0.041129 0.018313
0.069882 0.043773 0.020086
0.079909 0.046744 0.022164
0.091563 0.050078 0.024596
0.105099 0.053788 0.027431
0.120757 0.057913 0.030725
0.138817 0.062463 0.034534
0.159532 0.067484 0.038918
0.183155 0.073004 0.043934
0.209916 0.079047 0.049631
0.240015 0.085578 0.056047
0.273503 0.092761 0.063217
0.310473 0.100432 0.071138
0.350807 0.108639 0.079794
0.394320 0.117468 0.089161
0.440716 0.128229 0.099316
0.488680 0.142184 0.110848
0.538772 0.156758 0.124424
0.590554 0.171824 0.138126
0.643600 0.187259 0.151803
0.697501 0.202941 0.165320
0.751300 0.218595 0.178339
0.804180 0.233980 0.190600
0.857219 0.249412 0.202572
0.909233 0.264546 0.214871
0.927990 0.285225 0.240297
0.929758 0.340128 0.281292
0.931548 0.384206 0.318216
0.933292 0.420635 0.350949
0.935000 0.452074 0.380539
0.936687 0.480089 0.407801
0.938371 0.505733 0.433405
0.940080 0.529862 0.458005
0.941849 0.553185 0.482220
0.943720 0.576315 0.506633
0.945739 0.599787 0.531797
0.947957 0.624075 0.558233
0.950433 0.649600 0.586426
0.953227 0.676724 0.616818
0.956406 0.705751 0.649794
0.960036 0.736887 0.685636
0.964171 0.770173 0.724431
0.968833 0.805382 0.765933
0.973962 0.841759 0.809231
0.979337 0.877652 0.852308
0.984533 0.910523 0.891994
0.989013 0.937618 0.924795
0.992476 0.957867 0.949318
0.994957 0.972024 0.966442
0.996673 0.981664 0.978073
0.997848 0.988189 0.985923
0.998656 0.992644 0.991266
0.015039 0.028861 0.015668
0.015039 0.028861 0.015668
0.015039 0.028861 0.015668
0.015039 0.028861 0.015668
0.015039 0.028861 0.015668
0.015744 0.030215 0.014732
0.020748 0.033454 0.012464
0.027911 0.035550 0.013530
0.033993 0.037500 0.014560
0.039538 0.039333 0.015561
0.044747 0.041066 0.016537
0.050273 0.042903 0.017600
0.056669 0.045007 0.018856
0.064089 0.047407 0.020337
0.072703 0.050130 0.022079
0.082711 0.053202 0.024123
0.094327 0.056650 0.026515
0.107786 0.060503 0.029304
0.123347 0.064780 0.032545
0.141285 0.069491 0.036294
0.161837 0.074695 0.040611
0.185285 0.080375 0.045550
0.211860 0.086540 0.051162
0.241743 0.093189 0.057486
0.275016 0.100409 0.064556
0.311748 0.108111 0.072376
0.351828 0.116375 0.080937
0.395165 0.124905 0.090185
0.441423 0.133899 0.100082
0.490281 0.143210 0.110546
0.540683 0.157315 0.121844
0.592293 0.172331 0.135350
0.645199 0.187724 0.149336
0.698982 0.203372 0.163134
0.752651 0.218987 0.176398
0.805478 0.234358 0.188905
0.858451 0.249771 0.201096
0.910270 0.264848 0.213689
0.928024 0.286420 0.239868
0.929794 0.341101 0.281118
0.931580 0.384945 0.318131
0.933322 0.421216 0.350919
0.935028 0.452548 0.380552
0.936711 0.480475 0.407838
0.938392 0.506052 0.433457
0.940099 0.530127 0.458066
0.941867 0.553407 0.482285
0.943736 0.576501 0.506701
0.945753 0.599944 0.531866
0.947970 0.624209 0.558302
0.950444 0.649713 0.586493
0.953237 0.676821 0.616882
0.956415 0.705834 0.649854
0.960044 0.736958 0.685692
0.964178 0.770233 0.724483
0.968840 0.805433 0.765980
0.973968 0.841799 0.809271
0.979342 0.877685 0.852344
0.984537 0.910546 0.892018
0.989015 0.937630 0.924809
0.992477 0.957873 0.949325
0.994957 0.972027 0.966445
0.996674 0.981666 0.978075
0.997848 0.988190 0.985924
0.998656 0.992644 0.991267
0.018017 0.034576 0.018771
0.018017 0.034576 0.018771
0.018017 0.034576 0.018771
0.018017 0.034576 0.018771
0.018017 0.034576 0.018771
0.018696 0.035879 0.017906
0.022262 0.039356 0.014582
0.029851 0.041422 0.015621
0.036168 0.043360 0.016629
0.041863 0.045191 0.017609
0.047177 0.046932 0.018567
0.052782 0.048779 0.019610
0.059239 0.050904 0.020843
0.066698 0.053336 0.022298
0.075331 0.056104 0.024011
0.085335 0.059237 0.026021
0.096923 0.062762 0.028375
0.110331 0.066705 0.031121
0.125809 0.071092 0.034312
0.143630 0.075934 0.038005
0.164065 0.081238 0.042256
0.187350 0.087046 0.047123
0.213729 0.093348 0.052656
0.243403 0.100124 0.058896
0.276482 0.107368 0.065869
0.312971 0.115151 0.073595
0.352869 0.123290 0.082048
0.395934 0.131944 0.091209
0.442044 0.140647 0.100995
0.490762 0.149639 0.111357
0.541735 0.158763 0.122205
0.594029 0.172836 0.133865
0.646798 0.188189 0.146805
0.700465 0.203804 0.160901
0.754007 0.219382 0.174424
0.806780 0.234737 0.187186
0.859687 0.250130 0.199602
0.911300 0.265147 0.212505
0.928057 0.287622 0.239447
0.929830 0.342070 0.280943
0.931614 0.385682 0.318046
0.933352 0.421797 0.350890
0.935055 0.453019 0.380564
0.936736 0.480861 0.407874
0.938414 0.506370 0.433509
0.940119 0.530391 0.458127
0.941884 0.553629 0.482352
0.943751 0.576687 0.506769
0.945767 0.600102 0.531936
0.947982 0.624342 0.558370
0.950455 0.649827 0.586558
0.953247 0.676919 0.616946
0.956425 0.705917 0.649914
0.960053 0.737028 0.685748
0.964186 0.770292 0.724533
0.968847 0.805485 0.766029
0.973974 0.841841 0.809313
0.979348 0.877720 0.852380
0.984541 0.910568 0.892042
0.989017 0.937644 0.924823
0.992479 0.957880 0.949333
0.994958 0.972031 0.966450
0.996674 0.981667 0.978077
0.997848 0.988190 0.985925
0.998656 0.992645 0.991267
0.021235 0.040751 0.022123
0.021235 0.040751 0.022123
0.021235 0.040751 0.022123
0.021235 0.040751 0.022123
0.021235 0.040751 0.022123
0.021889 0.042008 0.021310
0.023828 0.045728 0.016875
0.031770 0.047753 0.017883
0.038353 0.049667 0.018867
0.044220 0.051485 0.019826
0.049653 0.053221 0.020763
0.055356 0.055070 0.021786
0.061889 0.057198 0.022994
0.069403 0.059642 0.024421
0.078069 0.062433 0.026101
0.088078 0.065604 0.028075
0.099646 0.069181 0.030388
0.113008 0.073191 0.033087
0.128414 0.077656 0.036226
0.146124 0.082599 0.039859
0.166415 0.088021 0.044043
0.189551 0.093919 0.048833
0.215740 0.100326 0.054281
0.245189 0.107219 0.060430
0.278039 0.114552 0.067307
0.314323 0.122302 0.074922
0.353953 0.130522 0.083275
0.396848 0.138966 0.092317
0.442666 0.147807 0.102012
0.491246 0.156481 0.112259
0.542090 0.165260 0.123000
0.594826 0.173986 0.134144
0.648574 0.188706 0.146157
0.702118 0.204285 0.158357
0.755524 0.219823 0.172183
0.808237 0.235161 0.185241
0.861069 0.250532 0.197915
0.912437 0.265478 0.211181
0.928096 0.288970 0.238984
0.929870 0.343147 0.280749
0.931650 0.386502 0.317950
0.933385 0.422442 0.350857
0.935085 0.453544 0.380579
0.936763 0.481289 0.407914
0.938438 0.506725 0.433566
0.940140 0.530686 0.458195
0.941903 0.553875 0.482425
0.943769 0.576895 0.506846
0.945782 0.600277 0.532012
0.947997 0.624492 0.558446
0.950468 0.649954 0.586632
0.953259 0.677026 0.617016
0.956435 0.706009 0.649981
0.960062 0.737106 0.685810
0.964194 0.770359 0.724591
0.968855 0.805543 0.766084
0.973981 0.841887 0.809357
0.979353 0.877757 0.852420
0.984544 0.910593 0.892069
0.989020 0.937659 0.924839
0.992480 0.957889 0.949342
0.994959 0.972035 0.966453
0.996674 0.981670 0.978079
0.997848 0.988191 0.985926
0.998656 0.992645 0.991268
0.025005 0.047988 0.026051
0.025005 0.047988 0.026051
0.025005 0.047988 0.026051
0.025005 0.047988 0.026051
0.025005 0.047988 0.026051
0.025635 0.049196 0.025282
0.027510 0.052793 0.020881
0.033814 0.055160 0.020535
0.040721 0.057038 0.021491
0.046799 0.058830 0.022425
0.052381 0.060548 0.023340
0.058202 0.062384 0.024338
0.064841 0.064506 0.025519
0.072433 0.066944 0.026912
0.081148 0.069739 0.028555
0.091178 0.072923 0.030486
0.102735 0.076529 0.032750
0.116054 0.080584 0.035394
0.131384 0.085109 0.038472
0.148988 0.090122 0.042035
0.169127 0.095638 0.046142
0.192074 0.101646 0.050846
0.218069 0.108130 0.056196
0.247279 0.115109 0.062239
0.279858 0.122540 0.069004
0.315871 0.130350 0.076500
0.355264 0.138491 0.084722
0.397856 0.146996 0.093646
0.443497 0.155555 0.103203
0.491755 0.164366 0.113347
0.542464 0.172774 0.123960
0.595077 0.181102 0.134987
0.649213 0.189208 0.146336
0.704107 0.204863 0.158672
0.757366 0.220359 0.170674
0.810005 0.235675 0.182846
0.862744 0.251020 0.195845
0.913797 0.265874 0.209579
0.928142 0.290608 0.238436
0.929919 0.344443 0.280514
0.931695 0.387489 0.317835
0.933425 0.423223 0.350819
0.935122 0.454177 0.380594
0.936796 0.481807 0.407963
0.938468 0.507152 0.433635
0.940166 0.531042 0.458276
0.941927 0.554173 0.482514
0.943789 0.577145 0.506937
0.945801 0.600489 0.532105
0.948014 0.624671 0.558537
0.950483 0.650108 0.586722
0.953273 0.677157 0.617101
0.956447 0.706120 0.650061
0.960074 0.737200 0.685885
0.964205 0.770438 0.724659
0.968864 0.805613 0.766148
0.973989 0.841942 0.809412
0.979361 0.877805 0.852470
0.984549 0.910623 0.892101
0.989022 0.937677 0.924859
0.992482 0.957898 0.949351
0.994959 0.972040 0.966459
0.996675 0.981672 0.978082
0.997849 0.988193 0.985927
0.998656 0.992645 0.991268
0.029414 0.056449 0.030641
0.029414 0.056449 0.030641
0.029414 0.056449 0.030641
0.029414 0.056449 0.030641
0.029414 0.056449 0.030641
0.030019 0.057609 0.029907
0.031807 0.061040 0.026140
0.035954 0.063806 0.023636
0.043252 0.065635 0.024562
0.049589 0.067389 0.025467
0.055355 0.069076 0.026355
0.061325 0.070885 0.027325
0.068090 0.072983 0.028473
0.075794 0.075403 0.029830
0.084585 0.078177 0.031428
0.094654 0.081350 0.033309
0.106214 0.084956 0.035515
0.119496 0.089026 0.038096
0.134752 0.093582 0.041101
0.152241 0.098642 0.044584
0.172230 0.104214 0.048601
0.194975 0.110302 0.053205
0.220728 0.116881 0.058447
0.249692 0.123914 0.064367
0.281980 0.131406 0.071000
0.317673 0.139286 0.078361
0.356756 0.147451 0.086441
0.399085 0.155824 0.095211
0.444391 0.164424 0.104633
0.492473 0.172874 0.114620
0.542832 0.181422 0.125117
0.595317 0.189327 0.136004
0.649343 0.196981 0.147224
0.704536 0.204988 0.158769
0.759579 0.221003 0.171173
0.812154 0.236300 0.183020
0.864780 0.251612 0.194880
0.915416 0.266345 0.207636
0.928200 0.292601 0.237788
0.929977 0.346001 0.280228
0.931749 0.388680 0.317696
0.933474 0.424167 0.350776
