OCIO/luts/ACES_v2.0.0/ACES v2.0.0 Output Rec709_inverse.cube
TITLE "Generated by Foundry::LUT"
LUT_3D_SIZE 9
0.072906 0.072906 0.072906
0.296515 0.094714 0.076175
0.366471 0.116733 0.078495
0.413878 0.132370 0.078038
0.451707 0.159061 0.079198
0.484494 0.203480 0.087125
0.514746 0.249441 0.105504
0.544100 0.292759 0.139711
0.578646 0.290074 0.110136
0.171619 0.285693 0.083557
0.271113 0.273206 0.095114
0.356575 0.254800 0.091912
0.409046 0.246262 0.091355
0.449152 0.247925 0.092214
0.483202 0.262032 0.100089
0.514283 0.284955 0.116906
0.544128 0.314128 0.148993
0.579048 0.311541 0.113313
0.244796 0.361269 0.095643
0.285370 0.357969 0.115711
0.350189 0.352165 0.122219
0.404660 0.345827 0.115136
0.447781 0.340992 0.108592
0.483749 0.341776 0.112555
0.515964 0.349345 0.127159
0.546440 0.364133 0.158711
0.581621 0.365862 0.115778
0.294875 0.414913 0.106070
0.317390 0.413462 0.133118
0.360589 0.411552 0.139232
0.407184 0.408980 0.148206
0.449391 0.407916 0.143313
0.486233 0.408305 0.142586
0.519515 0.412218 0.154736
0.550730 0.420503 0.179849
0.586386 0.425405 0.123489
0.339483 0.460799 0.125086
0.353225 0.460087 0.155451
0.381932 0.459490 0.160716
0.419564 0.458719 0.168313
0.456595 0.458229 0.175752
0.492848 0.460793 0.179032
0.526298 0.464985 0.188633
0.557961 0.471680 0.204477
0.593933 0.479128 0.134361
0.383349 0.504052 0.166788
0.391695 0.503672 0.189295
0.411149 0.503640 0.191978
0.440325 0.503756 0.196270
0.472501 0.504317 0.201242
0.504134 0.505644 0.205813
0.537691 0.511574 0.217188
0.569449 0.518619 0.229466
0.605386 0.528334 0.150870
0.427970 0.547751 0.218846
0.432955 0.547517 0.229845
0.446657 0.547834 0.230866
0.469232 0.548572 0.232897
0.496577 0.549983 0.235881
0.525473 0.552322 0.239013
0.554601 0.556004 0.242357
0.587019 0.564824 0.254782
0.623288 0.577108 0.172035
0.473470 0.593792 0.264328
0.476537 0.593728 0.268633
0.486845 0.594333 0.268924
0.504913 0.595625 0.269756
0.528433 0.597884 0.271334
0.555092 0.601507 0.273629
0.583652 0.607032 0.277087
0.613982 0.615232 0.282460
0.652403 0.631723 0.194354
0.520100 0.652832 0.198201
0.522480 0.653025 0.198636
0.532027 0.653908 0.198326
0.549158 0.655798 0.198404
0.572202 0.659122 0.198752
0.599417 0.664523 0.199905
0.630113 0.673051 0.200462
0.665136 0.686477 0.200635
0.707719 0.708402 0.196426
0.114302 0.087875 0.333310
0.275189 0.089229 0.305056
0.364119 0.102489 0.242821
0.414659 0.108079 0.190338
0.453333 0.119620 0.154949
0.486532 0.161901 0.143629
0.517097 0.219653 0.152890
0.546750 0.273008 0.180119
0.582789 0.245700 0.131771
0.138426 0.278408 0.285031
0.268066 0.268066 0.268066
0.333764 0.279195 0.270117
0.387769 0.294892 0.271150
0.432990 0.307098 0.265340
0.472665 0.314294 0.252591
0.507869 0.321941 0.241678
0.540124 0.335424 0.240585
0.578669 0.316148 0.187964
0.206580 0.363754 0.181946
0.308680 0.348575 0.279852
0.348688 0.350774 0.278235
0.393677 0.354905 0.280425
0.434723 0.361285 0.280598
0.471781 0.368490 0.278299
0.505893 0.376251 0.274844
0.537823 0.385803 0.273990
0.577541 0.378571 0.223185
0.270940 0.416576 0.136774
0.342696 0.408162 0.281339
0.372012 0.408233 0.289860
0.407380 0.409884 0.287950
0.444226 0.412614 0.285583
0.479555 0.416269 0.280705
0.512746 0.421410 0.277465
0.544195 0.428702 0.277803
0.583264 0.429582 0.224145
0.327239 0.461918 0.146121
0.370173 0.457787 0.271307
0.396295 0.457092 0.291570
0.425020 0.458104 0.289306
0.457362 0.459666 0.286520
0.490554 0.462974 0.284242
0.522666 0.467567 0.282639
0.553764 0.474007 0.283667
0.591770 0.480059 0.227289
0.376727 0.505026 0.182983
0.400749 0.502624 0.268600
0.422346 0.501915 0.292490
0.446282 0.502814 0.291272
0.474878 0.504343 0.289607
0.504731 0.506685 0.287403
0.536315 0.512152 0.289405
0.567154 0.518927 0.292207
0.604106 0.528237 0.232858
0.424182 0.548729 0.229131
0.436988 0.546781 0.280329
0.453221 0.546139 0.300823
0.473213 0.547253 0.300418
0.498453 0.549165 0.299972
0.526096 0.552080 0.299407
0.554673 0.556329 0.298938
0.585998 0.564646 0.304540
0.622612 0.576832 0.243072
0.471107 0.594714 0.271909
0.478046 0.593041 0.302374
0.489974 0.592650 0.317223
0.506889 0.594170 0.317135
0.529359 0.596747 0.317225
0.555316 0.600728 0.317805
0.583520 0.606612 0.319214
0.613759 0.615142 0.322438
0.652192 0.631593 0.257513
0.517808 0.654017 0.207160
0.521887 0.652862 0.250867
0.532162 0.653048 0.267994
0.549095 0.655021 0.268156
0.571975 0.658465 0.268666
0.599117 0.664017 0.270117
0.629835 0.672700 0.273362
0.664952 0.686297 0.279810
0.708020 0.708716 0.271743
0.166508 0.105946 0.402166
0.252668 0.102903 0.397100
0.348427 0.105486 0.378750
0.408256 0.108325 0.352652
0.451131 0.122104 0.326208
0.486198 0.163416 0.307744
0.517613 0.219518 0.300209
0.547681 0.272789 0.303710
0.584231 0.243632 0.287904
0.148772 0.226759 0.405294
0.276901 0.273899 0.351332
0.336384 0.280621 0.350094
0.388413 0.294702 0.347770
0.433063 0.306183 0.344505
0.472762 0.313746 0.337364
0.508262 0.321825 0.329642
0.540883 0.335236 0.326362
0.580810 0.309781 0.301511
0.211005 0.356135 0.362839
0.312979 0.347957 0.350314
0.350159 0.350159 0.350159
0.392339 0.355768 0.351222
0.433108 0.363054 0.351272
0.470126 0.371546 0.350452
0.503780 0.381028 0.349454
0.535160 0.391236 0.348683
0.578320 0.377915 0.316264
0.250681 0.417773 0.313158
0.344122 0.407562 0.349711
0.375231 0.406828 0.356424
0.408018 0.409554 0.355932
0.443406 0.413459 0.355360
0.477813 0.418483 0.354133
0.510393 0.424489 0.352534
0.541306 0.431584 0.351259
0.581034 0.431671 0.324026
0.283188 0.465170 0.263240
0.364613 0.458861 0.333218
0.402542 0.456075 0.362104
0.428259 0.457824 0.361711
0.458475 0.460576 0.360996
0.489751 0.464367 0.359739
0.520516 0.469278 0.358931
0.550549 0.475497 0.358583
0.591409 0.479801 0.318994
0.339414 0.509104 0.238099
0.389040 0.505203 0.314236
0.429796 0.501121 0.365836
0.451861 0.502244 0.369007
0.477791 0.504678 0.368785
0.506054 0.508210 0.367813
0.535231 0.512996 0.366878
0.564676 0.519271 0.366924
0.604801 0.527842 0.316159
0.404786 0.552799 0.266592
0.426111 0.549996 0.314051
0.458101 0.545321 0.368004
0.478418 0.545782 0.376546
0.501332 0.548347 0.376341
0.527451 0.552108 0.375982
0.555351 0.557294 0.375259
0.584827 0.564627 0.376520
0.623702 0.576917 0.319349
0.459054 0.598669 0.298471
0.469320 0.596429 0.327944
0.491653 0.591802 0.374863
0.509986 0.591991 0.386471
0.530997 0.595112 0.386553
0.555950 0.599753 0.386899
0.583690 0.606333 0.387797
0.613930 0.615529 0.390025
0.653523 0.632364 0.330764
0.505704 0.659246 0.233265
0.511558 0.657702 0.274580
0.528036 0.654537 0.332602
0.547196 0.655243 0.347426
0.570672 0.658721 0.349064
0.598389 0.664342 0.352244
0.629660 0.673145 0.358456
0.665339 0.686966 0.370224
0.710539 0.711133 0.348126
0.210164 0.125770 0.447587
0.256238 0.123266 0.446090
0.337403 0.116519 0.440457
0.398983 0.118034 0.429827
0.445861 0.128992 0.416807
0.484019 0.167198 0.404095
0.517343 0.220277 0.395648
0.548557 0.272387 0.393894
0.585920 0.241423 0.388831
0.190249 0.184997 0.455313
0.287871 0.279280 0.415565
0.339975 0.285668 0.412150
0.390209 0.296754 0.409121
0.434381 0.303986 0.408037
0.473626 0.311116 0.405396
0.509101 0.320477 0.402167
0.542012 0.334587 0.400669
0.582527 0.308310 0.392793
0.215060 0.335733 0.444857
0.320057 0.349506 0.407780
0.354861 0.352656 0.405028
0.395142 0.357170 0.406258
0.434795 0.363746 0.407297
0.471374 0.371849 0.407908
0.504981 0.381140 0.408182
0.536473 0.391289 0.408490
0.580213 0.377009 0.396995
0.257477 0.412289 0.419218
0.345646 0.407409 0.411179
0.378130 0.407498 0.409616
0.410047 0.410047 0.410047
0.445781 0.413322 0.409689
0.480574 0.417540 0.408791
0.513446 0.422687 0.407528
0.544566 0.428920 0.406414
0.582107 0.429762 0.397435
0.291832 0.464864 0.392238
0.365500 0.459304 0.405720
0.404237 0.456749 0.414195
0.429011 0.459113 0.412598
0.460125 0.461430 0.412421
0.492320 0.464733 0.410368
0.524053 0.468698 0.408161
0.555062 0.473413 0.405488
0.590821 0.477613 0.394502
0.328825 0.510859 0.369526
0.384147 0.506927 0.392703
0.428621 0.502946 0.415278
0.450875 0.504553 0.414656
0.478542 0.506540 0.414914
0.507965 0.509734 0.413718
0.538181 0.513937 0.411347
0.568344 0.519369 0.410428
0.606634 0.526589 0.388831
0.372626 0.557629 0.354285
0.408486 0.554278 0.378383
0.451432 0.548969 0.410191
0.476267 0.548571 0.418543
0.501040 0.550863 0.418869
0.528575 0.554346 0.419164
0.557555 0.559306 0.418676
0.587650 0.565987 0.418616
0.627255 0.577357 0.383480
0.420893 0.606238 0.343283
0.444426 0.602920 0.369385
0.482244 0.596396 0.410483
0.507141 0.594689 0.426838
0.529866 0.597651 0.427781
0.556247 0.602209 0.428869
0.585167 0.608747 0.430478
0.616446 0.617940 0.433165
0.658003 0.634932 0.384897
0.462643 0.669635 0.279076
0.477446 0.667228 0.315673
0.508887 0.662392 0.367386
0.537952 0.660959 0.391930
0.566834 0.662652 0.404588
0.597124 0.668072 0.407727
0.630462 0.676741 0.414306
0.667921 0.690656 0.427555
0.717381 0.717588 0.387855
0.246732 0.159554 0.482665
0.273200 0.158144 0.482169
0.335618 0.152132 0.480362
0.393701 0.144752 0.477073
0.440741 0.146906 0.471619
0.480746 0.179815 0.465790
0.516109 0.224206 0.461222
0.548783 0.272649 0.459817
0.587040 0.238293 0.461489
0.243421 0.207079 0.485992
0.301038 0.283873 0.463281
0.345425 0.290719 0.460425
0.392639 0.300721 0.457886
0.435337 0.305820 0.458317
0.474504 0.308889 0.458941
0.510252 0.317480 0.458749
0.543397 0.332883 0.459319
0.584140 0.304871 0.461453
0.217959 0.307160 0.495347
0.326169 0.349974 0.457977
0.361086 0.355764 0.452584
0.399142 0.359499 0.453454
0.437541 0.365229 0.454727
0.473424 0.372879 0.456162
0.506775 0.381906 0.457770
0.538440 0.391632 0.459646
0.582585 0.374682 0.461397
0.265106 0.402402 0.483467
0.347719 0.406535 0.463055
0.382453 0.408901 0.455865
0.412986 0.410772 0.457870
0.447775 0.414109 0.458454
0.482230 0.418137 0.459399
0.515237 0.423020 0.460026
0.546604 0.429138 0.460681
0.585044 0.428726 0.460354
0.296937 0.461119 0.468248
0.365718 0.458643 0.463783
0.407044 0.457768 0.461070
0.431271 0.459797 0.461930
0.462198 0.462198 0.462198
0.496995 0.463746 0.460216
0.529738 0.466233 0.458335
0.560856 0.469927 0.456990
0.594121 0.473891 0.455033
0.333583 0.510437 0.455522
0.384969 0.507340 0.459985
0.430566 0.504070 0.465701
0.452145 0.505999 0.465588
0.477887 0.509861 0.461256
0.510564 0.511764 0.461142
0.542977 0.514806 0.457931
0.574890 0.518556 0.455357
0.609734 0.523197 0.448915
0.375026 0.558325 0.449066
0.409292 0.555382 0.456149
0.452623 0.550677 0.467583
0.474566 0.551711 0.468074
0.497868 0.555665 0.461544
0.529469 0.558235 0.462400
0.560996 0.562464 0.461180
0.593222 0.568175 0.459137
0.631714 0.577163 0.444836
0.416349 0.608132 0.447489
0.438935 0.605489 0.454431
0.476807 0.600288 0.467933
0.500250 0.600007 0.470301
0.524543 0.603603 0.466206
0.555267 0.607723 0.467045
0.587448 0.613796 0.468210
0.621312 0.622543 0.469514
0.664228 0.638319 0.442448
0.373642 0.677773 0.420081
0.412335 0.675592 0.426212
0.467094 0.671788 0.434719
0.506818 0.671898 0.432199
0.554787 0.671349 0.448849
0.593692 0.674651 0.460034
0.631460 0.683368 0.465306
0.672727 0.697798 0.477013
0.728233 0.727976 0.437165
0.280475 0.204507 0.511872
0.296581 0.204508 0.511730
0.342506 0.202825 0.511413
0.393412 0.199686 0.511015
0.438928 0.197150 0.510374
0.478414 0.200875 0.508969
0.514731 0.235106 0.508354
0.548669 0.274310 0.509443
0.587385 0.235255 0.516085
0.280648 0.234649 0.513980
0.316645 0.289856 0.500855
0.353362 0.296485 0.499129
0.396572 0.305374 0.497760
0.437455 0.309939 0.499047
0.475361 0.311372 0.501289
0.511240 0.316712 0.503801
0.544978 0.330513 0.506522
0.585344 0.299984 0.514726
0.237502 0.275304 0.531381
0.331675 0.346303 0.501989
0.368566 0.358523 0.493463
0.404181 0.361950 0.494120
0.441131 0.367276 0.495392
0.476268 0.374505 0.497273
0.509343 0.383060 0.499857
0.541179 0.392110 0.503275
0.585067 0.370886 0.513704
0.273275 0.389567 0.528477
0.349560 0.403768 0.507743
0.387926 0.410432 0.496484
0.417265 0.412029 0.498286
0.450942 0.414986 0.499885
0.484681 0.419042 0.501842
0.517375 0.423982 0.504141
0.548904 0.430030 0.506691
0.588706 0.426691 0.513398
0.309670 0.457135 0.522658
0.368339 0.457852 0.512125
0.410477 0.459005 0.502580
0.433735 0.460461 0.505272
0.463974 0.461444 0.509679
0.498093 0.463913 0.509391
0.531184 0.466654 0.509848
0.563150 0.470270 0.510423
0.598055 0.473397 0.512536
0.336322 0.508176 0.515461
0.384698 0.506802 0.512944
0.432102 0.505535 0.509938
0.454333 0.507342 0.510883
0.479793 0.510392 0.512722
0.512763 0.512763 0.512763
0.550377 0.512780 0.508918
0.583974 0.514366 0.506380
0.616868 0.517848 0.505557
0.377140 0.558432 0.514633
0.409943 0.556247 0.515386
0.454213 0.552667 0.516991
0.477422 0.553659 0.517662
0.499020 0.558063 0.516290
0.527144 0.564218 0.508384
0.565149 0.566281 0.508385
0.601410 0.570075 0.504412
0.639333 0.575455 0.499540
0.417068 0.609709 0.519270
0.439322 0.607566 0.521013
0.478130 0.603329 0.524963
0.502817 0.603379 0.526178
0.521866 0.608936 0.521001
0.549254 0.616334 0.509087
0.589221 0.621235 0.510561
0.628039 0.629070 0.510505
0.672993 0.642408 0.497913
0.371737 0.679475 0.526849
0.409476 0.677829 0.527782
0.463956 0.675288 0.528660
0.496138 0.677717 0.523586
0.530521 0.682916 0.510773
0.580041 0.687434 0.503701
0.630783 0.694483 0.513085
0.679891 0.709828 0.522538
0.743972 0.743307 0.494947
0.311169 0.244471 0.538044
0.321659 0.244952 0.538055
0.355460 0.245894 0.538295
0.398385 0.246201 0.539116
0.440382 0.246079 0.540610
0.479054 0.247966 0.542549
0.514468 0.252311 0.544675
0.548916 0.280889 0.548315
0.587708 0.232596 0.558575
0.312005 0.263220 0.539826
0.334009 0.297827 0.532621
0.363925 0.303685 0.531799
0.402559 0.311552 0.531430
0.441110 0.316762 0.533077
0.477860 0.319515 0.536370
0.512657 0.321089 0.540331
0.546714 0.330735 0.545273
0.586585 0.294142 0.557249
0.288144 0.281390 0.555639
0.345446 0.347661 0.535291
0.377484 0.360994 0.528833
0.410448 0.364404 0.529513
0.445767 0.369646 0.530874
0.480039 0.376673 0.533093
0.512675 0.385074 0.536334
0.544686 0.392837 0.541276
0.587620 0.366040 0.556926
0.290984 0.377067 0.563336
0.353617 0.399076 0.546315
0.394684 0.411729 0.532443
0.422820 0.413469 0.533786
0.455192 0.416239 0.535827
0.488166 0.420156 0.538518
0.520426 0.425258 0.541853
0.551873 0.431572 0.545913
0.592823 0.423442 0.558822
0.323282 0.452099 0.564053
0.372055 0.456031 0.552949
0.414753 0.460045 0.539959
0.437263 0.460597 0.543435
0.467388 0.461467 0.547186
0.500554 0.463973 0.549133
0.533272 0.467373 0.551469
0.565427 0.471520 0.554510
0.602617 0.472703 0.562064
0.352832 0.508508 0.564208
0.391086 0.507851 0.558493
0.435099 0.507202 0.549855
0.457046 0.508564 0.551089
0.481312 0.510408 0.557005
0.513725 0.510523 0.564291
0.550679 0.512524 0.563537
0.585618 0.514858 0.564012
0.621322 0.517984 0.566284
0.378746 0.557873 0.565305
0.410168 0.556704 0.563506
0.455437 0.554900 0.560369
0.479996 0.556157 0.560805
0.501114 0.560093 0.564072
0.529054 0.564985 0.567736
0.568095 0.568095 0.568095
0.613943 0.566560 0.561842
0.652728 0.568583 0.559812
0.418652 0.611583 0.575011
0.440352 0.610032 0.574587
0.479960 0.606999 0.573991
0.506039 0.607519 0.574570
0.525447 0.612925 0.575533
0.550451 0.621202 0.574201
0.584247 0.632653 0.560190
0.636410 0.637364 0.560541
0.687188 0.646515 0.553914
0.369034 0.682604 0.597068
0.406935 0.681456 0.596850
0.461837 0.680093 0.596356
0.492715 0.683607 0.595302
0.525459 0.690713 0.591985
0.564870 0.700923 0.582382
0.616274 0.714183 0.560211
0.687791 0.729359 0.570172
0.768107 0.767136 0.558656
0.338457 0.276100 0.562900
0.345910 0.277110 0.562926
0.371625 0.279925 0.563288
0.407565 0.283416 0.564448
0.445404 0.286159 0.566824
0.482044 0.288150 0.570444
0.516954 0.290413 0.575065
0.550350 0.294068 0.580442
0.589032 0.229826 0.593496
0.339931 0.290369 0.564268
0.352385 0.307344 0.561026
0.376728 0.312260 0.560814
0.410891 0.320093 0.560943
0.446779 0.326602 0.562730
0.481930 0.330986 0.566437
0.516015 0.333953 0.571660
0.549148 0.336716 0.577869
0.588650 0.287779 0.592680
0.330786 0.308418 0.576758
0.362549 0.353081 0.563798
0.388087 0.363717 0.560091
0.418250 0.367185 0.560936
0.451734 0.372463 0.562518
0.484997 0.379460 0.565079
0.517118 0.387975 0.568819
0.548809 0.395628 0.574640
0.590714 0.360655 0.593536
0.316396 0.367864 0.592880
0.361570 0.393369 0.579983
0.403157 0.413079 0.564563
0.429781 0.415056 0.565703
0.460778 0.417827 0.567948
0.492874 0.421767 0.571093
0.524675 0.427001 0.575196
0.556002 0.433663 0.580385
0.597439 0.418724 0.598161
0.341520 0.447634 0.598077
0.379064 0.453733 0.588285
0.420057 0.460644 0.574187
0.442147 0.460402 0.577321
0.472393 0.462175 0.579736
0.504500 0.464847 0.582830
0.536786 0.468487 0.586744
0.568919 0.473274 0.591649
0.608130 0.471082 0.605154
0.367421 0.507735 0.603262
0.398118 0.508074 0.596954
0.439261 0.508711 0.586024
0.461188 0.509574 0.586989
0.484372 0.509605 0.595095
0.517241 0.509908 0.601289
0.552926 0.512516 0.604345
0.587883 0.516203 0.608188
0.626351 0.518705 0.616885
0.393886 0.560656 0.609974
0.418914 0.559636 0.606629
0.459612 0.557933 0.600004
0.483769 0.558810 0.599706
0.504069 0.561858 0.606162
0.530582 0.564738 0.616717
0.568785 0.564153 0.629379
0.613941 0.566485 0.629918
0.657286 0.569553 0.633445
0.421575 0.614033 0.621708
0.442694 0.613088 0.620417
0.482706 0.611405 0.617834
0.509912 0.612559 0.618267
0.529381 0.617747 0.623077
0.553815 0.625554 0.630331
0.587057 0.635587 0.639245
0.642877 0.642877 0.642877
0.713495 0.639939 0.633234
0.366805 0.687901 0.653989
0.405665 0.687214 0.653506
0.462233 0.686880 0.653129
0.492510 0.691180 0.655298
0.522862 0.699761 0.659160
0.560618 0.712835 0.663273
0.606946 0.732773 0.663556
0.674510 0.765114 0.631946
0.812564 0.811268 0.634095
0.355805 0.269100 0.591439
0.361875 0.269367 0.591615
0.383688 0.268677 0.592566
0.416314 0.267302 0.594508
0.452475 0.264309 0.597690
0.488595 0.259542 0.602199
0.523739 0.252891 0.608057
0.558029 0.244494 0.615256
0.591984 0.231976 0.623936
0.354762 0.273669 0.594031
0.366528 0.299574 0.590803
0.387222 0.299586 0.591743
0.418578 0.299203 0.593726
0.453802 0.297505 0.597041
0.489374 0.294518 0.601736
0.524252 0.290136 0.607814
0.558468 0.284488 0.615247
0.592520 0.275266 0.624217
0.344972 0.281915 0.606268
0.363388 0.318521 0.601182
0.389931 0.332408 0.599319
0.422055 0.331247 0.601420
0.458099 0.329773 0.604645
0.494318 0.327711 0.609123
0.529650 0.325402 0.614838
0.563752 0.328456 0.621147
0.597763 0.327588 0.629487
0.302090 0.313606 0.628885
0.342105 0.348859 0.622705
0.385067 0.367451 0.618870
0.426339 0.375129 0.618440
0.465714 0.375418 0.620753
0.503826 0.376011 0.624071
0.540142 0.376950 0.628560
0.575111 0.378503 0.634312
0.611246 0.367898 0.643905
0.298259 0.427929 0.640586
0.340376 0.434519 0.636132
0.379696 0.435067 0.636653
0.424973 0.432345 0.640912
0.474582 0.438971 0.639540
0.515620 0.438565 0.642611
0.554173 0.438183 0.646938
0.591167 0.437946 0.652630
0.632288 0.420816 0.665964
0.316119 0.504453 0.649266
0.354854 0.505429 0.645801
0.396439 0.505941 0.644785
0.427436 0.503539 0.653576
0.469902 0.496343 0.666125
0.524612 0.499629 0.664206
0.568312 0.498863 0.668179
0.609586 0.498085 0.674168
0.658900 0.481475 0.693131
0.335448 0.565647 0.658811
0.371221 0.565171 0.656433
0.415607 0.564926 0.654763
0.440826 0.566212 0.661853
0.475877 0.566848 0.673473
0.519743 0.562820 0.689307
0.576866 0.558877 0.694311
0.628882 0.558107 0.700180
0.688062 0.547496 0.721425
0.356260 0.624777 0.673726
0.389869 0.624148 0.672417
0.437592 0.623823 0.671303
0.461186 0.626918 0.676613
0.489595 0.631990 0.686450
0.526867 0.637680 0.700936
0.573361 0.640351 0.722570
0.645805 0.631974 0.745872
0.732475 0.625990 0.763337
0.360285 0.696742 0.705553
0.402761 0.696508 0.705180
0.461631 0.697365 0.705722
0.487413 0.702998 0.711291
0.509654 0.713803 0.722180
0.541327 0.730560 0.739027
0.584939 0.756543 0.765082
0.649143 0.802682 0.811295
0.954339 0.954339 0.954339
