OCIO/luts/ACES_v2.0.0/ACES v2.0.0 Output Rec2100 (P3D65 1000nit Limited)_inverse.cube
TITLE "Generated by Foundry::LUT"
LUT_3D_SIZE 65
0.072906 0.072906 0.072906
0.129782 0.072519 0.073092
0.176269 0.071647 0.073130
0.209456 0.070266 0.073081
0.234922 0.068333 0.072954
0.256056 0.065826 0.072761
0.274387 0.062755 0.072513
0.290737 0.059161 0.072225
0.305606 0.055115 0.071910
0.319323 0.050703 0.071579
0.332127 0.046016 0.071242
0.344196 0.041137 0.070906
0.355672 0.036135 0.070580
0.366671 0.031065 0.070269
0.377287 0.025965 0.069983
0.387602 0.020863 0.069731
0.397680 0.015778 0.069525
0.407578 0.010725 0.069377
0.417342 0.005716 0.069306
0.427014 0.000761 0.069329
0.436625 -0.004122 0.069469
0.446206 -0.008917 0.069754
0.455782 -0.013602 0.070214
0.465369 -0.018146 0.070885
0.474987 -0.022518 0.071810
0.484647 -0.026673 0.073037
0.494365 -0.030568 0.074623
0.504145 -0.034149 0.076630
0.513999 -0.037355 0.079133
0.523928 -0.040122 0.082212
0.533943 -0.042393 0.085961
0.544048 -0.044104 0.090484
0.554244 -0.045194 0.095895
0.564543 -0.045615 0.102329
0.574946 -0.045322 0.109933
0.585464 -0.044290 0.118877
0.596107 -0.042519 0.129358
0.606881 -0.040019 0.141597
0.617809 -0.036849 0.155867
0.628902 -0.033087 0.170905
0.640184 -0.028880 0.185540
0.651683 -0.024448 0.199865
0.663429 -0.020086 0.213971
0.675466 -0.016297 0.227953
0.687844 -0.013780 0.241905
0.700624 -0.013704 0.255928
0.713898 -0.017935 0.270146
0.727763 -0.029583 0.284676
0.742373 -0.054106 0.299690
0.757913 -0.101188 0.315370
0.774665 -0.189241 0.331981
0.793017 -0.354884 0.349865
0.813597 -0.677246 0.369549
0.837453 -1.348501 0.391886
0.866490 -2.914375 0.418356
0.905019 -7.428878 0.452190
0.966288 -28.400053 0.502650
1.088146 1.088146 1.088146
1.468035 1.468035 1.468035
1.468035 1.468035 1.468035
1.468035 1.468035 1.468035
1.468035 1.468035 1.468035
1.468035 1.468035 1.468035
1.468035 1.468035 1.468035
1.468035 1.468035 1.468035
0.073621 0.114107 0.073617
0.104482 0.104504 0.073813
0.155326 0.094350 0.073978
0.196315 0.088631 0.074361
0.224055 0.085925 0.074934
0.247348 0.082629 0.074860
0.268000 0.077758 0.074244
0.285958 0.072616 0.073650
0.301979 0.067204 0.073088
0.316546 0.061559 0.072562
0.329987 0.055748 0.072071
0.342540 0.049845 0.071616
0.354387 0.043913 0.071196
0.365671 0.038002 0.070812
0.376508 0.032148 0.070468
0.386994 0.026376 0.070168
0.397204 0.020694 0.069922
0.407205 0.015116 0.069741
0.417049 0.009643 0.069640
0.426784 0.004280 0.069637
0.436444 -0.000962 0.069754
0.446064 -0.006073 0.070017
0.455669 -0.011037 0.070456
0.465281 -0.015829 0.071109
0.474917 -0.020416 0.072016
0.484593 -0.024765 0.073227
0.494322 -0.028830 0.074797
0.504111 -0.032560 0.076790
0.513973 -0.035902 0.079279
0.523907 -0.038791 0.082345
0.533927 -0.041167 0.086082
0.544036 -0.042970 0.090593
0.554234 -0.044149 0.095992
0.564536 -0.044643 0.102417
0.574941 -0.044418 0.110012
0.585460 -0.043442 0.118948
0.596103 -0.041722 0.129421
0.606879 -0.039271 0.141652
0.617807 -0.036132 0.155916
0.628900 -0.032411 0.170940
0.640183 -0.028236 0.185565
0.651682 -0.023822 0.199885
0.663429 -0.019481 0.213985
0.675466 -0.015698 0.227963
0.687844 -0.013200 0.241914
0.700624 -0.013112 0.255935
0.713898 -0.017356 0.270151
0.727763 -0.029007 0.284680
0.742374 -0.053510 0.299693
0.757913 -0.100589 0.315373
0.774665 -0.188616 0.331984
0.793018 -0.354163 0.349867
0.813598 -0.676493 0.369551
0.837454 -1.347690 0.391887
0.866491 -2.913436 0.418357
0.905020 -7.427720 0.452191
0.966290 -28.398870 0.502652
1.088167 1.088167 1.088167
1.468035 1.468035 1.468035
1.468035 1.468035 1.468035
1.468035 1.468035 1.468035
1.468035 1.468035 1.468035
1.468035 1.468035 1.468035
1.468035 1.468035 1.468035
1.468035 1.468035 1.468035
0.073796 0.149592 0.074050
0.092250 0.142659 0.074824
0.131506 0.131600 0.074804
0.179151 0.120450 0.075055
0.213700 0.111676 0.075399
0.239128 0.105708 0.076006
0.259455 0.102011 0.076797
0.276674 0.100033 0.077750
0.293097 0.096462 0.077767
0.309376 0.089205 0.076520
0.324288 0.081380 0.075345
0.338023 0.073401 0.074336
0.350815 0.065406 0.073479
0.362849 0.057508 0.072754
0.374281 0.049780 0.072145
0.385237 0.042268 0.071637
0.395818 0.035001 0.071226
0.406111 0.027984 0.070911
0.416187 0.021219 0.070698
0.426103 0.014702 0.070601
0.435907 0.008429 0.070635
0.445640 0.002402 0.070824
0.455335 -0.003372 0.071198
0.465017 -0.008886 0.071791
0.474709 -0.014115 0.072643
0.484429 -0.019032 0.073802
0.494194 -0.023607 0.075324
0.504010 -0.027783 0.077273
0.513894 -0.031528 0.079719
0.523845 -0.034775 0.082745
0.533879 -0.037471 0.086445
0.543999 -0.039562 0.090921
0.554205 -0.040990 0.096288
0.564514 -0.041708 0.102683
0.574924 -0.041681 0.110250
0.585447 -0.040888 0.119159
0.596094 -0.039320 0.129609
0.606872 -0.037004 0.141819
0.617802 -0.033991 0.156062
0.628897 -0.030371 0.171048
0.640180 -0.026278 0.185645
0.651680 -0.021943 0.199943
0.663428 -0.017654 0.214030
0.675465 -0.013923 0.227997
0.687844 -0.011439 0.241939
0.700624 -0.011390 0.255954
0.713899 -0.015615 0.270166
0.727764 -0.027253 0.284692
0.742374 -0.051698 0.299703
0.757914 -0.098729 0.315381
0.774666 -0.186641 0.331990
0.793019 -0.352059 0.349872
0.813599 -0.674247 0.369556
0.837456 -1.345090 0.391892
0.866493 -2.910308 0.418361
0.905023 -7.423808 0.452196
0.966296 -28.394344 0.502658
1.088247 1.088247 1.088247
1.468035 1.468035 1.468035
1.468035 1.468035 1.468035
1.468035 1.468035 1.468035
1.468035 1.468035 1.468035
1.468035 1.468035 1.468035
1.468035 1.468035 1.468035
1.468035 1.468035 1.468035
0.073644 0.182276 0.074377
0.076698 0.184090 0.071192
0.116523 0.170474 0.075953
0.159965 0.160160 0.076012
0.199623 0.148509 0.076413
0.229369 0.138075 0.076718
0.252724 0.129819 0.077315
0.271995 0.123770 0.078138
0.288581 0.119635 0.079142
0.303372 0.116995 0.080273
0.316912 0.115515 0.081506
0.331192 0.108816 0.080522
0.353794 0.057682 0.070093
0.358222 0.089288 0.077221
0.370541 0.079264 0.075920
0.382229 0.069415 0.074859
0.393408 0.059859 0.074008
0.404186 0.050659 0.073342
0.414651 0.041853 0.072849
0.424881 0.033450 0.072521
0.434935 0.025454 0.072363
0.444868 0.017864 0.072390
0.454723 0.010676 0.072623
0.464532 0.003892 0.073091
0.474326 -0.002475 0.073831
0.484127 -0.008415 0.074889
0.493955 -0.013901 0.076318
0.503823 -0.018903 0.078179
0.513747 -0.023377 0.080546
0.523731 -0.027284 0.083497
0.533790 -0.030567 0.087126
0.543929 -0.033183 0.091537
0.554152 -0.035081 0.096843
0.564473 -0.036220 0.103181
0.574892 -0.036564 0.110696
0.585423 -0.036103 0.119556
0.596076 -0.034826 0.129961
0.606858 -0.032760 0.142132
0.617792 -0.029970 0.156335
0.628889 -0.026540 0.171249
0.640175 -0.022609 0.185794
0.651677 -0.018403 0.200054
0.663425 -0.014230 0.214112
0.675464 -0.010574 0.228059
0.687843 -0.008154 0.241986
0.700624 -0.008126 0.255990
0.713899 -0.012364 0.270193
0.727765 -0.023957 0.284715
0.742376 -0.048371 0.299721
0.757916 -0.095234 0.315395
0.774668 -0.183004 0.332002
0.793021 -0.348152 0.349883
0.813602 -0.669935 0.369566
0.837459 -1.340225 0.391900
0.866497 -2.904516 0.418370
0.905028 -7.416420 0.452205
0.966307 -28.386271 0.502669
1.088394 1.088394 1.088394
1.468035 1.468035 1.468035
1.468035 1.468035 1.468035
1.468035 1.468035 1.468035
1.468035 1.468035 1.468035
1.468035 1.468035 1.468035
1.468035 1.468035 1.468035
1.468035 1.468035 1.468035
0.073202 0.207472 0.074627
0.086772 0.203505 0.077169
0.108517 0.199440 0.077500
0.143415 0.193428 0.077302
0.185084 0.185332 0.077445
0.217707 0.176200 0.077996
0.243914 0.166674 0.078309
0.265521 0.157453 0.078851
0.283837 0.149452 0.079675
0.299868 0.143315 0.080698
0.314307 0.138772 0.081851
0.327606 0.135536 0.083101
0.340043 0.133484 0.084485
0.352398 0.129717 0.084929
0.372411 0.076833 0.071986
-17.914562 -2.473362 0.703605
0.389980 0.095292 0.079070
0.401390 0.083674 0.077706
0.412385 0.072420 0.076642
0.423052 0.061626 0.075850
0.433465 0.051346 0.075313
0.443690 0.041608 0.075025
0.453781 0.032426 0.074991
0.463782 0.023808 0.075231
0.473729 0.015761 0.075773
0.483653 0.008295 0.076654
0.493581 0.001422 0.077924
0.503527 -0.004829 0.079641
0.513515 -0.010434 0.081875
0.523549 -0.015358 0.084704
0.533648 -0.019560 0.088219
0.543818 -0.023000 0.092524
0.554066 -0.025632 0.097732
0.564407 -0.027431 0.103980
0.574842 -0.028366 0.111410
0.585385 -0.028427 0.120194
0.596047 -0.027616 0.130527
0.606837 -0.025962 0.142633
0.617776 -0.023516 0.156771
0.628878 -0.020394 0.171570
0.640167 -0.016723 0.186032
0.651672 -0.012728 0.200231
0.663422 -0.008730 0.214244
0.675462 -0.005205 0.228158
0.687842 -0.002868 0.242061
0.700624 -0.002886 0.256048
0.713900 -0.007104 0.270238
0.727766 -0.018673 0.284749
0.742378 -0.042954 0.299748
0.757918 -0.089673 0.315418
0.774671 -0.177160 0.332022
0.793025 -0.341909 0.349900
0.813606 -0.663145 0.369580
0.837464 -1.332399 0.391914
0.866503 -2.895211 0.418382
0.905038 -7.404840 0.452219
0.966324 -28.372948 0.502688
1.088630 1.088630 1.088630
1.468035 1.468035 1.468035
1.468035 1.468035 1.468035
1.468035 1.468035 1.468035
1.468035 1.468035 1.468035
1.468035 1.468035 1.468035
1.468035 1.468035 1.468035
1.468035 1.468035 1.468035
0.072522 0.228377 0.074828
0.084338 0.225567 0.077269
0.093617 0.225855 0.073585
0.132600 0.218223 0.079062
0.171400 0.212963 0.078868
0.206007 0.206296 0.079090
0.234072 0.198890 0.079769
0.257617 0.191126 0.080143
0.277760 0.183337 0.080615
0.295242 0.176067 0.081400
0.310777 0.169608 0.082412
0.324901 0.164064 0.083568
0.337967 0.159559 0.084880
0.350287 0.155896 0.086240
0.362017 0.153197 0.087716
0.373608 0.149458 0.088536
0.394781 0.067783 0.069389
0.523757 0.347615 -9.746570
0.522091 0.432415 -17.961510
0.420613 0.099564 0.081132
0.431471 0.086782 0.079948
0.442071 0.074544 0.079119
0.452473 0.062938 0.078634
0.462729 0.052010 0.078492
0.472885 0.041788 0.078707
0.482979 0.032299 0.079304
0.493045 0.023557 0.080323
0.503102 0.015587 0.081816
0.513179 0.008411 0.083847
0.523285 0.002061 0.086490
0.533441 -0.003438 0.089835
0.543657 -0.008054 0.093982
0.553941 -0.011748 0.099045
0.564310 -0.014503 0.105157
0.574768 -0.016286 0.112463
0.585329 -0.017106 0.121132
0.596005 -0.016971 0.131362
0.606805 -0.015906 0.143373
0.617753 -0.013985 0.157411
0.628861 -0.011311 0.172043
0.640156 -0.008015 0.186382
0.651664 -0.004343 0.200491
0.663417 -0.000591 0.214439
0.675459 0.002749 0.228305
0.687842 0.004957 0.242173
0.700625 0.004865 0.256133
0.713902 0.000637 0.270305
0.727769 -0.010836 0.284802
0.742381 -0.034947 0.299791
0.757922 -0.081396 0.315452
0.774676 -0.168478 0.332051
0.793030 -0.332648 0.349924
0.813612 -0.652913 0.369602
0.837472 -1.320893 0.391933
0.866513 -2.881595 0.418402
0.905052 -7.387931 0.452239
0.966349 -28.353458 0.502714
1.088977 1.088977 1.088977
1.468035 1.468035 1.468035
1.468035 1.468035 1.468035
1.468035 1.468035 1.468035
1.468035 1.468035 1.468035
1.468035 1.468035 1.468035
1.468035 1.468035 1.468035
1.468035 1.468035 1.468035
0.071676 0.246536 0.075016
0.081775 0.244575 0.077159
0.229069 0.091031 0.276623
0.126191 0.238356 0.081122
0.159923 0.234909 0.080811
0.194769 0.230272 0.080634
0.224286 0.224605 0.080931
0.249169 0.218372 0.081711
0.270676 0.211834 0.082174
0.289593 0.205132 0.082585
0.306349 0.198665 0.083303
0.321437 0.192697 0.084279
0.335268 0.187377 0.085450
0.348151 0.182784 0.086777
0.360336 0.178874 0.088195
0.372011 0.175545 0.089654
0.383264 0.172934 0.091251
0.395457 0.161785 0.089021
0.419574 0.017959 0.063243
0.696298 0.648912 -221.559631
0.449250 -0.287786 0.030654
0.440016 0.117001 0.085098
0.450787 0.102843 0.083926
0.461354 0.089345 0.083200
0.471772 0.076600 0.082914
0.482082 0.064681 0.083081
0.492326 0.053632 0.083725
0.502528 0.043500 0.084887
0.512723 0.034305 0.086621
0.522924 0.026091 0.088998
0.533158 0.018877 0.092099
0.543436 0.012700 0.096024
0.553769 0.007582 0.100881
0.564177 0.003541 0.106805
0.574666 0.000588 0.113936
0.585251 -0.001273 0.122447
0.595946 -0.002060 0.132530
0.606761 -0.001821 0.144408
0.617721 -0.000607 0.158300
0.628838 0.001450 0.172702
0.640139 0.004214 0.186871
0.651653 0.007450 0.200855
0.663410 0.010845 0.214712
0.675456 0.013918 0.228510
0.687840 0.015939 0.242329
0.700625 0.015765 0.256253
0.713904 0.011541 0.270398
0.727772 0.000178 0.284875
0.742386 -0.023705 0.299850
0.757928 -0.069765 0.315501
0.774682 -0.156275 0.332090
0.793038 -0.319551 0.349959
0.813621 -0.638593 0.369632
0.837482 -1.304675 0.391962
0.866527 -2.862444 0.418430
0.905071 -7.363636 0.452268
0.966385 -28.326349 0.502753
1.089467 1.089467 1.089467
1.468035 1.468035 1.468035
1.468035 1.468035 1.468035
1.468035 1.468035 1.468035
1.468035 1.468035 1.468035
1.468035 1.468035 1.468035
1.468035 1.468035 1.468035
1.468035 1.468035 1.468035
0.070750 0.262794 0.075229
0.079451 0.261393 0.077105
0.101574 0.257870 0.082195
0.067342 0.267642 0.062944
0.151321 0.253372 0.083082
0.184947 0.250159 0.082742
0.214764 0.246029 0.082594
0.240769 0.241106 0.082951
0.263313 0.235727 0.083809
0.283227 0.230089 0.084378
0.301118 0.224234 0.084743
0.317233 0.218455 0.085394
0.331914 0.212991 0.086345
0.345494 0.207954 0.087494
0.358228 0.203419 0.088798
0.370306 0.199455 0.090263
0.381911 0.195955 0.091782
0.393135 0.192993 0.093425
0.404088 0.190451 0.095137
0.418443 0.156160 0.083553
0.448005 -0.124844 0.060017
-5.232358 0.416303 0.562800
0.479122 -0.549113 -0.141976
0.459665 0.136234 0.089680
0.470384 0.120875 0.088693
0.480950 0.106316 0.088251
0.491409 0.092653 0.088364
0.501790 0.079988 0.089060
0.512133 0.068381 0.090382
0.522455 0.057885 0.092388
0.532786 0.048543 0.095156
0.543144 0.040386 0.098776
0.553540 0.033454 0.103356
0.564000 0.027745 0.109024
0.574529 0.023288 0.115922
0.585146 0.020066 0.124218
0.595867 0.018055 0.134105
0.606702 0.017218 0.145806
0.617677 0.017470 0.159482
0.628807 0.018703 0.173580
0.640117 0.020766 0.187526
0.651638 0.023417 0.201346
0.663401 0.026352 0.215080
0.675451 0.029068 0.228788
0.687839 0.030842 0.242540
0.700626 0.030549 0.256415
0.713907 0.026341 0.270524
0.727777 0.015112 0.284975
0.742392 -0.008463 0.299930
0.757935 -0.054008 0.315566
0.774691 -0.139714 0.332145
0.793048 -0.301845 0.350006
0.813633 -0.619144 0.369674
0.837497 -1.282679 0.392000
0.866546 -2.836305 0.418467
0.905097 -7.330744 0.452307
0.966434 -28.288910 0.502804
1.090139 1.090139 1.090139
1.468035 1.468035 1.468035
1.468035 1.468035 1.468035
1.468035 1.468035 1.468035
1.468035 1.468035 1.468035
1.468035 1.468035 1.468035
1.468035 1.468035 1.468035
1.468035 1.468035 1.468035
0.069829 0.277668 0.075505
0.077381 0.276647 0.077150
0.098147 0.273814 0.082113
0.240170 0.189706 0.261855
0.145881 0.269603 0.085600
0.177022 0.267352 0.085202
0.206205 0.264373 0.084848
0.232522 0.260661 0.084728
0.255967 0.256315 0.085143
0.276727 0.251591 0.086066
0.295378 0.246642 0.086735
0.312399 0.241471 0.087094
0.327958 0.236277 0.087678
0.342285 0.231264 0.088572
0.355637 0.226550 0.089705
0.368217 0.222233 0.091054
0.380227 0.218276 0.092492
0.391778 0.214758 0.094081
0.402989 0.211632 0.095772
0.413945 0.208869 0.097561
0.424788 0.205938 0.099097
0.443404 0.104116 0.069350
0.484607 -0.503507 -0.037024
0.323852 0.369669 0.381217
0.530548 -0.490258 -4.224549
0.479602 0.157412 0.094981
0.490292 0.141395 0.094478
0.500881 0.126004 0.094553
0.511399 0.111690 0.095322
0.521866 0.098572 0.096836
0.532317 0.086717 0.099160
0.542773 0.076194 0.102380
0.553249 0.067039 0.106594
0.563773 0.059284 0.111929
0.574354 0.052942 0.118521
0.585012 0.048008 0.126537
0.595765 0.044454 0.136169
0.606626 0.042232 0.147638
0.617620 0.041267 0.161010
0.628766 0.041446 0.174722
0.640088 0.042588 0.188379
0.651618 0.044491 0.201985
0.663389 0.046806 0.215561
0.675444 0.049064 0.229152
0.687836 0.050533 0.242818
0.700628 0.050078 0.256628
0.713911 0.045868 0.270690
0.727783 0.034854 0.285106
0.742400 0.011668 0.300035
0.757945 -0.033167 0.315652
0.774703 -0.117831 0.332218
0.793062 -0.278412 0.350068
0.813649 -0.593453 0.369730
0.837516 -1.253642 0.392051
0.866570 -2.801865 0.418516
0.905132 -7.287121 0.452358
0.966498 -28.239792 0.502871
1.091033 1.091033 1.091033
1.468035 1.468035 1.468035
1.468035 1.468035 1.468035
1.468035 1.468035 1.468035
1.468035 1.468035 1.468035
1.468035 1.468035 1.468035
1.468035 1.468035 1.468035
1.468035 1.468035 1.468035
0.068992 0.291504 0.075879
0.075566 0.290751 0.077319
0.094046 0.288623 0.081659
0.120097 0.285815 0.087498
-0.278544 0.337479 -0.128611
0.171081 0.282735 0.087911
0.199014 0.280572 0.087489
0.224964 0.277813 0.087127
0.248715 0.274451 0.087045
0.270219 0.270570 0.087510
0.289581 0.266367 0.088482
0.307209 0.261968 0.089254
0.323498 0.257359 0.089636
0.338574 0.252666 0.090148
0.352586 0.248071 0.090996
0.365730 0.243690 0.092128
0.378196 0.239576 0.093453
0.390123 0.235785 0.094958
0.401647 0.232292 0.096570
0.412856 0.229123 0.098312
0.423831 0.226230 0.100151
0.434636 0.223591 0.102097
0.447296 0.205596 0.093211
0.471647 -0.060960 0.052802
0.564944 -0.149890 -9.009477
0.461163 0.277805 0.191962
0.736514 0.699892 -451.363037
0.499832 0.177994 0.101338
0.510518 0.164595 0.101634
0.521152 0.149201 0.102519
0.531744 0.134555 0.104277
0.542316 0.121320 0.106983
0.552888 0.109583 0.110731
0.563490 0.099393 0.115640
0.574133 0.090788 0.121843
0.584842 0.083764 0.129503
0.595636 0.078313 0.138811
0.606529 0.074383 0.149985
0.617549 0.071905 0.162928
0.628714 0.070751 0.176165
0.640052 0.070765 0.189464
0.651594 0.071710 0.202801
0.663373 0.073258 0.216177
0.675436 0.074939 0.229619
0.687834 0.075991 0.243174
0.700629 0.075362 0.256903
0.713916 0.071161 0.270904
0.727791 0.060396 0.285275
0.742410 0.037784 0.300171
0.757958 -0.006160 0.315764
0.774718 -0.089480 0.332311
0.793079 -0.248073 0.350148
0.813670 -0.560219 0.369801
0.837541 -1.215892 0.392116
0.866602 -2.757025 0.418579
0.905177 -7.231221 0.452426
0.966582 -28.176271 0.502959
1.092197 1.092197 1.092197
1.468035 1.468035 1.468035
1.468035 1.468035 1.468035
1.468035 1.468035 1.468035
1.468035 1.468035 1.468035
1.468035 1.468035 1.468035
1.468035 1.468035 1.468035
1.468035 1.468035 1.468035
0.068310 0.304545 0.076386
0.074045 0.303986 0.077644
0.090413 0.302385 0.081423
0.117298 0.299763 0.088132
0.208671 0.274951 0.169579
0.155756 0.298668 0.083502
0.193317 0.295277 0.090410
0.218433 0.293223 0.089954
0.241975 0.290664 0.089601
0.263770 0.287602 0.089552
0.283758 0.284108 0.090062
0.301999 0.280335 0.091076
0.318793 0.276386 0.091939
0.334464 0.272245 0.092353
0.349113 0.267997 0.092844
0.362848 0.263782 0.093641
0.375813 0.259718 0.094762
0.388167 0.255852 0.096102
0.400042 0.252219 0.097617
0.411546 0.248825 0.099269
0.422759 0.245685 0.101065
0.433769 0.242728 0.102927
0.444619 0.239971 0.104917
0.455378 0.237227 0.106887
0.472625 0.148703 0.070526
0.506476 -0.523775 0.019091
-1.424956 0.431505 0.487937
0.522207 -0.764145 -0.017830
0.509638 0.205710 0.108159
0.520354 0.196778 0.109204
0.531065 0.186405 0.110660
0.541769 0.174515 0.112734
0.552452 0.162058 0.115905
0.563146 0.149384 0.120285
0.573865 0.138149 0.126005
0.584634 0.128681 0.133225
0.595476 0.120972 0.142131
0.606408 0.114991 0.152939
0.617459 0.110670 0.165283
0.628649 0.107903 0.177950
0.640006 0.106518 0.190814
0.651563 0.106283 0.203822
0.663354 0.106882 0.216950
0.675425 0.107831 0.230208
0.687830 0.108417 0.243624
0.700631 0.107534 0.257251
0.713923 0.103376 0.271175
0.727801 0.092961 0.285490
0.742424 0.071039 0.300344
0.757974 0.028210 0.315906
0.774737 -0.053354 0.332431
0.793102 -0.209451 0.350250
0.813696 -0.517769 0.369891
0.837573 -1.167767 0.392199
0.866643 -2.700088 0.418660
0.905235 -7.159365 0.452511
0.966688 -28.094704 0.503071
1.093724 1.093725 1.093725
1.468035 1.468035 1.468035
1.468035 1.468035 1.468035
1.468035 1.468035 1.468035
1.468035 1.468035 1.468035
1.468035 1.468035 1.468035
1.468035 1.468035 1.468035
1.468035 1.468035 1.468035
0.067841 0.316970 0.077057
0.072858 0.316552 0.078156
0.087311 0.315346 0.081438
0.112226 0.313257 0.087551
0.140595 0.311153 0.093438
0.328730 -0.539706 0.446508
0.189081 0.308924 0.093544
0.213060 0.307382 0.093086
0.236031 0.305438 0.092615
0.257717 0.303065 0.092275
0.277980 0.300264 0.092266
0.296755 0.297098 0.092815
0.314083 0.293688 0.093867
0.330186 0.290119 0.094806
0.345331 0.286379 0.095286
0.359612 0.282519 0.095757
0.373100 0.278656 0.096525
0.385913 0.274882 0.097607
0.398178 0.271254 0.098945
0.410003 0.267815 0.100503
0.421492 0.264556 0.102201
0.432720 0.261491 0.104050
0.443759 0.258577 0.105996
0.454645 0.255847 0.108120
0.465434 0.253208 0.110347
0.478329 0.232801 0.095861
0.502128 -0.116615 0.043281
0.574737 -1.425819 -4.900270
0.495856 0.297061 0.199760
0.589629 -1.080851 -8.729533
0.530439 0.221388 0.116570
0.541177 0.214558 0.119190
0.551940 0.206620 0.122243
0.562738 0.197580 0.125988
0.573543 0.188648 0.131127
0.584384 0.180039 0.137811
0.595284 0.172030 0.146228
0.606263 0.164898 0.156581
0.617351 0.158911 0.168110
0.628569 0.154291 0.180111
0.639950 0.151235 0.192461
0.651525 0.149588 0.205076
0.663330 0.149040 0.217905
0.675413 0.149121 0.230937
0.687826 0.149115 0.244183
0.700634 0.147953 0.257684
0.713931 0.143867 0.271515
0.727814 0.133884 0.285759
0.742440 0.112846 0.300560
0.757995 0.071482 0.316084
0.774761 -0.007953 0.332579
0.793130 -0.160821 0.350379
0.813730 -0.464500 0.370005
0.837614 -1.107325 0.392305
0.866694 -2.628247 0.418761
0.905307 -7.068952 0.452619
0.966822 -27.991943 0.503210
1.095676 1.095676 1.095676
1.468035 1.468035 1.468035
1.468035 1.468035 1.468035
1.468035 1.468035 1.468035
1.468035 1.468035 1.468035
1.468035 1.468035 1.468035
1.468035 1.468035 1.468035
1.468035 1.468035 1.468035
0.067639 0.328919 0.077925
0.072041 0.328604 0.078887
0.084858 0.327687 0.081760
0.107380 0.326071 0.087122
0.137094 0.324032 0.094116
-0.299343 0.348765 -0.041652
-0.052733 0.343015 0.042100
0.208844 0.320643 0.096443
0.231007 0.319158 0.095964
0.252296 0.317325 0.095488
0.272515 0.315121 0.095170
0.291546 0.312552 0.095199
0.309337 0.309670 0.095791
0.325908 0.306573 0.096881
0.341434 0.303333 0.097895
0.356135 0.299940 0.098444
0.370098 0.296422 0.098902
0.383368 0.292880 0.099658
0.396043 0.289390 0.100734
0.408228 0.286005 0.102082
0.420020 0.282751 0.103644
0.431503 0.279647 0.105395
0.442753 0.276681 0.107289
0.453817 0.273862 0.109357
0.464758 0.271127 0.111520
0.475604 0.268471 0.113838
0.486677 0.263866 0.113658
0.504888 0.134247 0.058740
0.539561 -0.884111 -0.039329
0.342247 0.438143 0.458525
0.559526 -1.356880 -0.160087
0.072906 0.072906 0.072906
0.551520 0.236740 0.127338
0.562310 0.231843 0.132123
0.573168 0.225894 0.137318
0.584090 0.219133 0.143371
0.595056 0.212810 0.151208
0.606089 0.207097 0.160846
0.617221 0.202163 0.171435
0.628474 0.198141 0.182682
0.639882 0.195105 0.194438
0.651479 0.193042 0.206591
0.663302 0.191826 0.219066
0.675397 0.191217 0.231827
0.687822 0.190772 0.244870
0.700638 0.189802 0.258217
0.713941 0.187133 0.271932
0.727830 0.180475 0.286091
0.742462 0.164323 0.300828
0.758020 0.125278 0.316304
0.774791 0.048589 0.332764
0.793165 -0.100297 0.350539
0.813771 -0.398071 0.370146
0.837663 -1.032095 0.392434
0.866757 -2.538929 0.418887
0.905398 -6.956483 0.452753
0.966988 -27.864340 0.503385
1.098163 1.098163 1.098163
1.468035 1.468035 1.468035
1.468035 1.468035 1.468035
1.468035 1.468035 1.468035
1.468035 1.468035 1.468035
1.468035 1.468035 1.468035
1.468035 1.468035 1.468035
1.468035 1.468035 1.468035
0.067755 0.340496 0.079023
0.071629 0.340258 0.079865
0.083005 0.339559 0.082383
0.103270 0.338312 0.087078
0.132841 0.336501 0.094326
0.162869 0.334940 0.099964
0.278389 0.291658 0.270864
0.192528 0.335367 0.086532
0.226932 0.332104 0.099574
0.247625 0.330684 0.099076
0.267565 0.328960 0.098604
0.286595 0.326914 0.098310
0.304624 0.324553 0.098383
0.321601 0.321921 0.099015
0.337541 0.319100 0.100137
0.352583 0.316147 0.101211
0.366904 0.313059 0.101839
0.380586 0.309851 0.102329
0.393673 0.306595 0.103044
0.406229 0.303368 0.104110
0.418341 0.300221 0.105499
0.430107 0.297161 0.107079
0.441592 0.294216 0.108876
0.452863 0.291370 0.110820
0.463965 0.288639 0.112968
0.474952 0.285966 0.115231
0.485855 0.283350 0.117682
0.496704 0.280720 0.120271
0.511001 0.244880 0.086950
0.536643 -0.365847 0.031305
