OCIO/luts/ACES_v2.0.0/ACES v2.0.0 Output Rec2100 (P3D65 4000nit Limited)_inverse.cube
TITLE "Generated by Foundry::LUT"
LUT_3D_SIZE 9
0.072906 0.072906 0.072906
0.305606 0.036950 0.070821
0.397779 -0.042149 0.066595
0.471655 -0.114741 0.059841
0.546696 -0.161048 0.068639
0.626064 -0.138618 0.140287
0.710810 0.006103 0.262855
0.808233 0.272172 0.369186
0.972086 -12.755699 0.522416
0.046934 0.274468 0.067994
0.248546 0.248807 0.082867
0.372805 0.209291 0.089575
0.463410 0.107811 0.079146
0.545303 -0.041764 0.079068
0.625883 -0.071285 0.144994
0.710794 0.054022 0.263360
0.808239 0.282592 0.369275
0.972109 -12.666027 0.522454
0.008530 0.369536 0.062360
-0.380216 0.391908 -0.026317
0.349197 0.349402 0.103873
0.452306 0.329273 0.113555
0.539542 0.310108 0.137449
0.624711 0.272621 0.175163
0.710679 0.273583 0.267038
0.808283 0.336040 0.369952
0.972283 -11.979587 0.522744
0.011296 0.452410 0.080770
0.148842 0.450618 0.105003
0.328452 0.446292 0.147740
0.439706 0.439810 0.151387
0.535322 0.428884 0.168372
0.623242 0.415395 0.201565
0.710299 0.412093 0.279803
0.808472 0.427460 0.372752
0.973026 -9.024779 0.523978
0.141209 0.535807 0.178449
0.201027 0.535569 0.184906
0.327449 0.534135 0.216185
0.429815 0.532517 0.220827
0.528686 0.528705 0.226023
0.620758 0.522212 0.240747
0.711096 0.513369 0.271566
0.939780 -169.215439 -48.286545
0.976261 -3.777568 0.514166
0.311410 0.621083 0.293707
0.318611 0.621056 0.294189
0.359182 0.620864 0.297656
0.431631 0.620718 0.294271
0.523433 0.620087 0.283498
0.618018 0.617973 0.301602
0.711184 0.615717 0.314263
0.817694 0.611798 0.265299
0.988196 0.467186 0.380179
0.422120 0.711975 0.393341
0.423788 0.711975 0.393381
0.435550 0.711975 0.393681
0.472197 0.711992 0.394612
0.529296 0.712992 0.368974
0.608393 0.716531 -0.727036
0.715861 0.715455 0.317268
0.824812 0.725329 0.316594
1.024177 0.786044 0.075702
0.531589 0.827162 0.507714
0.532144 0.827168 0.507723
0.536299 0.827210 0.507791
0.542255 0.827646 0.501481
0.559682 0.829189 0.473363
0.638080 0.831834 0.442491
0.717168 0.847377 -10.469986
0.866166 0.864288 -8.555849
1.468035 1.468035 1.468035
1.468035 1.468035 1.468035
1.468035 1.468035 1.468035
1.468035 1.468035 1.468035
1.468035 1.468035 1.468035
1.468035 1.468035 1.468035
1.468035 1.468035 1.468035
1.468035 1.468035 1.468035
1.468035 1.468035 1.468035
1.468035 1.468035 1.468035
-0.014786 -0.087042 0.388941
0.279826 0.046333 0.282871
0.391792 -0.007328 0.182259
0.470571 -0.094924 0.114394
0.546519 -0.153008 0.114685
0.626037 -0.135814 0.180339
0.710808 0.007150 0.273653
0.808236 0.272305 0.372497
0.972097 -12.758676 0.523520
0.059473 0.260863 0.260651
0.242481 0.242481 0.242481
0.363169 0.227811 0.224201
0.462648 0.115586 0.156164
0.545143 -0.035365 0.128687
0.625856 -0.068634 0.183988
0.710792 0.055043 0.274101
0.808242 0.282724 0.372582
0.972120 -12.669366 0.523556
0.025625 0.367580 0.172836
-0.291817 0.387779 0.032317
0.347132 0.347752 0.222270
0.448740 0.334837 0.210178
0.539278 0.311422 0.191467
0.624689 0.273022 0.205499
0.710677 0.273805 0.277378
0.808286 0.336110 0.373235
0.972293 -11.981944 0.523845
0.018387 0.452137 0.146804
0.152634 0.450394 0.171241
0.332964 0.445127 0.215994
0.439393 0.439614 0.210879
0.535013 0.429269 0.210002
0.623335 0.414817 0.222483
0.710297 0.412124 0.288840
0.808475 0.427482 0.375937
0.973037 -9.026816 0.525071
0.143831 0.535768 0.210212
0.202476 0.535531 0.214798
0.327520 0.534109 0.238035
0.429983 0.532450 0.242553
0.528674 0.528693 0.244610
0.620827 0.522105 0.253401
0.711206 0.512831 0.277832
0.939849 -169.561371 -47.708084
0.976273 -3.783130 0.515378
0.311596 0.621078 0.301645
0.318774 0.621051 0.302084
0.359254 0.620860 0.305244
0.431214 0.620751 0.301076
0.523844 0.620001 0.296643
0.618034 0.617979 0.306969
0.711243 0.615640 0.318047
0.817689 0.611556 0.271705
0.988242 0.458502 0.381587
0.422150 0.711976 0.395694
0.423815 0.711976 0.395733
0.435574 0.711977 0.396026
0.472217 0.711993 0.396937
0.528911 0.713028 0.370792
0.609745 0.716224 -0.524083
0.715852 0.715463 0.327329
0.824756 0.725294 0.323325
1.024226 0.785818 0.093820
0.531596 0.827166 0.508475
0.532153 0.827172 0.508484
0.536310 0.827213 0.508551
0.542244 0.827651 0.502285
0.559682 0.829194 0.474467
0.637849 0.831856 0.443036
0.717979 0.847168 -10.209298
0.866115 0.864275 -8.228662
1.468035 1.468035 1.468035
1.468035 1.468035 1.468035
1.468035 1.468035 1.468035
1.468035 1.468035 1.468035
1.468035 1.468035 1.468035
1.468035 1.468035 1.468035
1.468035 1.468035 1.468035
1.468035 1.468035 1.468035
1.468035 1.468035 1.468035
1.468035 1.468035 1.468035
-0.487702 -1.066865 0.523573
0.135856 -0.326288 0.460792
0.374008 0.001519 0.376701
0.465102 -0.036900 0.328045
0.545413 -0.112957 0.296946
0.625851 -0.117376 0.297272
0.710790 0.014985 0.328468
0.808259 0.273416 0.394267
0.972180 -12.778625 0.531536
0.022647 0.193738 0.412619
0.233652 0.236964 0.374371
0.359101 0.219073 0.358628
0.458985 0.140143 0.331190
0.544148 -0.002929 0.300891
0.625675 -0.051193 0.298463
0.710775 0.062785 0.328719
0.808265 0.283711 0.394335
0.972202 -12.689309 0.531572
0.048394 0.358820 0.358552
0.442901 -0.159463 0.149257
0.345112 0.345112 0.345112
0.444592 0.338266 0.337753
0.538739 0.312060 0.315637
0.624537 0.275728 0.305957
0.710661 0.275470 0.330558
0.808308 0.336633 0.394851
0.972376 -12.001710 0.531848
0.050386 0.450445 0.319892
0.169558 0.448991 0.322707
0.329571 0.444799 0.327184
0.438341 0.438604 0.332794
0.534065 0.430068 0.320087
0.623726 0.412287 0.306334
0.710286 0.412352 0.337135
0.808498 0.427663 0.396994
0.973120 -9.044220 0.533021
0.160592 0.535498 0.313006
0.210440 0.535274 0.314401
0.328091 0.533918 0.322298
0.430425 0.532178 0.324498
0.528619 0.528621 0.320558
0.621332 0.521342 0.313473
0.712036 0.508672 0.313406
0.940315 -171.990601 -43.479893
0.976362 -3.820540 0.524154
0.312825 0.621042 0.345589
0.319879 0.621017 0.345854
0.359817 0.620828 0.347762
0.429828 0.620854 0.342682
0.523436 0.620141 0.338386
0.618148 0.618024 0.339356
0.711711 0.615041 0.341583
0.817928 0.609403 0.303666
0.988597 0.305522 0.391761
0.422383 0.711986 0.411827
0.424039 0.711986 0.411859
0.435763 0.711987 0.412101
0.472229 0.712008 0.412769
0.525929 0.713303 0.383550
0.615939 0.714707 0.321256
0.715828 0.715513 0.372044
0.824468 0.725015 0.358294
1.024600 0.784069 0.211448
0.531668 0.827196 0.514093
0.532224 0.827201 0.514102
0.536381 0.827243 0.514167
0.542187 0.827684 0.508212
0.559684 0.829227 0.482488
0.636056 0.832029 0.447112
0.723264 0.845732 -8.199381
0.865768 0.864185 -5.765958
1.468035 1.468035 1.468035
1.468035 1.468035 1.468035
1.468035 1.468035 1.468035
1.468035 1.468035 1.468035
1.468035 1.468035 1.468035
1.468035 1.468035 1.468035
1.468035 1.468035 1.468035
1.468035 1.468035 1.468035
1.468035 1.468035 1.468035
1.468035 1.468035 1.468035
-0.737590 -1.458673 0.564662
-0.388211 -1.073108 0.549172
0.340441 -0.281969 0.498339
0.455152 -0.017211 0.456789
0.542252 -0.034107 0.431959
0.625210 -0.060659 0.418296
0.710728 0.045668 0.421086
0.808350 0.278059 0.450916
0.972523 -12.862108 0.559065
-0.146691 -0.162309 0.510471
0.013400 -0.104671 0.504573
0.341713 0.064442 0.480432
0.452360 0.131680 0.453262
0.541342 0.062272 0.432083
0.625053 0.002903 0.418602
0.710713 0.093207 0.421181
0.808356 0.287810 0.450954
0.972546 -12.772883 0.559096
0.043755 0.337742 0.473103
0.203861 0.341317 0.464609
0.344034 0.345643 0.447367
0.443251 0.336815 0.442936
0.537286 0.314375 0.432445
0.624027 0.284221 0.420564
0.710605 0.281810 0.421880
0.808400 0.338842 0.451243
0.972721 -12.082716 0.559338
0.092901 0.445945 0.445589
0.191646 0.445089 0.444704
0.297652 0.445310 0.445091
0.437551 0.437551 0.437551
0.533755 0.428973 0.429958
0.623491 0.412609 0.418953
0.710261 0.413110 0.424299
0.808590 0.428440 0.452449
0.973467 -9.114825 0.560365
0.197271 0.534581 0.428230
0.230671 0.534397 0.428443
0.330466 0.533273 0.429660
0.427353 0.532397 0.426728
0.528572 0.528506 0.422622
0.623312 0.518412 0.407103
0.713952 0.498470 0.396291
0.941654 -179.453003 -29.269257
0.976732 -3.977729 0.553793
0.317432 0.620912 0.429209
0.324043 0.620888 0.429303
0.362052 0.620711 0.429982
0.430597 0.620758 0.427672
0.519562 0.621204 0.413314
0.618550 0.618240 0.410633
0.713467 0.612790 0.400089
0.821009 0.597203 0.351670
0.989248 -2.116055 0.470674
0.423347 0.712027 0.458246
0.424987 0.712027 0.458266
0.436583 0.712028 0.458413
0.472529 0.712062 0.458692
0.518978 0.713945 0.431761
0.617316 0.714447 0.424225
0.716105 0.715714 0.424949
0.824691 0.723766 0.413066
1.026177 0.776104 0.329595
0.531984 0.827321 0.534497
0.532537 0.827327 0.534504
0.536547 0.827372 0.534507
0.542186 0.827818 0.529689
0.559900 0.829359 0.510163
0.627861 0.832765 0.461906
0.735642 0.841800 -0.355824
0.865093 0.864005 0.354037
1.468035 1.468035 1.468035
1.468035 1.468035 1.468035
1.468035 1.468035 1.468035
1.468035 1.468035 1.468035
1.468035 1.468035 1.468035
1.468035 1.468035 1.468035
1.468035 1.468035 1.468035
1.468035 1.468035 1.468035
1.468035 1.468035 1.468035
1.468035 1.468035 1.468035
-0.650358 -1.202723 0.596744
-0.514757 -1.119372 0.594398
0.250530 -0.707332 0.581178
0.440698 -0.173950 0.557309
0.537092 0.049914 0.537937
0.623687 0.069008 0.525502
0.710572 0.142639 0.520837
0.808639 0.292898 0.533845
0.973658 -13.133945 0.616493
-0.432313 -0.719569 0.586648
-0.318066 -0.668555 0.584886
0.276421 -0.403877 0.574635
0.440378 -0.030140 0.554885
0.536697 0.132100 0.537444
0.623578 0.128022 0.525495
0.710559 0.183894 0.520864
0.808645 0.301146 0.533863
0.973681 -13.043130 0.616519
0.052990 0.306372 0.559723
0.180558 0.316978 0.556460
0.329485 0.328561 0.550442
0.438866 0.328409 0.543807
0.534516 0.319529 0.534818
0.622843 0.302532 0.525451
0.710467 0.299478 0.521065
0.808690 0.346356 0.534002
0.973858 -12.345043 0.616718
0.162217 0.437809 0.545685
0.220616 0.437974 0.544623
0.324409 0.435837 0.541247
0.436011 0.436372 0.536277
0.531961 0.428939 0.532185
0.622768 0.414059 0.524477
0.710327 0.414091 0.521409
0.808884 0.431171 0.534586
0.974614 -9.342957 0.617565
0.243182 0.532555 0.532138
0.262629 0.532446 0.532027
0.338167 0.531771 0.531353
0.414995 0.532488 0.532245
0.527782 0.527782 0.527782
0.625476 0.514087 0.516550
0.714100 0.498946 0.510597
0.942779 -188.268372 -6.629910
0.977955 -4.501261 0.614009
0.330016 0.620585 0.525185
0.335582 0.620565 0.525199
0.368866 0.620420 0.525301
0.432905 0.620513 0.524503
0.514095 0.622369 0.515842
0.619367 0.618943 0.504888
0.718493 0.605945 0.483312
0.832452 0.546821 0.434108
0.990635 -2.844427 0.578652
0.426606 0.712174 0.533729
0.428180 0.712174 0.533738
0.439347 0.712177 0.533804
0.473613 0.712247 0.533758
0.520302 0.714103 0.523058
0.608427 0.717122 0.492527
0.717239 0.716442 0.490214
0.828917 0.719239 0.465261
1.031346 0.741622 0.433596
0.533069 0.827748 0.581476
0.533621 0.827753 0.581483
0.536539 0.827823 0.581219
0.542340 0.828269 0.578393
0.560088 0.829822 0.567397
0.601703 0.834771 0.511974
0.734505 0.841190 0.496157
0.865882 0.864573 0.490084
1.468035 1.468035 1.468035
1.468035 1.468035 1.468035
1.468035 1.468035 1.468035
1.468035 1.468035 1.468035
1.468035 1.468035 1.468035
1.468035 1.468035 1.468035
1.468035 1.468035 1.468035
1.468035 1.468035 1.468035
1.468035 1.468035 1.468035
1.468035 1.468035 1.468035
-0.230548 -0.587059 0.647862
-0.163079 -0.571593 0.647583
0.251866 -0.466197 0.645631
0.425534 -0.181628 0.639740
0.530795 0.174873 0.630227
0.621346 0.255979 0.621735
0.710361 0.276442 0.617356
0.809491 0.330032 0.625613
0.977002 -13.948923 0.698151
-0.176362 -0.440583 0.646641
-0.110181 -0.426564 0.646379
0.264175 -0.333255 0.644569
0.426231 -0.077688 0.639036
0.530733 0.217440 0.629960
0.621301 0.270361 0.621680
0.710353 0.286320 0.617358
0.809498 0.335407 0.625624
0.977026 -13.855528 0.698174
0.128634 0.281528 0.639622
0.182221 0.282749 0.639467
0.312454 0.290700 0.638362
0.430290 0.309964 0.634771
0.530326 0.329849 0.628204
0.620981 0.335607 0.621297
0.710300 0.337646 0.617374
0.809545 0.368028 0.625702
0.977210 -13.134251 0.698352
0.266366 0.432661 0.632156
0.282597 0.433230 0.631794
0.350565 0.436676 0.629484
0.435488 0.436031 0.628130
0.529286 0.431759 0.625706
0.620849 0.422994 0.621237
0.710434 0.421676 0.617382
0.809751 0.439934 0.626035
0.977996 -10.030991 0.699114
0.304436 0.529959 0.625505
0.313179 0.529957 0.625393
0.359375 0.529936 0.624620
-2.749400 0.498809 0.672528
0.523904 0.523071 0.629235
0.622381 0.514416 0.623191
0.714070 0.500433 0.615980
0.934858 -165.617462 0.447917
0.981568 -6.116820 0.697845
0.357661 0.620143 0.619689
0.361540 0.620131 0.619678
0.386346 0.620047 0.619598
0.438986 0.620182 0.619779
0.505226 0.622229 0.622039
0.618393 0.618393 0.618393
0.723942 0.596493 0.601782
0.833406 0.546869 0.599466
0.994730 -5.107661 0.685626
0.436249 0.712692 0.621990
0.437650 0.712693 0.621993
0.447663 0.712700 0.622019
0.477587 0.712853 0.621938
0.523406 0.714575 0.619398
0.598543 0.719935 0.604604
0.719700 0.718599 0.581660
0.839981 0.704161 0.541641
1.044156 -24.134060 0.586117
0.535553 0.829078 0.654019
0.535746 0.829091 0.653983
0.537204 0.829196 0.653713
0.543076 0.829647 0.652524
0.561096 0.831213 0.648061
0.603195 0.836227 0.629484
0.714982 0.847072 0.564021
0.869843 0.867595 0.556749
1.468035 1.468035 1.468035
1.468035 1.468035 1.468035
1.468035 1.468035 1.468035
1.468035 1.468035 1.468035
1.468035 1.468035 1.468035
1.468035 1.468035 1.468035
1.468035 1.468035 1.468035
1.468035 1.468035 1.468035
1.468035 1.468035 1.468035
1.468035 1.468035 1.468035
0.340166 0.329999 0.718222
0.344995 0.330305 0.718196
0.374782 0.332510 0.717998
0.442479 0.340183 0.717240
0.529824 0.355247 0.715324
0.619950 0.371042 0.712383
0.710945 0.380248 0.711093
0.812135 0.397723 0.720181
0.986994 -17.026007 0.796148
0.341371 0.337165 0.718117
0.346117 0.337420 0.718091
0.375525 0.339393 0.717896
0.442735 0.346242 0.717152
0.529861 0.359909 0.715266
0.619946 0.374463 0.712361
0.710945 0.383092 0.711092
0.812142 0.400193 0.720189
0.987021 -16.923328 0.796174
0.349430 0.376920 0.717371
0.353697 0.377048 0.717348
0.380609 0.377977 0.717180
0.444545 0.381340 0.716528
0.530132 0.388521 0.714847
0.619914 0.396725 0.712203
0.710946 0.402139 0.711090
0.812196 0.417019 0.720251
0.987227 -16.131880 0.796364
0.370079 0.451249 0.715151
0.373442 0.451333 0.715122
0.394741 0.451501 0.715005
0.450074 0.451858 0.714602
0.531048 0.452594 0.713505
0.619816 0.453143 0.711659
0.710965 0.453891 0.711098
0.812429 0.464908 0.720514
0.988112 -12.722782 0.797179
0.383571 0.533066 0.713296
0.386483 0.533098 0.713264
0.405814 0.533329 0.713035
0.450831 0.531717 0.713782
0.526657 0.525581 0.716117
0.619702 0.520772 0.715318
0.713392 0.512377 0.714111
0.904747 -113.726967 0.757815
0.992348 -11.903116 0.797773
0.409048 0.621253 0.711396
0.411041 0.621253 0.711388
0.424899 0.621249 0.711329
0.459074 0.621042 0.712105
-1.281356 0.608386 0.744584
0.611307 0.608485 0.728814
0.720029 0.597438 0.721740
0.833484 0.548380 0.724929
1.006927 -13.386836 0.798819
0.461178 0.714692 0.714217
0.462221 0.714694 0.714220
0.469828 0.714709 0.714237
0.490379 0.714962 0.714510
0.529115 0.716286 0.715927
0.591026 0.720785 0.720693
0.719487 0.719488 0.719487
0.851945 0.680185 0.697445
1.064638 -62.461304 0.798785
0.537837 0.833221 0.742270
0.538024 0.833234 0.742265
0.539471 0.833339 0.742225
0.545396 0.833786 0.742048
0.563488 0.835345 0.741349
0.606197 0.840347 0.738180
0.683978 0.856312 0.712689
0.880717 0.876926 0.647895
1.468035 1.468035 1.468035
1.468035 1.468035 1.468035
1.468035 1.468035 1.468035
1.468035 1.468035 1.468035
1.468035 1.468035 1.468035
1.468035 1.468035 1.468035
1.468035 1.468035 1.468035
1.468035 1.468035 1.468035
1.468035 1.468035 1.468035
1.468035 1.468035 1.468035
0.469263 0.480481 0.804505
0.470186 0.480487 0.804505
0.476959 0.480532 0.804509
0.500817 0.480714 0.804527
0.552686 0.481269 0.804617
0.628300 0.482523 0.805112
0.717142 0.484843 0.807831
0.821480 0.489817 0.821674
1.024897 -50.911518 0.925979
0.469324 0.481346 0.804502
0.470249 0.481352 0.804503
0.477014 0.481396 0.804507
0.500858 0.481574 0.804525
0.552706 0.482119 0.804616
0.628308 0.483357 0.805113
0.717148 0.485665 0.807835
0.821489 0.490712 0.821683
1.024948 -50.953690 0.926016
0.469795 0.487690 0.804486
0.470711 0.487696 0.804487
0.477440 0.487735 0.804491
0.501170 0.487891 0.804512
0.552862 0.488371 0.804610
0.628372 0.489482 0.805124
0.717194 0.491716 0.807872
0.821558 0.497284 0.821753
1.025340 -51.283539 0.926304
0.471670 0.510166 0.804437
0.472566 0.510169 0.804438
0.479140 0.510192 0.804445
0.502421 0.510287 0.804475
0.553501 0.510590 0.804600
0.628640 0.511376 0.805179
0.717390 0.513446 0.808032
0.821855 0.520634 0.822053
1.027022 -52.744518 0.927534
0.476609 0.559333 0.804517
0.477472 0.559344 0.804516
0.483812 0.559423 0.804509
0.506119 0.559584 0.804529
0.555498 0.559737 0.804723
0.629281 0.558852 0.805795
0.718213 0.553464 0.810044
0.863816 -94.812614 0.875709
1.033064 -58.562557 0.931956
0.486727 0.632527 0.805816
0.487496 0.632530 0.805817
0.493160 0.632559 0.805825
0.509417 0.631821 0.806491
1.337474 -29422.707031 0.768849
0.617836 0.612642 0.817851
0.720285 0.607058 0.821038
0.832464 0.587884 0.834365
1.054676 -88.670143 0.947777
0.514221 0.723223 0.812206
0.514507 0.723223 0.812232
0.516526 0.723222 0.812438
0.524677 0.723206 0.813320
0.548676 0.723039 0.816429
0.046542 0.716852 0.848915
0.708622 0.698815 0.854371
0.853373 0.681921 0.857666
1.178889 -1047.048584 1.041449
0.540589 0.846879 0.846501
0.540757 0.846892 0.846515
0.542060 0.846990 0.846616
0.547411 0.847405 0.847046
0.564050 0.848853 0.848545
0.604247 0.853497 0.853346
0.671776 0.868703 0.869008
0.898850 0.898850 0.898850
1.468035 1.468035 1.468035
1.468035 1.468035 1.468035
1.468035 1.468035 1.468035
1.468035 1.468035 1.468035
1.468035 1.468035 1.468035
1.468035 1.468035 1.468035
1.468035 1.468035 1.468035
1.468035 1.468035 1.468035
1.468035 1.468035 1.468035
1.468035 1.468035 1.468035
0.584825 0.592061 0.921971
0.585119 0.592060 0.921977
0.587336 0.592049 0.922023
0.596181 0.592005 0.922220
0.621412 0.591844 0.922911
0.673109 0.591247 0.925171
0.752395 0.588367 0.932672
0.865781 0.504707 0.962883
1.468035 1.468035 1.468035
0.584839 0.592332 0.921981
0.585131 0.592332 0.921987
0.587348 0.592322 0.922033
0.596193 0.592278 0.922230
0.621423 0.592120 0.922921
0.673120 0.591531 0.925182
0.752406 0.588685 0.932684
0.865798 0.504835 0.962914
1.468035 1.468035 1.468035
0.584936 0.594393 0.922058
0.585227 0.594392 0.922064
0.587444 0.594382 0.922110
0.596285 0.594343 0.922308
0.621510 0.594204 0.923000
0.673202 0.593680 0.925264
0.752492 0.591086 0.932777
0.865934 0.505754 0.963156
1.468035 1.468035 1.468035
0.585341 0.602659 0.922388
0.585633 0.602659 0.922394
0.587846 0.602655 0.922441
0.596678 0.602637 0.922639
0.621881 0.602567 0.923336
0.673552 0.602288 0.925613
0.752861 0.600636 0.933170
0.866514 0.509546 0.964183
1.468035 1.468035 1.468035
0.586740 0.626660 0.923555
0.587030 0.626662 0.923562
0.589236 0.626669 0.923609
0.598035 0.626700 0.923812
0.623167 0.626806 0.924523
0.674425 0.626065 0.926979
0.753249 0.616570 0.935660
0.868546 0.520494 0.967808
1.468035 1.468035 1.468035
0.573843 0.670173 0.929222
0.573960 0.670077 0.929250
0.574854 0.669335 0.929471
0.578623 0.666063 0.930406
0.592119 0.653586 0.933546
0.659321 0.647727 0.936894
0.751939 0.638613 0.945857
0.875167 0.542746 0.979811
1.468035 1.468035 1.468035
0.565894 0.756656 0.943932
0.566017 0.756630 0.943959
0.566958 0.756432 0.944166
0.570705 0.755548 0.945059
0.582965 0.752174 0.948189
0.614785 0.737022 0.958528
0.731630 0.686220 0.979753
0.897315 0.262367 1.022591
1.468035 1.468035 1.468035
-39.748707 0.911114 1.017971
-39.758381 0.911126 1.018005
-39.841347 0.911221 1.018257
-40.197903 0.911622 1.019335
-41.664116 0.913006 1.023161
-48.216202 0.917245 1.036070
-107.051208 0.925359 1.084952
1.468035 1.468035 1.468035
1.468035 1.468035 1.468035
1.468035 1.468035 1.468035
1.468035 1.468035 1.468035
1.468035 1.468035 1.468035
1.468035 1.468035 1.468035
1.468035 1.468035 1.468035
1.468035 1.468035 1.468035
1.468035 1.468035 1.468035
1.468035 1.468035 1.468035
1.468035 1.468035 1.468035
