OCIO/luts/ACES_v2.0.0/ACES v2.0.0 Output P3D65 (Rec709 sim).cube
TITLE "Generated by Foundry::LUT"
LUT_3D_SIZE 5
0.000000 0.000000 0.000000
0.079129 0.023023 0.019668
0.638338 0.185727 0.159231
0.945692 0.599260 0.531566
0.998655 0.992642 0.991265
0.047445 0.091050 0.049400
0.119114 0.118504 0.046881
0.649631 0.227236 0.151086
0.945924 0.601874 0.532709
0.998657 0.992650 0.991272
0.314214 0.603004 0.325625
0.317131 0.608603 0.308489
0.639012 0.635947 0.251570
0.951335 0.658541 0.567091
0.998683 0.992796 0.991425
0.730695 0.991282 0.712601
0.731607 0.991305 0.712627
0.748900 0.991742 0.712771
1.000000 1.000000 0.641583
0.999036 0.995039 0.993778
0.999133 0.999931 0.998943
0.999133 0.999931 0.998943
0.999145 0.999932 0.998957
0.999397 0.999943 0.999227
1.000000 1.000000 1.000000
0.010011 0.019211 0.046690
0.097696 0.028425 0.088925
0.637022 0.185345 0.254349
0.945966 0.602340 0.543430
0.998659 0.992664 0.991298
0.054183 0.103982 0.102189
0.125086 0.125086 0.125086
0.660544 0.198768 0.233884
0.946370 0.606840 0.546611
0.998661 0.992672 0.991306
0.313319 0.601287 0.365008
0.316209 0.606833 0.353100
0.637866 0.631970 0.259050
0.951933 0.664371 0.581079
0.998687 0.992818 0.991457
0.734159 0.991368 0.718343
0.735070 0.991391 0.718382
0.752199 0.991827 0.718645
1.000000 1.000000 0.645919
0.999037 0.995049 0.993795
0.999133 0.999931 0.998944
0.999134 0.999931 0.998944
0.999147 0.999932 0.998958
0.999398 0.999943 0.999228
1.000000 1.000000 1.000000
0.102740 0.197167 0.472496
0.084619 0.024622 0.549003
0.658508 0.191596 0.599191
0.946090 0.603731 0.619820
0.998729 0.993045 0.991874
0.130421 0.250290 0.481808
0.110809 0.205079 0.547209
0.668018 0.200207 0.611083
0.946526 0.608575 0.622780
0.998730 0.993052 0.991880
0.318873 0.611946 0.601304
0.320219 0.614529 0.604124
0.618112 0.618112 0.618112
0.955759 0.699985 0.685499
0.998754 0.993183 0.992014
0.745543 0.991656 0.764314
0.747296 0.991701 0.765084
0.779027 0.992542 0.779443
0.999847 0.999994 0.706581
0.999046 0.995220 0.994097
0.999141 0.999932 0.998962
0.999143 0.999932 0.998962
0.999155 0.999933 0.998975
0.999405 0.999944 0.999243
1.000000 1.000000 1.000000
0.558096 0.649589 0.975590
0.561632 0.649614 0.975617
0.619247 0.646268 0.975954
0.960248 0.738647 0.926278
0.998873 0.994164 0.994079
0.559999 0.652892 0.975728
0.564105 0.653373 0.975776
0.621001 0.649998 0.976108
0.960626 0.741769 0.927053
0.998874 0.994172 0.994085
0.592564 0.708217 0.978200
0.596906 0.709146 0.978275
0.667129 0.724146 0.979550
0.967655 0.796697 0.941056
0.998890 0.994317 0.994219
0.758441 0.991990 0.982997
0.759354 0.992014 0.983044
0.776261 0.992467 0.983891
0.966004 0.966004 0.966004
0.999142 0.996334 0.996085
0.999273 0.999945 0.999229
0.999274 0.999945 0.999229
0.999286 0.999946 0.999241
0.999530 0.999958 0.999476
1.000000 1.000000 1.000000
0.981189 0.985426 0.998636
0.981209 0.985435 0.998637
0.981580 0.985632 0.998657
0.986043 0.987611 0.998874
0.999667 0.998740 0.999363
0.981202 0.985438 0.998637
0.981221 0.985448 0.998638
0.981592 0.985645 0.998658
0.986054 0.987625 0.998875
0.999667 0.998741 0.999363
0.981451 0.985689 0.998659
0.981471 0.985699 0.998660
0.981833 0.985890 0.998680
0.986273 0.987873 0.998896
0.999671 0.998763 0.999375
0.985503 0.989688 0.999011
0.985515 0.989693 0.999011
0.985753 0.989802 0.999023
0.989609 0.991608 0.999218
0.999759 0.999160 0.999569
1.000000 1.000000 1.000000
1.000000 1.000000 1.000000
1.000000 1.000000 1.000000
1.000000 1.000000 1.000000
1.000000 1.000000 1.000000
