OCIO/luts/ACES_v2.0.0/ACES v2.0.0 Output Rec2100 (P3D65 4000nit Limited)_inverse.cube
TITLE "Generated by Foundry::LUT"
LUT_3D_SIZE 5
0.072906 0.072906 0.072906
0.397779 -0.042149 0.066595
0.546696 -0.161048 0.068639
0.710810 0.006103 0.262855
0.972086 -12.755699 0.522416
0.008530 0.369536 0.062360
0.349197 0.349402 0.103873
0.539542 0.310108 0.137449
0.710679 0.273583 0.267038
0.972283 -11.979587 0.522744
0.141209 0.535807 0.178449
0.327449 0.534135 0.216185
0.528686 0.528705 0.226023
0.711096 0.513369 0.271566
0.976261 -3.777568 0.514166
0.422120 0.711975 0.393341
0.435550 0.711975 0.393681
0.529296 0.712992 0.368974
0.715861 0.715455 0.317268
1.024177 0.786044 0.075702
1.468035 1.468035 1.468035
1.468035 1.468035 1.468035
1.468035 1.468035 1.468035
1.468035 1.468035 1.468035
1.468035 1.468035 1.468035
-0.487702 -1.066865 0.523573
0.374008 0.001519 0.376701
0.545413 -0.112957 0.296946
0.710790 0.014985 0.328468
0.972180 -12.778625 0.531536
0.048394 0.358820 0.358552
0.345112 0.345112 0.345112
0.538739 0.312060 0.315637
0.710661 0.275470 0.330558
0.972376 -12.001710 0.531848
0.160592 0.535498 0.313006
0.328091 0.533918 0.322298
0.528619 0.528621 0.320558
0.712036 0.508672 0.313406
0.976362 -3.820540 0.524154
0.422383 0.711986 0.411827
0.435763 0.711987 0.412101
0.525929 0.713303 0.383550
0.715828 0.715513 0.372044
1.024600 0.784069 0.211448
1.468035 1.468035 1.468035
1.468035 1.468035 1.468035
1.468035 1.468035 1.468035
1.468035 1.468035 1.468035
1.468035 1.468035 1.468035
-0.650358 -1.202723 0.596744
0.250530 -0.707332 0.581178
0.537092 0.049914 0.537937
0.710572 0.142639 0.520837
0.973658 -13.133945 0.616493
0.052990 0.306372 0.559723
0.329485 0.328561 0.550442
0.534516 0.319529 0.534818
0.710467 0.299478 0.521065
0.973858 -12.345043 0.616718
0.243182 0.532555 0.532138
0.338167 0.531771 0.531353
0.527782 0.527782 0.527782
0.714100 0.498946 0.510597
0.977955 -4.501261 0.614009
0.426606 0.712174 0.533729
0.439347 0.712177 0.533804
0.520302 0.714103 0.523058
0.717239 0.716442 0.490214
1.031346 0.741622 0.433596
1.468035 1.468035 1.468035
1.468035 1.468035 1.468035
1.468035 1.468035 1.468035
1.468035 1.468035 1.468035
1.468035 1.468035 1.468035
0.340166 0.329999 0.718222
0.374782 0.332510 0.717998
0.529824 0.355247 0.715324
0.710945 0.380248 0.711093
0.986994 -17.026007 0.796148
0.349430 0.376920 0.717371
0.380609 0.377977 0.717180
0.530132 0.388521 0.714847
0.710946 0.402139 0.711090
0.987227 -16.131880 0.796364
0.383571 0.533066 0.713296
0.405814 0.533329 0.713035
0.526657 0.525581 0.716117
0.713392 0.512377 0.714111
0.992348 -11.903116 0.797773
0.461178 0.714692 0.714217
0.469828 0.714709 0.714237
0.529115 0.716286 0.715927
0.719487 0.719488 0.719487
1.064638 -62.461304 0.798785
1.468035 1.468035 1.468035
1.468035 1.468035 1.468035
1.468035 1.468035 1.468035
1.468035 1.468035 1.468035
1.468035 1.468035 1.468035
0.584825 0.592061 0.921971
0.587336 0.592049 0.922023
0.621412 0.591844 0.922911
0.752395 0.588367 0.932672
1.468035 1.468035 1.468035
0.584936 0.594393 0.922058
0.587444 0.594382 0.922110
0.621510 0.594204 0.923000
0.752492 0.591086 0.932777
1.468035 1.468035 1.468035
0.586740 0.626660 0.923555
0.589236 0.626669 0.923609
0.623167 0.626806 0.924523
0.753249 0.616570 0.935660
1.468035 1.468035 1.468035
0.565894 0.756656 0.943932
0.566958 0.756432 0.944166
0.582965 0.752174 0.948189
0.731630 0.686220 0.979753
1.468035 1.468035 1.468035
1.468035 1.468035 1.468035
1.468035 1.468035 1.468035
1.468035 1.468035 1.468035
1.468035 1.468035 1.468035
1.468035 1.468035 1.468035
